(/opt/eagle-G/pcb-gcode.ulp)
(Copyright 2005 - 2012 by John Johnson)
(See readme.txt for licensing terms.)
(This file generated from the board:)
(.../metal detektor/metal detector proto1.brd)
(Current profile is /opt/eagle-G/profiles/mach.pp  )
(This file generated 29. 10. 19 19:49)
(Settings from pcb-machine.h)
(  Tool Size)
(0.1000  )
(Z Axis Settings)
(  High     Up        Down     Drill)
(50.0000 	5.0000  	-0.2000 	-2.0000 )
(spindle on time = 1.0000)
(milling depth = -0.2500)
(text depth = -0.1200)
(tool change at 0.0000  150.0000 100.0000 )
(feed rate xy = F200   )
(feed rate z  = F250   )
(Settings from pcb-defaults.h)
(isolate min = 0.0200)
(isolate max = 0.5080)
(isolate step = 0.1270)
(Generated top outlines, top drill, bottom outlines, bottom drill, )
(Unit of measure: mm)
(Metric Mode)
G21
(Absolute Coordinates)
G90
G00 X0.0000  Y0.0000  
M03
G04 P1.000000
G00 Z5.0000  
G00 X3.4736  Y41.3669 
G01 Z-0.2000 F250   
G01 X3.4944  Y41.4981 F200   
G01 X3.5355  Y41.6245 
G01 X3.5958  Y41.7430 
G01 X3.6739  Y41.8505 
G01 X3.7679  Y41.9445 
G01 X3.8754  Y42.0226 
G01 X3.9939  Y42.0829 
G01 X4.0448  Y42.0995 
G01 X4.0448  Y41.9778 
G01 X3.9720  Y41.9477 
G01 X3.8524  Y41.8677 
G01 X3.7507  Y41.7660 
G01 X3.6707  Y41.6464 
G01 X3.6157  Y41.5134 
G01 X3.5876  Y41.3723 
G01 X3.5876  Y40.9132 
G01 X3.4736  Y40.9132 
G01 X3.4736  Y41.3669 
G00 Z5.0000  
G00 X5.1624  Y39.9131 
G01 Z-0.2000 F250   
G01 X5.1416  Y39.7819 F200   
G01 X5.1005  Y39.6555 
G01 X5.0402  Y39.5370 
G01 X4.9621  Y39.4295 
G01 X4.8681  Y39.3355 
G01 X4.7606  Y39.2574 
G01 X4.6421  Y39.1971 
G01 X4.5912  Y39.1805 
G01 X4.5912  Y39.3022 
G01 X4.6640  Y39.3323 
G01 X4.7836  Y39.4123 
G01 X4.8853  Y39.5140 
G01 X4.9653  Y39.6336 
G01 X5.0203  Y39.7665 
G01 X5.0484  Y39.9077 
G01 X5.0484  Y40.3668 
G01 X5.1624  Y40.3668 
G01 X5.1624  Y39.9131 
G00 Z5.0000  
G00 X4.8681  Y41.9445 
G01 Z-0.2000 F250   
G01 X4.9621  Y41.8505 F200   
G01 X5.0402  Y41.7430 
G01 X5.1005  Y41.6245 
G01 X5.1416  Y41.4981 
G01 X5.1624  Y41.3669 
G01 X5.1624  Y40.9132 
G01 X5.0484  Y40.9132 
G01 X5.0484  Y41.3723 
G01 X5.0203  Y41.5134 
G01 X4.9653  Y41.6464 
G01 X4.8853  Y41.7660 
G01 X4.7836  Y41.8677 
G01 X4.6640  Y41.9477 
G01 X4.5912  Y41.9778 
G01 X4.5912  Y42.0995 
G01 X4.6421  Y42.0829 
G01 X4.7606  Y42.0226 
G01 X4.8681  Y41.9445 
G00 Z5.0000  
G00 X3.9939  Y39.1971 
G01 Z-0.2000 F250   
G01 X3.8754  Y39.2574 F200   
G01 X3.7679  Y39.3355 
G01 X3.6739  Y39.4295 
G01 X3.5958  Y39.5370 
G01 X3.5355  Y39.6555 
G01 X3.4944  Y39.7819 
G01 X3.4736  Y39.9131 
G01 X3.4736  Y40.3668 
G01 X3.5876  Y40.3668 
G01 X3.5876  Y39.9077 
G01 X3.6157  Y39.7665 
G01 X3.6707  Y39.6336 
G01 X3.7507  Y39.5140 
G01 X3.8524  Y39.4123 
G01 X3.9720  Y39.3323 
G01 X4.0448  Y39.3022 
G01 X4.0448  Y39.1805 
G01 X3.9939  Y39.1971 
G00 Z5.0000  
G00 X3.1979  Y8.1050  
G01 Z-0.2000 F250   
G01 X3.2882  Y8.2822  F200   
G01 X3.4051  Y8.4431  
G01 X3.5457  Y8.5837  
G01 X3.7066  Y8.7006  
G01 X3.8838  Y8.7909  
G01 X4.0702  Y8.8515  
G01 X4.0702  Y8.7316  
G01 X3.9275  Y8.6853  
G01 X3.7663  Y8.6031  
G01 X3.6200  Y8.4968  
G01 X3.4920  Y8.3688  
G01 X3.3857  Y8.2225  
G01 X3.3035  Y8.0613  
G01 X3.2572  Y7.9186  
G01 X3.1373  Y7.9186  
G01 X3.1979  Y8.1050  
G00 Z5.0000  
G00 X5.5397  Y7.1350  
G01 Z-0.2000 F250   
G01 X5.4494  Y6.9578  F200   
G01 X5.3326  Y6.7969  
G01 X5.1919  Y6.6563  
G01 X5.0310  Y6.5394  
G01 X4.8538  Y6.4491  
G01 X4.6674  Y6.3885  
G01 X4.6674  Y6.5084  
G01 X4.8101  Y6.5547  
G01 X4.9713  Y6.6369  
G01 X5.1176  Y6.7432  
G01 X5.2456  Y6.8712  
G01 X5.3519  Y7.0175  
G01 X5.4341  Y7.1787  
G01 X5.4804  Y7.3214  
G01 X5.6003  Y7.3214  
G01 X5.5397  Y7.1350  
G00 Z5.0000  
G00 X5.4341  Y8.0613  
G01 Z-0.2000 F250   
G01 X5.3519  Y8.2225  F200   
G01 X5.2456  Y8.3688  
G01 X5.1176  Y8.4968  
G01 X4.9713  Y8.6031  
G01 X4.8101  Y8.6853  
G01 X4.6674  Y8.7316  
G01 X4.6674  Y8.8515  
G01 X4.8538  Y8.7909  
G01 X5.0310  Y8.7006  
G01 X5.1919  Y8.5837  
G01 X5.3325  Y8.4431  
G01 X5.4494  Y8.2822  
G01 X5.5397  Y8.1050  
G01 X5.6003  Y7.9186  
G01 X5.4804  Y7.9186  
G01 X5.4341  Y8.0613  
G00 Z5.0000  
G00 X3.8838  Y6.4491  
G01 Z-0.2000 F250   
G01 X3.7066  Y6.5394  F200   
G01 X3.5457  Y6.6563  
G01 X3.4051  Y6.7969  
G01 X3.2882  Y6.9578  
G01 X3.1979  Y7.1350  
G01 X3.1373  Y7.3214  
G01 X3.2572  Y7.3214  
G01 X3.3035  Y7.1787  
G01 X3.3857  Y7.0175  
G01 X3.4920  Y6.8712  
G01 X3.6200  Y6.7432  
G01 X3.7663  Y6.6369  
G01 X3.9275  Y6.5547  
G01 X4.0702  Y6.5084  
G01 X4.0702  Y6.3885  
G01 X3.8838  Y6.4491  
G00 Z5.0000  
G00 X2.0777  Y35.5065 
G01 Z-0.2000 F250   
G01 X2.1623  Y35.6726 F200   
G01 X2.2719  Y35.8233 
G01 X2.4037  Y35.9551 
G01 X2.5544  Y36.0646 
G01 X2.7205  Y36.1493 
G01 X2.8550  Y36.1930 
G01 X2.8550  Y36.0731 
G01 X2.7643  Y36.0436 
G01 X2.6142  Y35.9671 
G01 X2.4779  Y35.8681 
G01 X2.3588  Y35.7491 
G01 X2.2599  Y35.6128 
G01 X2.1834  Y35.4627 
G01 X2.1539  Y35.3720 
G01 X2.0340  Y35.3720 
G01 X2.0777  Y35.5065 
G00 Z5.0000  
G00 X4.2723  Y34.5975 
G01 Z-0.2000 F250   
G01 X4.1876  Y34.4314 F200   
G01 X4.0781  Y34.2807 
G01 X3.9463  Y34.1489 
G01 X3.7955  Y34.0393 
G01 X3.6295  Y33.9547 
G01 X3.4950  Y33.9110 
G01 X3.4950  Y34.0309 
G01 X3.5857  Y34.0604 
G01 X3.7358  Y34.1369 
G01 X3.8721  Y34.2358 
G01 X3.9911  Y34.3549 
G01 X4.0901  Y34.4912 
G01 X4.1666  Y34.6413 
G01 X4.1961  Y34.7320 
G01 X4.3160  Y34.7320 
G01 X4.2723  Y34.5975 
G00 Z5.0000  
G00 X4.1666  Y35.4627 
G01 Z-0.2000 F250   
G01 X4.0901  Y35.6128 F200   
G01 X3.9911  Y35.7491 
G01 X3.8721  Y35.8681 
G01 X3.7358  Y35.9671 
G01 X3.5857  Y36.0436 
G01 X3.4950  Y36.0731 
G01 X3.4950  Y36.1930 
G01 X3.6295  Y36.1493 
G01 X3.7955  Y36.0646 
G01 X3.9463  Y35.9551 
G01 X4.0781  Y35.8233 
G01 X4.1876  Y35.6726 
G01 X4.2723  Y35.5065 
G01 X4.3160  Y35.3720 
G01 X4.1961  Y35.3720 
G01 X4.1666  Y35.4627 
G00 Z5.0000  
G00 X2.7205  Y33.9547 
G01 Z-0.2000 F250   
G01 X2.5544  Y34.0393 F200   
G01 X2.4037  Y34.1489 
G01 X2.2719  Y34.2807 
G01 X2.1623  Y34.4314 
G01 X2.0777  Y34.5975 
G01 X2.0340  Y34.7320 
G01 X2.1539  Y34.7320 
G01 X2.1834  Y34.6413 
G01 X2.2599  Y34.4912 
G01 X2.3588  Y34.3549 
G01 X2.4779  Y34.2358 
G01 X2.6142  Y34.1369 
G01 X2.7643  Y34.0604 
G01 X2.8550  Y34.0309 
G01 X2.8550  Y33.9110 
G01 X2.7205  Y33.9547 
G00 Z5.0000  
G00 X4.3590  Y26.1538 
G01 Z-0.2000 F250   
G01 X4.3465  Y26.1070 F200   
G01 X4.3222  Y26.0650 
G01 X4.2880  Y26.0308 
G01 X4.2460  Y26.0065 
G01 X4.1992  Y25.9940 
G01 X3.4950  Y25.9940 
G01 X3.4950  Y26.1080 
G01 X4.1889  Y26.1080 
G01 X4.2146  Y26.1187 
G01 X4.2450  Y26.1641 
G01 X4.2450  Y26.8580 
G01 X4.3590  Y26.8580 
G01 X4.3590  Y26.1538 
G00 Z5.0000  
G00 X2.1050  Y26.1641 
G01 Z-0.2000 F250   
G01 X2.1157  Y26.1383 F200   
G01 X2.1353  Y26.1187 
G01 X2.1611  Y26.1080 
G01 X2.8550  Y26.1080 
G01 X2.8550  Y25.9940 
G01 X2.1508  Y25.9940 
G01 X2.1040  Y26.0065 
G01 X2.0620  Y26.0308 
G01 X2.0278  Y26.0650 
G01 X2.0035  Y26.1070 
G01 X1.9910  Y26.1538 
G01 X1.9910  Y26.8580 
G01 X2.1050  Y26.8580 
G01 X2.1050  Y26.1641 
G00 Z5.0000  
G00 X2.1050  Y28.1919 
G01 Z-0.2000 F250   
G01 X2.1050  Y27.4980 F200   
G01 X1.9910  Y27.4980 
G01 X1.9910  Y28.2022 
G01 X2.0035  Y28.2490 
G01 X2.0278  Y28.2910 
G01 X2.0620  Y28.3252 
G01 X2.1040  Y28.3495 
G01 X2.1508  Y28.3620 
G01 X2.8550  Y28.3620 
G01 X2.8550  Y28.2480 
G01 X2.1611  Y28.2480 
G01 X2.1353  Y28.2373 
G01 X2.1050  Y28.1919 
G00 Z5.0000  
G00 X4.1992  Y28.3620 
G01 Z-0.2000 F250   
G01 X4.2460  Y28.3495 F200   
G01 X4.2880  Y28.3252 
G01 X4.3222  Y28.2910 
G01 X4.3465  Y28.2490 
G01 X4.3590  Y28.2022 
G01 X4.3590  Y27.4980 
G01 X4.2450  Y27.4980 
G01 X4.2450  Y28.1919 
G01 X4.2343  Y28.2177 
G01 X4.1889  Y28.2480 
G01 X3.4950  Y28.2480 
G01 X3.4950  Y28.3620 
G01 X4.1992  Y28.3620 
G00 Z5.0000  
G00 X3.9905  Y15.9207 
G01 Z-0.2000 F250   
G01 X3.8244  Y16.0053 F200   
G01 X3.6737  Y16.1149 
G01 X3.5419  Y16.2467 
G01 X3.4324  Y16.3974 
G01 X3.3477  Y16.5635 
G01 X3.3040  Y16.6980 
G01 X3.4239  Y16.6980 
G01 X3.4534  Y16.6073 
G01 X3.5299  Y16.4572 
G01 X3.6289  Y16.3209 
G01 X3.7479  Y16.2019 
G01 X3.8842  Y16.1029 
G01 X4.0343  Y16.0264 
G01 X4.1250  Y15.9969 
G01 X4.1250  Y15.8770 
G01 X3.9905  Y15.9207 
G00 Z5.0000  
G00 X10.6495 Y25.9940 
G01 Z-0.2000 F250   
G01 X10.1785 Y25.9940 F200   
G01 X9.7433  Y26.1742 
G01 X9.4102  Y26.5073 
G01 X9.3492  Y26.6546 
G01 X9.2938  Y26.7100 
G01 X9.2214  Y26.7400 
G01 X7.5426  Y26.7400 
G01 X7.4702  Y26.7100 
G01 X7.4147  Y26.6546 
G01 X7.3537  Y26.5073 
G01 X7.0207  Y26.1742 
G01 X6.5855  Y25.9940 
G01 X6.1145  Y25.9940 
G01 X5.6793  Y26.1742 
G01 X5.3462  Y26.5073 
G01 X5.1660  Y26.9425 
G01 X5.1660  Y27.4135 
G01 X5.3462  Y27.8487 
G01 X5.6793  Y28.1817 
G01 X6.1145  Y28.3620 
G01 X6.5855  Y28.3620 
G01 X7.0207  Y28.1817 
G01 X7.3537  Y27.8487 
G01 X7.4147  Y27.7014 
G01 X7.4702  Y27.6460 
G01 X7.5426  Y27.6160 
G01 X9.2214  Y27.6160 
G01 X9.2938  Y27.6460 
G01 X9.3492  Y27.7014 
G01 X9.4102  Y27.8487 
G01 X9.7433  Y28.1817 
G01 X10.1785 Y28.3620 
G01 X10.6495 Y28.3620 
G01 X11.0847 Y28.1817 
G01 X11.4177 Y27.8487 
G01 X11.5980 Y27.4135 
G01 X11.5980 Y26.9425 
G01 X11.4177 Y26.5073 
G01 X11.0847 Y26.1742 
G01 X10.6495 Y25.9940 
G00 Z5.0000  
G00 X11.4840 Y27.0938 
G01 Z-0.2000 F250   
G01 X11.4840 Y27.2622 F200   
G01 X11.4577 Y27.4286 
G01 X11.4056 Y27.5887 
G01 X11.3291 Y27.7388 
G01 X11.2301 Y27.8751 
G01 X11.1111 Y27.9941 
G01 X10.9748 Y28.0931 
G01 X10.8247 Y28.1696 
G01 X10.6646 Y28.2217 
G01 X10.4982 Y28.2480 
G01 X10.3298 Y28.2480 
G01 X10.1634 Y28.2217 
G01 X10.0033 Y28.1696 
G01 X9.8532  Y28.0931 
G01 X9.7169  Y27.9941 
G01 X9.5979  Y27.8751 
G01 X9.4989  Y27.7388 
G01 X9.4224  Y27.5887 
G01 X9.3942  Y27.5020 
G01 X7.3698  Y27.5020 
G01 X7.3416  Y27.5887 
G01 X7.2651  Y27.7388 
G01 X7.1661  Y27.8751 
G01 X7.0471  Y27.9941 
G01 X6.9108  Y28.0931 
G01 X6.7607  Y28.1696 
G01 X6.6006  Y28.2217 
G01 X6.4342  Y28.2480 
G01 X6.2658  Y28.2480 
G01 X6.0994  Y28.2217 
G01 X5.9393  Y28.1696 
G01 X5.7892  Y28.0931 
G01 X5.6529  Y27.9941 
G01 X5.5339  Y27.8751 
G01 X5.4349  Y27.7388 
G01 X5.3584  Y27.5887 
G01 X5.3063  Y27.4286 
G01 X5.2800  Y27.2622 
G01 X5.2800  Y27.0938 
G01 X5.3063  Y26.9274 
G01 X5.3584  Y26.7673 
G01 X5.4349  Y26.6172 
G01 X5.5339  Y26.4809 
G01 X5.6529  Y26.3619 
G01 X5.7892  Y26.2629 
G01 X5.9393  Y26.1864 
G01 X6.0994  Y26.1343 
G01 X6.2658  Y26.1080 
G01 X6.4342  Y26.1080 
G01 X6.6006  Y26.1343 
G01 X6.7607  Y26.1864 
G01 X6.9108  Y26.2629 
G01 X7.0471  Y26.3619 
G01 X7.1661  Y26.4809 
G01 X7.2651  Y26.6172 
G01 X7.3416  Y26.7673 
G01 X7.3698  Y26.8540 
G01 X9.3942  Y26.8540 
G01 X9.4224  Y26.7673 
G01 X9.4989  Y26.6172 
G01 X9.5979  Y26.4809 
G01 X9.7169  Y26.3619 
G01 X9.8532  Y26.2629 
G01 X10.0033 Y26.1864 
G01 X10.1634 Y26.1343 
G01 X10.3298 Y26.1080 
G01 X10.4982 Y26.1080 
G01 X10.6646 Y26.1343 
G01 X10.8247 Y26.1864 
G01 X10.9748 Y26.2629 
G01 X11.1111 Y26.3619 
G01 X11.2301 Y26.4809 
G01 X11.3291 Y26.6172 
G01 X11.4056 Y26.7673 
G01 X11.4577 Y26.9274 
G01 X11.4840 Y27.0938 
G00 Z5.0000  
G00 X5.5423  Y16.5635 
G01 Z-0.2000 F250   
G01 X5.4576  Y16.3974 F200   
G01 X5.3481  Y16.2467 
G01 X5.2163  Y16.1149 
G01 X5.0655  Y16.0053 
G01 X4.8995  Y15.9207 
G01 X4.7650  Y15.8770 
G01 X4.7650  Y15.9969 
G01 X4.8557  Y16.0264 
G01 X5.0058  Y16.1029 
G01 X5.1421  Y16.2019 
G01 X5.2611  Y16.3209 
G01 X5.3601  Y16.4572 
G01 X5.4366  Y16.6073 
G01 X5.4661  Y16.6980 
G01 X5.5860  Y16.6980 
G01 X5.5423  Y16.5635 
G00 Z5.0000  
G00 X18.0797 Y49.4765 
G01 Z-0.2000 F250   
G01 X18.1644 Y49.6425 F200   
G01 X18.2739 Y49.7933 
G01 X18.4057 Y49.9251 
G01 X18.5564 Y50.0346 
G01 X18.7225 Y50.1193 
G01 X18.8570 Y50.1630 
G01 X18.8570 Y50.0431 
G01 X18.7663 Y50.0136 
G01 X18.6162 Y49.9371 
G01 X18.4799 Y49.8381 
G01 X18.3608 Y49.7191 
G01 X18.2619 Y49.5828 
G01 X18.1854 Y49.4327 
G01 X18.1559 Y49.3420 
G01 X18.0360 Y49.3420 
G01 X18.0797 Y49.4765 
G00 Z5.0000  
G00 X20.2743 Y48.5675 
G01 Z-0.2000 F250   
G01 X20.1896 Y48.4014 F200   
G01 X20.0801 Y48.2507 
G01 X19.9483 Y48.1189 
G01 X19.7976 Y48.0094 
G01 X19.6315 Y47.9247 
G01 X19.4970 Y47.8810 
G01 X19.4970 Y48.0009 
G01 X19.5877 Y48.0304 
G01 X19.7378 Y48.1069 
G01 X19.8741 Y48.2059 
G01 X19.9931 Y48.3249 
G01 X20.0921 Y48.4612 
G01 X20.1686 Y48.6113 
G01 X20.1981 Y48.7020 
G01 X20.3180 Y48.7020 
G01 X20.2743 Y48.5675 
G00 Z5.0000  
G00 X20.1686 Y49.4327 
G01 Z-0.2000 F250   
G01 X20.0921 Y49.5828 F200   
G01 X19.9931 Y49.7191 
G01 X19.8741 Y49.8381 
G01 X19.7378 Y49.9371 
G01 X19.5877 Y50.0136 
G01 X19.4970 Y50.0431 
G01 X19.4970 Y50.1630 
G01 X19.6315 Y50.1193 
G01 X19.7976 Y50.0346 
G01 X19.9483 Y49.9251 
G01 X20.0801 Y49.7933 
G01 X20.1896 Y49.6425 
G01 X20.2743 Y49.4765 
G01 X20.3180 Y49.3420 
G01 X20.1981 Y49.3420 
G01 X20.1686 Y49.4327 
G00 Z5.0000  
G00 X18.7225 Y47.9247 
G01 Z-0.2000 F250   
G01 X18.5564 Y48.0094 F200   
G01 X18.4057 Y48.1189 
G01 X18.2739 Y48.2507 
G01 X18.1644 Y48.4014 
G01 X18.0797 Y48.5675 
G01 X18.0360 Y48.7020 
G01 X18.1559 Y48.7020 
G01 X18.1854 Y48.6113 
G01 X18.2619 Y48.4612 
G01 X18.3608 Y48.3249 
G01 X18.4799 Y48.2059 
G01 X18.6162 Y48.1069 
G01 X18.7663 Y48.0304 
G01 X18.8570 Y48.0009 
G01 X18.8570 Y47.8810 
G01 X18.7225 Y47.9247 
G00 Z5.0000  
G00 X6.5339  Y39.1971 
G01 Z-0.2000 F250   
G01 X6.4154  Y39.2574 F200   
G01 X6.3079  Y39.3355 
G01 X6.2139  Y39.4295 
G01 X6.1358  Y39.5370 
G01 X6.0755  Y39.6555 
G01 X6.0344  Y39.7819 
G01 X6.0136  Y39.9131 
G01 X6.0136  Y40.3668 
G01 X6.1276  Y40.3668 
G01 X6.1276  Y39.9077 
G01 X6.1557  Y39.7665 
G01 X6.2107  Y39.6336 
G01 X6.2907  Y39.5140 
G01 X6.3924  Y39.4123 
G01 X6.5120  Y39.3323 
G01 X6.5848  Y39.3022 
G01 X6.5848  Y39.1805 
G01 X6.5339  Y39.1971 
G00 Z5.0000  
G00 X7.4081  Y41.9445 
G01 Z-0.2000 F250   
G01 X7.5021  Y41.8505 F200   
G01 X7.5802  Y41.7430 
G01 X7.6405  Y41.6245 
G01 X7.6816  Y41.4981 
G01 X7.7024  Y41.3669 
G01 X7.7024  Y40.9132 
G01 X7.5884  Y40.9132 
G01 X7.5884  Y41.3723 
G01 X7.5603  Y41.5134 
G01 X7.5053  Y41.6464 
G01 X7.4253  Y41.7660 
G01 X7.3236  Y41.8677 
G01 X7.2040  Y41.9477 
G01 X7.1312  Y41.9778 
G01 X7.1312  Y42.0995 
G01 X7.1821  Y42.0829 
G01 X7.3006  Y42.0226 
G01 X7.4081  Y41.9445 
G00 Z5.0000  
G00 X7.7024  Y39.9131 
G01 Z-0.2000 F250   
G01 X7.6816  Y39.7819 F200   
G01 X7.6405  Y39.6555 
G01 X7.5802  Y39.5370 
G01 X7.5021  Y39.4295 
G01 X7.4081  Y39.3355 
G01 X7.3006  Y39.2574 
G01 X7.1821  Y39.1971 
G01 X7.1312  Y39.1805 
G01 X7.1312  Y39.3022 
G01 X7.2040  Y39.3323 
G01 X7.3236  Y39.4123 
G01 X7.4253  Y39.5140 
G01 X7.5053  Y39.6336 
G01 X7.5603  Y39.7665 
G01 X7.5884  Y39.9077 
G01 X7.5884  Y40.3668 
G01 X7.7024  Y40.3668 
G01 X7.7024  Y39.9131 
G00 Z5.0000  
G00 X6.0136  Y41.3669 
G01 Z-0.2000 F250   
G01 X6.0344  Y41.4981 F200   
G01 X6.0755  Y41.6245 
G01 X6.1358  Y41.7430 
G01 X6.2139  Y41.8505 
G01 X6.3079  Y41.9445 
G01 X6.4154  Y42.0226 
G01 X6.5339  Y42.0829 
G01 X6.5848  Y42.0995 
G01 X6.5848  Y41.9778 
G01 X6.5120  Y41.9477 
G01 X6.3924  Y41.8677 
G01 X6.2907  Y41.7660 
G01 X6.2107  Y41.6464 
G01 X6.1557  Y41.5134 
G01 X6.1276  Y41.3723 
G01 X6.1276  Y40.9132 
G01 X6.0136  Y40.9132 
G01 X6.0136  Y41.3669 
G00 Z5.0000  
G00 X14.0513 Y52.5045 
G01 Z-0.2000 F250   
G01 X13.9666 Y52.3384 F200   
G01 X13.8571 Y52.1877 
G01 X13.7253 Y52.0559 
G01 X13.5746 Y51.9464 
G01 X13.4085 Y51.8617 
G01 X13.2740 Y51.8180 
G01 X13.2740 Y51.9379 
G01 X13.3647 Y51.9674 
G01 X13.5148 Y52.0439 
G01 X13.6511 Y52.1429 
G01 X13.7701 Y52.2619 
G01 X13.8691 Y52.3982 
G01 X13.9456 Y52.5483 
G01 X13.9751 Y52.6390 
G01 X14.0950 Y52.6390 
G01 X14.0513 Y52.5045 
G00 Z5.0000  
G00 X14.7677 Y48.0182 
G01 Z-0.2000 F250   
G01 X14.3325 Y47.8380 F200   
G01 X13.8615 Y47.8380 
G01 X13.4263 Y48.0182 
G01 X13.0932 Y48.3513 
G01 X13.0622 Y48.4262 
G01 X13.0322 Y48.4986 
G01 X12.9768 Y48.5540 
G01 X12.9044 Y48.5840 
G01 X11.0098 Y48.5840 
G01 X10.9374 Y48.5540 
G01 X10.8820 Y48.4986 
G01 X10.8520 Y48.4262 
G01 X10.8520 Y47.4588 
G01 X10.8820 Y47.3864 
G01 X10.9374 Y47.3310 
G01 X11.0098 Y47.3010 
G01 X20.7881 Y47.3010 
G01 X20.9491 Y47.2343 
G01 X21.2747 Y46.9087 
G01 X21.3234 Y46.8600 
G01 X21.3514 Y46.8320 
G01 X21.3913 Y46.8155 
G01 X21.4238 Y46.8020 
G01 X21.4626 Y46.8020 
G01 X21.5022 Y46.8020 
G01 X21.5255 Y46.8117 
G01 X21.5746 Y46.8320 
G01 X21.6019 Y46.8593 
G01 X21.6300 Y46.8874 
G01 X21.6465 Y46.9273 
G01 X21.6600 Y46.9598 
G01 X21.6600 Y46.9986 
G01 X21.6600 Y47.0382 
G01 X21.6600 Y47.2098 
G01 X21.6600 Y47.2488 
G01 X21.6600 Y47.2832 
G01 X21.6285 Y47.8892 
G01 X21.6266 Y47.9279 
G01 X21.6254 Y47.9526 
G01 X21.3702 Y49.2173 
G01 X21.3626 Y49.2554 
G01 X21.3477 Y49.2912 
G01 X20.8576 Y50.4744 
G01 X20.8428 Y50.5103 
G01 X20.8212 Y50.5426 
G01 X20.1097 Y51.6074 
G01 X20.0882 Y51.6397 
G01 X20.0607 Y51.6671 
G01 X19.1551 Y52.5727 
G01 X19.1277 Y52.6002 
G01 X19.0954 Y52.6217 
G01 X18.0306 Y53.3332 
G01 X17.9983 Y53.3548 
G01 X17.9624 Y53.3696 
G01 X16.7792 Y53.8597 
G01 X16.7434 Y53.8746 
G01 X16.7053 Y53.8822 
G01 X15.4540 Y54.1311 
G01 X15.4159 Y54.1386 
G01 X15.3918 Y54.1434 
G01 X14.7758 Y54.1701 
G01 X14.7368 Y54.1720 
G01 X14.7025 Y54.1737 
G01 X13.8518 Y54.1720 
G01 X13.8312 Y54.1635 
G01 X13.7794 Y54.1420 
G01 X13.7240 Y54.0866 
G01 X13.6940 Y54.0142 
G01 X13.6940 Y53.9358 
G01 X13.7026 Y53.9152 
G01 X13.7240 Y53.8634 
G01 X13.7794 Y53.8080 
G01 X13.8571 Y53.7303 
G01 X13.9666 Y53.5796 
G01 X14.0513 Y53.4135 
G01 X14.0950 Y53.2790 
G01 X13.9751 Y53.2790 
G01 X13.9456 Y53.3697 
G01 X13.8691 Y53.5198 
G01 X13.7701 Y53.6561 
G01 X13.6511 Y53.7751 
G01 X13.5148 Y53.8741 
G01 X13.3647 Y53.9506 
G01 X13.2046 Y54.0027 
G01 X13.0382 Y54.0290 
G01 X12.8698 Y54.0290 
G01 X12.7034 Y54.0027 
G01 X12.5433 Y53.9506 
G01 X12.3932 Y53.8741 
G01 X12.2569 Y53.7751 
G01 X12.1379 Y53.6561 
G01 X12.0389 Y53.5198 
G01 X11.9624 Y53.3697 
G01 X11.9103 Y53.2096 
G01 X11.8840 Y53.0432 
G01 X11.8840 Y52.8748 
G01 X11.9103 Y52.7084 
G01 X11.9624 Y52.5483 
G01 X12.0389 Y52.3982 
G01 X12.1379 Y52.2619 
G01 X12.2569 Y52.1429 
G01 X12.3932 Y52.0439 
G01 X12.5433 Y51.9674 
G01 X12.6340 Y51.9379 
G01 X12.6340 Y51.8180 
G01 X12.4995 Y51.8617 
G01 X12.3334 Y51.9464 
G01 X12.1827 Y52.0559 
G01 X12.0509 Y52.1877 
G01 X11.9681 Y52.3017 
G01 X11.9453 Y52.3331 
G01 X11.9178 Y52.3605 
G01 X11.8847 Y52.3808 
G01 X11.8645 Y52.3932 
G01 X11.8342 Y52.4017 
G01 X11.8105 Y52.4017 
G01 X11.7871 Y52.4054 
G01 X11.7558 Y52.4017 
G01 X11.7339 Y52.3927 
G01 X11.7109 Y52.3871 
G01 X11.6834 Y52.3717 
G01 X11.6475 Y52.3411 
G01 X11.6280 Y52.3163 
G01 X11.6189 Y52.2944 
G01 X11.6066 Y52.2743 
G01 X11.5980 Y52.2439 
G01 X11.5980 Y52.2202 
G01 X11.5943 Y52.1968 
G01 X11.5980 Y51.8828 
G01 X11.4902 Y51.7750 
G01 X11.0098 Y51.7750 
G01 X10.9374 Y51.7450 
G01 X10.8820 Y51.6896 
G01 X10.8520 Y51.6172 
G01 X10.8520 Y49.6178 
G01 X10.8820 Y49.5454 
G01 X10.9374 Y49.4900 
G01 X11.0098 Y49.4600 
G01 X12.9044 Y49.4600 
G01 X12.9768 Y49.4900 
G01 X13.0322 Y49.5454 
G01 X13.0932 Y49.6927 
G01 X13.4263 Y50.0257 
G01 X13.8615 Y50.2060 
G01 X14.3325 Y50.2060 
G01 X14.7677 Y50.0257 
G01 X15.1007 Y49.6927 
G01 X15.2810 Y49.2575 
G01 X15.2810 Y48.7865 
G01 X15.1007 Y48.3513 
G01 X14.7677 Y48.0182 
G00 Z5.0000  
G00 X15.1670 Y48.9378 
G01 Z-0.2000 F250   
G01 X15.1670 Y49.1062 F200   
G01 X15.1407 Y49.2726 
G01 X15.0886 Y49.4327 
G01 X15.0121 Y49.5828 
G01 X14.9131 Y49.7191 
G01 X14.7941 Y49.8381 
G01 X14.6578 Y49.9371 
G01 X14.5077 Y50.0136 
G01 X14.3476 Y50.0657 
G01 X14.1812 Y50.0920 
G01 X14.0128 Y50.0920 
G01 X13.8464 Y50.0657 
G01 X13.6863 Y50.0136 
G01 X13.5362 Y49.9371 
G01 X13.3999 Y49.8381 
G01 X13.2809 Y49.7191 
G01 X13.1819 Y49.5828 
G01 X13.1054 Y49.4327 
G01 X13.0772 Y49.3460 
G01 X10.7380 Y49.3460 
G01 X10.7380 Y51.8890 
G01 X11.4279 Y51.8890 
G01 X11.4536 Y51.8997 
G01 X11.4840 Y51.9451 
G01 X11.4840 Y53.9729 
G01 X11.4733 Y53.9987 
G01 X11.4279 Y54.0290 
G01 X9.4001  Y54.0290 
G01 X9.3743  Y54.0183 
G01 X9.3440  Y53.9729 
G01 X9.3440  Y51.9451 
G01 X9.3547  Y51.9193 
G01 X9.4001  Y51.8890 
G01 X10.0900 Y51.8890 
G01 X10.0900 Y47.1870 
G01 X3.7673  Y47.1870 
G01 X3.6849  Y47.1649 
G01 X3.6111  Y47.1223 
G01 X3.5507  Y47.0619 
G01 X2.7887  Y46.2999 
G01 X2.7461  Y46.2261 
G01 X2.7240  Y46.1437 
G01 X2.7240  Y45.8508 
G01 X2.6373  Y45.8226 
G01 X2.4872  Y45.7461 
G01 X2.3509  Y45.6471 
G01 X2.2319  Y45.5281 
G01 X2.1329  Y45.3918 
G01 X2.0564  Y45.2417 
G01 X2.0043  Y45.0816 
G01 X1.9780  Y44.9152 
G01 X1.9780  Y44.7468 
G01 X2.0043  Y44.5804 
G01 X2.0564  Y44.4203 
G01 X2.1329  Y44.2702 
G01 X2.2319  Y44.1339 
G01 X2.3509  Y44.0149 
G01 X2.4872  Y43.9159 
G01 X2.6373  Y43.8394 
G01 X2.7974  Y43.7873 
G01 X2.9638  Y43.7610 
G01 X3.1322  Y43.7610 
G01 X3.2986  Y43.7873 
G01 X3.4587  Y43.8394 
G01 X3.6088  Y43.9159 
G01 X3.7451  Y44.0149 
G01 X3.8641  Y44.1339 
G01 X3.9631  Y44.2702 
G01 X4.0396  Y44.4203 
G01 X4.0917  Y44.5804 
G01 X4.1180  Y44.7468 
G01 X4.1180  Y44.9152 
G01 X4.0917  Y45.0816 
G01 X4.0396  Y45.2417 
G01 X3.9631  Y45.3918 
G01 X3.8641  Y45.5281 
G01 X3.7451  Y45.6471 
G01 X3.6088  Y45.7461 
G01 X3.4587  Y45.8226 
G01 X3.3720  Y45.8508 
G01 X3.3720  Y45.9668 
G01 X3.9442  Y46.5390 
G01 X13.0110 Y46.5390 
G01 X13.0110 Y45.5968 
G01 X12.9243 Y45.5686 
G01 X12.7742 Y45.4921 
G01 X12.6379 Y45.3931 
G01 X12.5189 Y45.2741 
G01 X12.4199 Y45.1378 
G01 X12.3434 Y44.9877 
G01 X12.2913 Y44.8276 
G01 X12.2650 Y44.6612 
G01 X12.2650 Y44.4928 
G01 X12.2913 Y44.3264 
G01 X12.3434 Y44.1663 
G01 X12.4199 Y44.0162 
G01 X12.5189 Y43.8799 
G01 X12.6379 Y43.7609 
G01 X12.7742 Y43.6619 
G01 X12.9243 Y43.5854 
G01 X13.0844 Y43.5333 
G01 X13.2508 Y43.5070 
G01 X13.4192 Y43.5070 
G01 X13.5856 Y43.5333 
G01 X13.7457 Y43.5854 
G01 X13.8958 Y43.6619 
G01 X14.0321 Y43.7609 
G01 X14.1511 Y43.8799 
G01 X14.2501 Y44.0162 
G01 X14.3266 Y44.1663 
G01 X14.3787 Y44.3264 
G01 X14.4050 Y44.4928 
G01 X14.4050 Y44.6612 
G01 X14.3787 Y44.8276 
G01 X14.3266 Y44.9877 
G01 X14.2501 Y45.1378 
G01 X14.1511 Y45.2741 
G01 X14.0321 Y45.3931 
G01 X13.8958 Y45.4921 
G01 X13.7457 Y45.5686 
G01 X13.6590 Y45.5968 
G01 X13.6590 Y46.5390 
G01 X20.5668 Y46.5390 
G01 X20.7580 Y46.3478 
G01 X20.7580 Y41.0910 
G01 X19.3078 Y41.0910 
G01 X19.2796 Y41.1777 
G01 X19.2031 Y41.3278 
G01 X19.1041 Y41.4641 
G01 X18.9851 Y41.5831 
G01 X18.8488 Y41.6821 
G01 X18.6987 Y41.7586 
G01 X18.5386 Y41.8107 
G01 X18.3722 Y41.8370 
G01 X18.2038 Y41.8370 
G01 X18.0374 Y41.8107 
G01 X17.8773 Y41.7586 
G01 X17.7272 Y41.6821 
G01 X17.5909 Y41.5831 
G01 X17.4718 Y41.4641 
G01 X17.3729 Y41.3278 
G01 X17.2964 Y41.1777 
G01 X17.2443 Y41.0176 
G01 X17.2180 Y40.8512 
G01 X17.2180 Y40.6828 
G01 X17.2443 Y40.5164 
G01 X17.2964 Y40.3563 
G01 X17.3729 Y40.2062 
G01 X17.4718 Y40.0699 
G01 X17.5909 Y39.9509 
G01 X17.7272 Y39.8519 
G01 X17.8773 Y39.7754 
G01 X18.0374 Y39.7233 
G01 X18.2038 Y39.6970 
G01 X18.3722 Y39.6970 
G01 X18.5386 Y39.7233 
G01 X18.6987 Y39.7754 
G01 X18.8488 Y39.8519 
G01 X18.9851 Y39.9509 
G01 X19.1041 Y40.0699 
G01 X19.2031 Y40.2062 
G01 X19.2796 Y40.3563 
G01 X19.3078 Y40.4430 
G01 X21.0120 Y40.4430 
G01 X21.0120 Y30.2960 
G01 X18.4188 Y30.2960 
G01 X18.3906 Y30.3827 
G01 X18.3141 Y30.5328 
G01 X18.2151 Y30.6691 
G01 X18.0961 Y30.7881 
G01 X17.9598 Y30.8871 
G01 X17.8097 Y30.9636 
G01 X17.6496 Y31.0157 
G01 X17.4832 Y31.0420 
G01 X17.3148 Y31.0420 
G01 X17.1484 Y31.0157 
G01 X16.9883 Y30.9636 
G01 X16.8382 Y30.8871 
G01 X16.7019 Y30.7881 
G01 X16.5829 Y30.6691 
G01 X16.4839 Y30.5328 
G01 X16.4074 Y30.3827 
G01 X16.3553 Y30.2226 
G01 X16.3290 Y30.0562 
G01 X16.3290 Y29.8878 
G01 X16.3553 Y29.7214 
G01 X16.4074 Y29.5613 
G01 X16.4839 Y29.4112 
G01 X16.5829 Y29.2749 
G01 X16.7019 Y29.1559 
G01 X16.8382 Y29.0569 
G01 X16.9883 Y28.9804 
G01 X17.0750 Y28.9522 
G01 X17.0750 Y23.3253 
G01 X17.0971 Y23.2429 
G01 X17.1397 Y23.1691 
G01 X18.2527 Y22.0561 
G01 X18.2176 Y21.9874 
G01 X18.1673 Y21.8324 
G01 X18.1418 Y21.6715 
G01 X18.1418 Y21.5085 
G01 X18.1673 Y21.3476 
G01 X18.2176 Y21.1926 
G01 X18.2916 Y21.0474 
G01 X18.3874 Y20.9156 
G01 X18.5026 Y20.8004 
G01 X18.6344 Y20.7046 
G01 X18.7796 Y20.6306 
G01 X18.8530 Y20.6068 
G01 X18.8530 Y14.9532 
G01 X18.7796 Y14.9294 
G01 X18.6344 Y14.8554 
G01 X18.5026 Y14.7596 
G01 X18.3874 Y14.6444 
G01 X18.2916 Y14.5126 
G01 X18.2176 Y14.3674 
G01 X18.1673 Y14.2124 
G01 X18.1418 Y14.0515 
G01 X18.1418 Y13.8885 
G01 X18.1673 Y13.7276 
G01 X18.2176 Y13.5726 
G01 X18.2916 Y13.4274 
G01 X18.3874 Y13.2956 
G01 X18.5026 Y13.1804 
G01 X18.6344 Y13.0846 
G01 X18.7796 Y13.0106 
G01 X18.9346 Y12.9603 
G01 X19.0955 Y12.9348 
G01 X19.2585 Y12.9348 
G01 X19.4194 Y12.9603 
G01 X19.5744 Y13.0106 
G01 X19.7196 Y13.0846 
G01 X19.8514 Y13.1804 
G01 X19.9666 Y13.2956 
G01 X20.0624 Y13.4274 
G01 X20.1364 Y13.5726 
G01 X20.1867 Y13.7276 
G01 X20.2122 Y13.8885 
G01 X20.2122 Y14.0515 
G01 X20.1867 Y14.2124 
G01 X20.1364 Y14.3674 
G01 X20.0624 Y14.5126 
G01 X19.9666 Y14.6444 
G01 X19.8514 Y14.7596 
G01 X19.7196 Y14.8554 
G01 X19.5744 Y14.9294 
G01 X19.5010 Y14.9532 
G01 X19.5010 Y20.6068 
G01 X19.5744 Y20.6306 
G01 X19.7196 Y20.7046 
G01 X19.8514 Y20.8004 
G01 X19.9666 Y20.9156 
G01 X20.0624 Y21.0474 
G01 X20.1364 Y21.1926 
G01 X20.1867 Y21.3476 
G01 X20.2122 Y21.5085 
G01 X20.2122 Y21.6715 
G01 X20.1867 Y21.8324 
G01 X20.1364 Y21.9874 
G01 X20.0624 Y22.1326 
G01 X19.9666 Y22.2644 
G01 X19.8514 Y22.3796 
G01 X19.7196 Y22.4754 
G01 X19.5744 Y22.5494 
G01 X19.4194 Y22.5997 
G01 X19.2585 Y22.6252 
G01 X19.0955 Y22.6252 
G01 X18.9346 Y22.5997 
G01 X18.7796 Y22.5494 
G01 X18.7109 Y22.5143 
G01 X17.7230 Y23.5022 
G01 X17.7230 Y28.9522 
G01 X17.8097 Y28.9804 
G01 X17.9598 Y29.0569 
G01 X18.0961 Y29.1559 
G01 X18.2151 Y29.2749 
G01 X18.3141 Y29.4112 
G01 X18.3906 Y29.5613 
G01 X18.4188 Y29.6480 
G01 X21.3787 Y29.6480 
G01 X21.4611 Y29.6701 
G01 X21.5349 Y29.7127 
G01 X21.5953 Y29.7731 
G01 X30.7315 Y29.7750 
G01 X30.9801 Y29.7685 
G01 X31.4823 Y29.7908 
G01 X31.9817 Y29.8487 
G01 X32.4758 Y29.9418 
G01 X32.9620 Y30.0696 
G01 X33.4379 Y30.2315 
G01 X33.9012 Y30.4267 
G01 X34.3495 Y30.6542 
G01 X34.7806 Y30.9128 
G01 X35.1923 Y31.2014 
G01 X35.5826 Y31.5183 
G01 X35.9494 Y31.8621 
G01 X36.2910 Y32.2309 
G01 X36.6056 Y32.6230 
G01 X36.8917 Y33.0365 
G01 X37.1478 Y33.4691 
G01 X37.2602 Y33.6939 
G01 X37.2777 Y33.7289 
G01 X37.3785 Y33.9305 
G01 X37.3958 Y33.9652 
G01 X37.4061 Y34.0017 
G01 X37.5378 Y34.4636 
G01 X37.8392 Y35.4148 
G01 X38.1773 Y36.3535 
G01 X38.5516 Y37.2785 
G01 X38.9615 Y38.1882 
G01 X39.4065 Y39.0813 
G01 X39.8858 Y39.9564 
G01 X40.3986 Y40.8123 
G01 X40.9444 Y41.6476 
G01 X41.5221 Y42.4611 
G01 X42.1310 Y43.2516 
G01 X42.7701 Y44.0178 
G01 X43.4385 Y44.7586 
G01 X44.1352 Y45.4730 
G01 X44.8590 Y46.1597 
G01 X45.6090 Y46.8178 
G01 X46.3839 Y47.4464 
G01 X47.1827 Y48.0443 
G01 X48.0041 Y48.6108 
G01 X48.8468 Y49.1450 
G01 X49.7097 Y49.6461 
G01 X50.5913 Y50.1133 
G01 X51.4904 Y50.5459 
G01 X52.4057 Y50.9433 
G01 X53.3357 Y51.3048 
G01 X54.2790 Y51.6300 
G01 X55.2342 Y51.9183 
G01 X56.1999 Y52.1693 
G01 X57.1746 Y52.3826 
G01 X58.1569 Y52.5579 
G01 X59.1452 Y52.6950 
G01 X60.1381 Y52.7936 
G01 X61.1341 Y52.8535 
G01 X62.1317 Y52.8748 
G01 X63.1293 Y52.8573 
G01 X64.1255 Y52.8011 
G01 X65.1188 Y52.7063 
G01 X66.1076 Y52.5729 
G01 X67.0906 Y52.4013 
G01 X68.0661 Y52.1917 
G01 X69.0327 Y51.9443 
G01 X69.9890 Y51.6596 
G01 X70.9336 Y51.3380 
G01 X71.8649 Y50.9800 
G01 X72.7816 Y50.5860 
G01 X73.6824 Y50.1568 
G01 X74.5658 Y49.6930 
G01 X75.4305 Y49.1952 
G01 X76.2753 Y48.6642 
G01 X77.0988 Y48.1008 
G01 X77.8998 Y47.5058 
G01 X78.6771 Y46.8802 
G01 X79.4296 Y46.2249 
G01 X80.1560 Y45.5409 
G01 X80.8553 Y44.8292 
G01 X81.5265 Y44.0909 
G01 X82.1685 Y43.3271 
G01 X82.7804 Y42.5389 
G01 X83.3612 Y41.7276 
G01 X83.9101 Y40.8943 
G01 X84.4262 Y40.0404 
G01 X84.9088 Y39.1671 
G01 X85.3571 Y38.2757 
G01 X85.7704 Y37.3675 
G01 X86.1482 Y36.4440 
G01 X86.4899 Y35.5066 
G01 X86.7949 Y34.5565 
G01 X87.0628 Y33.5954 
G01 X87.2932 Y32.6246 
G01 X87.4857 Y31.6455 
G01 X87.6400 Y30.6597 
G01 X87.7560 Y29.6687 
G01 X87.8334 Y28.6739 
G01 X87.8722 Y27.6769 
G01 X87.8770 Y27.1780 
G01 X87.8722 Y26.6862 
G01 X87.8341 Y25.7034 
G01 X87.7579 Y24.7227 
G01 X87.6437 Y23.7458 
G01 X87.4917 Y22.7740 
G01 X87.3022 Y21.8089 
G01 X87.0753 Y20.8518 
G01 X86.8116 Y19.9042 
G01 X86.5112 Y18.9676 
G01 X86.1748 Y18.0433 
G01 X85.8028 Y17.1328 
G01 X85.3958 Y16.2374 
G01 X84.9544 Y15.3584 
G01 X84.4792 Y14.4972 
G01 X83.9710 Y13.6551 
G01 X83.4305 Y12.8334 
G01 X82.8585 Y12.0332 
G01 X82.2560 Y11.2557 
G01 X81.6238 Y10.5023 
G01 X80.9628 Y9.7739  
G01 X80.2741 Y9.0717  
G01 X79.5586 Y8.3967  
G01 X78.8176 Y7.7500  
G01 X78.0520 Y7.1325  
G01 X77.2630 Y6.5451  
G01 X76.4519 Y5.9888  
G01 X75.6198 Y5.4643  
G01 X74.7680 Y4.9725  
G01 X73.8977 Y4.5141  
G01 X73.0104 Y4.0898  
G01 X72.1072 Y3.7003  
G01 X71.1896 Y3.3460  
G01 X70.2590 Y3.0276  
G01 X69.3168 Y2.7455  
G01 X68.3643 Y2.5001  
G01 X67.4030 Y2.2919  
G01 X66.4343 Y2.1211  
G01 X65.4598 Y1.9880  
G01 X64.4808 Y1.8928  
G01 X63.4989 Y1.8356  
G01 X62.5155 Y1.8165  
G01 X61.5321 Y1.8356  
G01 X60.5502 Y1.8928  
G01 X59.5712 Y1.9880  
G01 X58.5967 Y2.1211  
G01 X57.6280 Y2.2919  
G01 X56.6667 Y2.5001  
G01 X55.7142 Y2.7455  
G01 X54.7720 Y3.0276  
G01 X53.8414 Y3.3460  
G01 X52.9238 Y3.7002  
G01 X52.0206 Y4.0898  
G01 X51.1333 Y4.5141  
G01 X50.2630 Y4.9725  
G01 X49.4112 Y5.4643  
G01 X48.5791 Y5.9888  
G01 X47.7680 Y6.5451  
G01 X46.9790 Y7.1325  
G01 X46.2134 Y7.7500  
G01 X45.4724 Y8.3967  
G01 X44.7569 Y9.0717  
G01 X44.0682 Y9.7739  
G01 X43.4072 Y10.5023 
G01 X42.7750 Y11.2557 
G01 X42.1725 Y12.0332 
G01 X41.6005 Y12.8334 
G01 X41.0600 Y13.6551 
G01 X40.5518 Y14.4972 
G01 X40.0766 Y15.3584 
G01 X39.6352 Y16.2374 
G01 X39.2282 Y17.1328 
G01 X38.8562 Y18.0434 
G01 X38.5198 Y18.9676 
G01 X38.2194 Y19.9042 
G01 X37.9557 Y20.8518 
G01 X37.7288 Y21.8089 
G01 X37.5393 Y22.7740 
G01 X37.3873 Y23.7458 
G01 X37.2731 Y24.7227 
G01 X37.1969 Y25.7034 
G01 X37.1588 Y26.6862 
G01 X37.1540 Y27.1780 
G01 X37.1588 Y27.6697 
G01 X37.1974 Y28.6524 
G01 X37.2746 Y29.6327 
G01 X37.3902 Y30.6093 
G01 X37.5440 Y31.5806 
G01 X37.7359 Y32.5452 
G01 X37.9654 Y33.5014 
G01 X38.2324 Y34.4479 
G01 X38.5363 Y35.3832 
G01 X38.8767 Y36.3058 
G01 X39.2530 Y37.2144 
G01 X39.6647 Y38.1074 
G01 X40.1112 Y38.9837 
G01 X40.5917 Y39.8417 
G01 X41.1055 Y40.6802 
G01 X41.6519 Y41.4979 
G01 X42.2299 Y42.2935 
G01 X42.8387 Y43.0657 
G01 X43.4774 Y43.8135 
G01 X44.1449 Y44.5357 
G01 X44.8403 Y45.2311 
G01 X45.5625 Y45.8986 
G01 X46.3103 Y46.5373 
G01 X47.0825 Y47.1461 
G01 X47.8781 Y47.7241 
G01 X48.6958 Y48.2705 
G01 X49.5343 Y48.7843 
G01 X50.3923 Y49.2648 
G01 X51.2686 Y49.7113 
G01 X52.1616 Y50.1230 
G01 X53.0702 Y50.4993 
G01 X53.9928 Y50.8397 
G01 X54.9281 Y51.1436 
G01 X55.8746 Y51.4106 
G01 X56.8308 Y51.6401 
G01 X57.7954 Y51.8320 
G01 X58.7667 Y51.9858 
G01 X59.7433 Y52.1014 
G01 X60.7236 Y52.1786 
G01 X61.7063 Y52.2172 
G01 X62.6897 Y52.2172 
G01 X63.6724 Y52.1786 
G01 X64.6527 Y52.1014 
G01 X65.6293 Y51.9858 
G01 X66.6006 Y51.8320 
G01 X67.5652 Y51.6401 
G01 X68.5214 Y51.4106 
G01 X69.4679 Y51.1436 
G01 X70.4032 Y50.8397 
G01 X71.3258 Y50.4993 
G01 X72.2344 Y50.1230 
G01 X73.1274 Y49.7113 
G01 X74.0037 Y49.2648 
G01 X74.8617 Y48.7843 
G01 X75.7002 Y48.2705 
G01 X76.5179 Y47.7241 
G01 X77.3135 Y47.1461 
G01 X78.0857 Y46.5373 
G01 X78.8335 Y45.8986 
G01 X79.5557 Y45.2311 
G01 X80.2511 Y44.5357 
G01 X80.9186 Y43.8135 
G01 X81.5573 Y43.0657 
G01 X82.1661 Y42.2935 
G01 X82.7441 Y41.4979 
G01 X83.2905 Y40.6802 
G01 X83.8043 Y39.8417 
G01 X84.2848 Y38.9837 
G01 X84.7313 Y38.1074 
G01 X85.1430 Y37.2144 
G01 X85.5193 Y36.3058 
G01 X85.8597 Y35.3832 
G01 X86.1636 Y34.4479 
G01 X86.4306 Y33.5014 
G01 X86.6601 Y32.5452 
G01 X86.8520 Y31.5806 
G01 X87.0058 Y30.6093 
G01 X87.1214 Y29.6327 
G01 X87.1986 Y28.6524 
G01 X87.2372 Y27.6697 
G01 X87.2420 Y27.1780 
G01 X87.2372 Y26.6925 
G01 X87.1991 Y25.7223 
G01 X87.1229 Y24.7544 
G01 X87.0088 Y23.7902 
G01 X86.8569 Y22.8312 
G01 X86.6675 Y21.8789 
G01 X86.4408 Y20.9348 
G01 X86.1773 Y20.0003 
G01 X85.8772 Y19.0768 
G01 X85.5412 Y18.1659 
G01 X85.1696 Y17.2689 
G01 X84.7631 Y16.3871 
G01 X84.3223 Y15.5220 
G01 X83.8479 Y14.6749 
G01 X83.3406 Y13.8470 
G01 X82.8012 Y13.0397 
G01 X82.2305 Y12.2542 
G01 X81.6293 Y11.4917 
G01 X80.9988 Y10.7534 
G01 X80.3397 Y10.0404 
G01 X79.6531 Y9.3538  
G01 X78.9401 Y8.6947  
G01 X78.2018 Y8.0642  
G01 X77.4393 Y7.4630  
G01 X76.6538 Y6.8923  
G01 X75.8465 Y6.3529  
G01 X75.0186 Y5.8456  
G01 X74.1715 Y5.3712  
G01 X73.3064 Y4.9304  
G01 X72.4246 Y4.5239  
G01 X71.5276 Y4.1523  
G01 X70.6166 Y3.8163  
G01 X69.6932 Y3.5162  
G01 X68.7587 Y3.2527  
G01 X67.8146 Y3.0260  
G01 X66.8623 Y2.8366  
G01 X65.9033 Y2.6847  
G01 X64.9391 Y2.5706  
G01 X63.9712 Y2.4944  
G01 X63.0010 Y2.4563  
G01 X62.0300 Y2.4563  
G01 X61.0598 Y2.4944  
G01 X60.0919 Y2.5706  
G01 X59.1277 Y2.6847  
G01 X58.1687 Y2.8366  
G01 X57.2164 Y3.0260  
G01 X56.2723 Y3.2527  
G01 X55.3378 Y3.5162  
G01 X54.4143 Y3.8163  
G01 X53.5034 Y4.1523  
G01 X52.6064 Y4.5239  
G01 X51.7246 Y4.9304  
G01 X50.8595 Y5.3712  
G01 X50.0124 Y5.8456  
G01 X49.1845 Y6.3529  
G01 X48.3772 Y6.8923  
G01 X47.5917 Y7.4630  
G01 X46.8292 Y8.0642  
G01 X46.0909 Y8.6947  
G01 X45.3779 Y9.3538  
G01 X44.6913 Y10.0404 
G01 X44.0322 Y10.7534 
G01 X43.4017 Y11.4917 
G01 X42.8005 Y12.2542 
G01 X42.2298 Y13.0397 
G01 X41.6904 Y13.8470 
G01 X41.1831 Y14.6749 
G01 X40.7087 Y15.5220 
G01 X40.2679 Y16.3871 
G01 X39.8614 Y17.2689 
G01 X39.4898 Y18.1659 
G01 X39.1538 Y19.0769 
G01 X38.8537 Y20.0003 
G01 X38.5902 Y20.9348 
G01 X38.3635 Y21.8789 
G01 X38.1741 Y22.8312 
G01 X38.0222 Y23.7902 
G01 X37.9081 Y24.7544 
G01 X37.8319 Y25.7223 
G01 X37.7938 Y26.6925 
G01 X37.7890 Y27.1780 
G01 X37.7938 Y27.6633 
G01 X37.8324 Y28.6331 
G01 X37.9095 Y29.6007 
G01 X38.0250 Y30.5644 
G01 X38.1788 Y31.5228 
G01 X38.3705 Y32.4742 
G01 X38.5999 Y33.4173 
G01 X38.8666 Y34.3506 
G01 X39.1702 Y35.2725 
G01 X39.5102 Y36.1816 
G01 X39.8861 Y37.0765 
G01 X40.2973 Y37.9557 
G01 X40.7431 Y38.8179 
G01 X41.2228 Y39.6616 
G01 X41.7357 Y40.4857 
G01 X42.2809 Y41.2887 
G01 X42.8577 Y42.0693 
G01 X43.4650 Y42.8265 
G01 X44.1019 Y43.5588 
G01 X44.7675 Y44.2653 
G01 X45.4606 Y44.9448 
G01 X46.1802 Y45.5962 
G01 X46.9251 Y46.2184 
G01 X47.6941 Y46.8106 
G01 X48.4861 Y47.3717 
G01 X49.2998 Y47.9008 
G01 X50.1339 Y48.3972 
G01 X50.9870 Y48.8601 
G01 X51.8579 Y49.2887 
G01 X52.7451 Y49.6823 
G01 X53.6473 Y50.0403 
G01 X54.5629 Y50.3622 
G01 X55.4907 Y50.6474 
G01 X56.4291 Y50.8955 
G01 X57.3766 Y51.1061 
G01 X58.3317 Y51.2788 
G01 X59.2929 Y51.4135 
G01 X60.2587 Y51.5098 
G01 X61.2276 Y51.5677 
G01 X62.1980 Y51.5870 
G01 X63.1684 Y51.5677 
G01 X64.1373 Y51.5098 
G01 X65.1031 Y51.4135 
G01 X66.0643 Y51.2788 
G01 X67.0194 Y51.1061 
G01 X67.9669 Y50.8955 
G01 X68.9053 Y50.6474 
G01 X69.8331 Y50.3622 
G01 X70.7487 Y50.0403 
G01 X71.6509 Y49.6823 
G01 X72.5381 Y49.2887 
G01 X73.4090 Y48.8601 
G01 X74.2621 Y48.3972 
G01 X75.0962 Y47.9008 
G01 X75.9099 Y47.3717 
G01 X76.7019 Y46.8106 
G01 X77.4709 Y46.2184 
G01 X78.2158 Y45.5962 
G01 X78.9354 Y44.9448 
G01 X79.6285 Y44.2653 
G01 X80.2941 Y43.5588 
G01 X80.9310 Y42.8265 
G01 X81.5383 Y42.0693 
G01 X82.1151 Y41.2886 
G01 X82.6603 Y40.4857 
G01 X83.1732 Y39.6616 
G01 X83.6529 Y38.8179 
G01 X84.0987 Y37.9557 
G01 X84.5099 Y37.0765 
G01 X84.8858 Y36.1816 
G01 X85.2258 Y35.2725 
G01 X85.5294 Y34.3506 
G01 X85.7961 Y33.4173 
G01 X86.0255 Y32.4742 
G01 X86.2172 Y31.5227 
G01 X86.3710 Y30.5644 
G01 X86.4865 Y29.6007 
G01 X86.5636 Y28.6331 
G01 X86.6022 Y27.6633 
G01 X86.6070 Y27.1780 
G01 X86.6022 Y26.6990 
G01 X86.5642 Y25.7418 
G01 X86.4880 Y24.7868 
G01 X86.3740 Y23.8357 
G01 X86.2223 Y22.8898 
G01 X86.0331 Y21.9506 
G01 X85.8066 Y21.0198 
G01 X85.5434 Y20.0987 
G01 X85.2437 Y19.1888 
G01 X84.9082 Y18.2915 
G01 X84.5372 Y17.4083 
G01 X84.1313 Y16.5405 
G01 X83.6913 Y15.6895 
G01 X83.2178 Y14.8567 
G01 X82.7116 Y14.0434 
G01 X82.1735 Y13.2509 
G01 X81.6042 Y12.4804 
G01 X81.0048 Y11.7331 
G01 X80.3762 Y11.0102 
G01 X79.7193 Y10.3129 
G01 X79.0352 Y9.6423  
G01 X78.3250 Y8.9994  
G01 X77.5897 Y8.3852  
G01 X76.8307 Y7.8008  
G01 X76.0490 Y7.2470  
G01 X75.2459 Y6.7247  
G01 X74.4227 Y6.2348  
G01 X73.5807 Y5.7779  
G01 X72.7211 Y5.3549  
G01 X71.8454 Y4.9665  
G01 X70.9550 Y4.6131  
G01 X70.0512 Y4.2954  
G01 X69.1355 Y4.0139  
G01 X68.2094 Y3.7690  
G01 X67.2742 Y3.5612  
G01 X66.3315 Y3.3906  
G01 X65.3828 Y3.2577  
G01 X64.4296 Y3.1627  
G01 X63.4733 Y3.1055  
G01 X62.5155 Y3.0865  
G01 X61.5577 Y3.1055  
G01 X60.6014 Y3.1627  
G01 X59.6482 Y3.2577  
G01 X58.6995 Y3.3906  
G01 X57.7568 Y3.5612  
G01 X56.8216 Y3.7690  
G01 X55.8954 Y4.0139  
G01 X54.9798 Y4.2954  
G01 X54.0760 Y4.6131  
G01 X53.1856 Y4.9665  
G01 X52.3099 Y5.3549  
G01 X51.4503 Y5.7779  
G01 X50.6083 Y6.2348  
G01 X49.7851 Y6.7247  
G01 X48.9820 Y7.2470  
G01 X48.2003 Y7.8008  
G01 X47.4413 Y8.3852  
G01 X46.7060 Y8.9994  
G01 X45.9958 Y9.6423  
G01 X45.3117 Y10.3129 
G01 X44.6548 Y11.0102 
G01 X44.0262 Y11.7331 
G01 X43.4268 Y12.4804 
G01 X42.8575 Y13.2509 
G01 X42.3194 Y14.0434 
G01 X41.8132 Y14.8567 
G01 X41.3397 Y15.6895 
G01 X40.8997 Y16.5405 
G01 X40.4938 Y17.4083 
G01 X40.1228 Y18.2915 
G01 X39.7873 Y19.1888 
G01 X39.4876 Y20.0987 
G01 X39.2244 Y21.0198 
G01 X38.9979 Y21.9507 
G01 X38.8087 Y22.8898 
G01 X38.6570 Y23.8357 
G01 X38.5430 Y24.7868 
G01 X38.4668 Y25.7418 
G01 X38.4288 Y26.6990 
G01 X38.4240 Y27.1780 
G01 X38.4288 Y27.6567 
G01 X38.4674 Y28.6134 
G01 X38.5444 Y29.5678 
G01 X38.6598 Y30.5183 
G01 X38.8134 Y31.4634 
G01 X39.0049 Y32.4015 
G01 X39.2341 Y33.3312 
G01 X39.5005 Y34.2508 
G01 X39.8037 Y35.1590 
G01 X40.1432 Y36.0543 
G01 X40.5185 Y36.9352 
G01 X40.9290 Y37.8002 
G01 X41.3739 Y38.6480 
G01 X41.8527 Y39.4772 
G01 X42.3644 Y40.2864 
G01 X42.9083 Y41.0744 
G01 X43.4835 Y41.8399 
G01 X44.0891 Y42.5815 
G01 X44.7240 Y43.2982 
G01 X45.3872 Y43.9888 
G01 X46.0778 Y44.6520 
G01 X46.7945 Y45.2869 
G01 X47.5361 Y45.8925 
G01 X48.3016 Y46.4677 
G01 X49.0896 Y47.0116 
G01 X49.8988 Y47.5233 
G01 X50.7280 Y48.0021 
G01 X51.5758 Y48.4470 
G01 X52.4408 Y48.8575 
G01 X53.3217 Y49.2328 
G01 X54.2170 Y49.5723 
G01 X55.1252 Y49.8755 
G01 X56.0448 Y50.1419 
G01 X56.9745 Y50.3711 
G01 X57.9126 Y50.5626 
G01 X58.8577 Y50.7162 
G01 X59.8082 Y50.8316 
G01 X60.7626 Y50.9086 
G01 X61.7193 Y50.9472 
G01 X62.6767 Y50.9472 
G01 X63.6334 Y50.9086 
G01 X64.5878 Y50.8316 
G01 X65.5383 Y50.7162 
G01 X66.4834 Y50.5626 
G01 X67.4215 Y50.3711 
G01 X68.3512 Y50.1419 
G01 X69.2708 Y49.8755 
G01 X70.1790 Y49.5723 
G01 X71.0743 Y49.2328 
G01 X71.9552 Y48.8575 
G01 X72.8202 Y48.4470 
G01 X73.6680 Y48.0021 
G01 X74.4972 Y47.5233 
G01 X75.3064 Y47.0116 
G01 X76.0944 Y46.4677 
G01 X76.8599 Y45.8925 
G01 X77.6015 Y45.2869 
G01 X78.3182 Y44.6520 
G01 X79.0088 Y43.9888 
G01 X79.6720 Y43.2982 
G01 X80.3069 Y42.5815 
G01 X80.9125 Y41.8399 
G01 X81.4877 Y41.0744 
G01 X82.0316 Y40.2864 
G01 X82.5433 Y39.4772 
G01 X83.0221 Y38.6480 
G01 X83.4670 Y37.8002 
G01 X83.8775 Y36.9352 
G01 X84.2528 Y36.0543 
G01 X84.5923 Y35.1590 
G01 X84.8955 Y34.2508 
G01 X85.1619 Y33.3312 
G01 X85.3911 Y32.4015 
G01 X85.5826 Y31.4634 
G01 X85.7362 Y30.5183 
G01 X85.8516 Y29.5678 
G01 X85.9286 Y28.6134 
G01 X85.9672 Y27.6567 
G01 X85.9720 Y27.1780 
G01 X85.9672 Y26.7057 
G01 X85.9292 Y25.7617 
G01 X85.8532 Y24.8201 
G01 X85.7393 Y23.8823 
G01 X85.5878 Y22.9498 
G01 X85.3988 Y22.0242 
G01 X85.1727 Y21.1070 
G01 X84.9099 Y20.1996 
G01 X84.6108 Y19.3035 
G01 X84.2758 Y18.4202 
G01 X83.9055 Y17.5511 
G01 X83.5005 Y16.6977 
G01 X83.0615 Y15.8612 
G01 X82.5891 Y15.0431 
G01 X82.0842 Y14.2446 
G01 X81.5476 Y13.4672 
G01 X80.9801 Y12.7119 
G01 X80.3826 Y11.9802 
G01 X79.7562 Y11.2731 
G01 X79.1018 Y10.5917 
G01 X78.4204 Y9.9373  
G01 X77.7133 Y9.3109  
G01 X76.9816 Y8.7134  
G01 X76.2263 Y8.1459  
G01 X75.4489 Y7.6093  
G01 X74.6504 Y7.1044  
G01 X73.8323 Y6.6320  
G01 X72.9958 Y6.1930  
G01 X72.1423 Y5.7880  
G01 X71.2733 Y5.4177  
G01 X70.3899 Y5.0827  
G01 X69.4939 Y4.7836  
G01 X68.5865 Y4.5208  
G01 X67.6692 Y4.2947  
G01 X66.7437 Y4.1057  
G01 X65.8112 Y3.9542  
G01 X64.8734 Y3.8403  
G01 X63.9318 Y3.7643  
G01 X62.9878 Y3.7263  
G01 X62.0432 Y3.7263  
G01 X61.0992 Y3.7643  
G01 X60.1576 Y3.8403  
G01 X59.2198 Y3.9542  
G01 X58.2873 Y4.1057  
G01 X57.3617 Y4.2947  
G01 X56.4445 Y4.5208  
G01 X55.5371 Y4.7836  
G01 X54.6410 Y5.0827  
G01 X53.7577 Y5.4177  
G01 X52.8886 Y5.7880  
G01 X52.0352 Y6.1930  
G01 X51.1987 Y6.6320  
G01 X50.3806 Y7.1044  
G01 X49.5821 Y7.6093  
G01 X48.8047 Y8.1459  
G01 X48.0494 Y8.7134  
G01 X47.3177 Y9.3109  
G01 X46.6106 Y9.9373  
G01 X45.9292 Y10.5917 
G01 X45.2748 Y11.2731 
G01 X44.6484 Y11.9802 
G01 X44.0509 Y12.7119 
G01 X43.4834 Y13.4672 
G01 X42.9468 Y14.2446 
G01 X42.4419 Y15.0431 
G01 X41.9695 Y15.8612 
G01 X41.5305 Y16.6977 
G01 X41.1255 Y17.5511 
G01 X40.7552 Y18.4202 
G01 X40.4202 Y19.3035 
G01 X40.1211 Y20.1996 
G01 X39.8583 Y21.1070 
G01 X39.6322 Y22.0243 
G01 X39.4432 Y22.9498 
G01 X39.2917 Y23.8823 
G01 X39.1778 Y24.8201 
G01 X39.1018 Y25.7617 
G01 X39.0638 Y26.7057 
G01 X39.0590 Y27.1780 
G01 X39.0638 Y27.6500 
G01 X39.1023 Y28.5932 
G01 X39.1793 Y29.5341 
G01 X39.2945 Y30.4710 
G01 X39.4479 Y31.4025 
G01 X39.6391 Y32.3269 
G01 X39.8679 Y33.2428 
G01 X40.1339 Y34.1485 
G01 X40.4366 Y35.0427 
G01 X40.7755 Y35.9238 
G01 X41.1500 Y36.7903 
G01 X41.5596 Y37.6408 
G01 X42.0036 Y38.4739 
G01 X42.4811 Y39.2882 
G01 X42.9915 Y40.0824 
G01 X43.5338 Y40.8550 
G01 X44.1072 Y41.6049 
G01 X44.7107 Y42.3308 
G01 X45.3433 Y43.0315 
G01 X46.0040 Y43.7058 
G01 X46.6916 Y44.3526 
G01 X47.4050 Y44.9707 
G01 X48.1431 Y45.5593 
G01 X48.9045 Y46.1173 
G01 X49.6881 Y46.6438 
G01 X50.4925 Y47.1378 
G01 X51.3164 Y47.5987 
G01 X52.1584 Y48.0255 
G01 X53.0171 Y48.4177 
G01 X53.8910 Y48.7745 
G01 X54.7788 Y49.0953 
G01 X55.6790 Y49.3797 
G01 X56.5900 Y49.6271 
G01 X57.5103 Y49.8372 
G01 X58.4385 Y50.0095 
G01 X59.3729 Y50.1439 
G01 X60.3120 Y50.2400 
G01 X61.2542 Y50.2977 
G01 X62.1980 Y50.3170 
G01 X63.1418 Y50.2977 
G01 X64.0840 Y50.2400 
G01 X65.0231 Y50.1439 
G01 X65.9575 Y50.0095 
G01 X66.8857 Y49.8372 
G01 X67.8060 Y49.6271 
G01 X68.7170 Y49.3797 
G01 X69.6172 Y49.0953 
G01 X70.5050 Y48.7745 
G01 X71.3789 Y48.4177 
G01 X72.2376 Y48.0255 
G01 X73.0796 Y47.5987 
G01 X73.9035 Y47.1378 
G01 X74.7079 Y46.6438 
G01 X75.4915 Y46.1173 
G01 X76.2529 Y45.5593 
G01 X76.9910 Y44.9707 
G01 X77.7044 Y44.3526 
G01 X78.3920 Y43.7058 
G01 X79.0527 Y43.0315 
G01 X79.6853 Y42.3308 
G01 X80.2888 Y41.6049 
G01 X80.8622 Y40.8550 
G01 X81.4045 Y40.0824 
G01 X81.9149 Y39.2882 
G01 X82.3924 Y38.4739 
G01 X82.8364 Y37.6408 
G01 X83.2460 Y36.7903 
G01 X83.6205 Y35.9238 
G01 X83.9594 Y35.0427 
G01 X84.2621 Y34.1485 
G01 X84.5281 Y33.2428 
G01 X84.7569 Y32.3269 
G01 X84.9481 Y31.4025 
G01 X85.1015 Y30.4710 
G01 X85.2167 Y29.5341 
G01 X85.2937 Y28.5932 
G01 X85.3322 Y27.6500 
G01 X85.3370 Y27.1780 
G01 X85.3323 Y26.7125 
G01 X85.2943 Y25.7822 
G01 X85.2184 Y24.8542 
G01 X85.1047 Y23.9302 
G01 X84.9534 Y23.0115 
G01 X84.7648 Y22.0997 
G01 X84.5392 Y21.1964 
G01 X84.2769 Y20.3031 
G01 X83.9783 Y19.4212 
G01 X83.6441 Y18.5522 
G01 X83.2747 Y17.6976 
G01 X82.8707 Y16.8588 
G01 X82.4329 Y16.0371 
G01 X81.9619 Y15.2340 
G01 X81.4585 Y14.4507 
G01 X80.9236 Y13.6886 
G01 X80.3581 Y12.9490 
G01 X79.7628 Y12.2331 
G01 X79.1389 Y11.5420 
G01 X78.4873 Y10.8770 
G01 X77.8091 Y10.2391 
G01 X77.1055 Y9.6294  
G01 X76.3775 Y9.0489  
G01 X75.6266 Y8.4986  
G01 X74.8537 Y7.9793  
G01 X74.0604 Y7.4920  
G01 X73.2478 Y7.0375  
G01 X72.4174 Y6.6165  
G01 X71.5705 Y6.2298  
G01 X70.7085 Y5.8779  
G01 X69.8329 Y5.5614  
G01 X68.9451 Y5.2809  
G01 X68.0466 Y5.0369  
G01 X67.1389 Y4.8297  
G01 X66.2234 Y4.6597  
G01 X65.3019 Y4.5272  
G01 X64.3757 Y4.4324  
G01 X63.4464 Y4.3755  
G01 X62.5155 Y4.3565  
G01 X61.5846 Y4.3755  
G01 X60.6553 Y4.4324  
G01 X59.7291 Y4.5272  
G01 X58.8076 Y4.6597  
G01 X57.8921 Y4.8297  
G01 X56.9844 Y5.0369  
G01 X56.0859 Y5.2809  
G01 X55.1981 Y5.5614  
G01 X54.3225 Y5.8779  
G01 X53.4605 Y6.2298  
G01 X52.6136 Y6.6165  
G01 X51.7832 Y7.0375  
G01 X50.9706 Y7.4920  
G01 X50.1773 Y7.9793  
G01 X49.4044 Y8.4986  
G01 X48.6534 Y9.0489  
G01 X47.9255 Y9.6294  
G01 X47.2219 Y10.2391 
G01 X46.5437 Y10.8770 
G01 X45.8921 Y11.5420 
G01 X45.2682 Y12.2331 
G01 X44.6729 Y12.9490 
G01 X44.1074 Y13.6886 
G01 X43.5725 Y14.4507 
G01 X43.0691 Y15.2340 
G01 X42.5981 Y16.0371 
G01 X42.1603 Y16.8588 
G01 X41.7563 Y17.6976 
G01 X41.3869 Y18.5522 
G01 X41.0527 Y19.4212 
G01 X40.7541 Y20.3031 
G01 X40.4918 Y21.1964 
G01 X40.2662 Y22.0997 
G01 X40.0776 Y23.0115 
G01 X39.9263 Y23.9302 
G01 X39.8126 Y24.8542 
G01 X39.7367 Y25.7822 
G01 X39.6987 Y26.7125 
G01 X39.6940 Y27.1779 
G01 X39.6988 Y27.6431 
G01 X39.7372 Y28.5725 
G01 X39.8141 Y29.4995 
G01 X39.9291 Y30.4226 
G01 X40.0822 Y31.3401 
G01 X40.2731 Y32.2505 
G01 X40.5015 Y33.1522 
G01 X40.7669 Y34.0437 
G01 X41.0689 Y34.9235 
G01 X41.4071 Y35.7901 
G01 X41.7807 Y36.6420 
G01 X42.1892 Y37.4776 
G01 X42.6320 Y38.2957 
G01 X43.1081 Y39.0948 
G01 X43.6169 Y39.8735 
G01 X44.1574 Y40.6306 
G01 X44.7287 Y41.3646 
G01 X45.3299 Y42.0744 
G01 X45.9599 Y42.7588 
G01 X46.6177 Y43.4166 
G01 X47.3021 Y44.0466 
G01 X48.0119 Y44.6478 
G01 X48.7459 Y45.2191 
G01 X49.5030 Y45.7596 
G01 X50.2817 Y46.2684 
G01 X51.0808 Y46.7445 
G01 X51.8989 Y47.1873 
G01 X52.7346 Y47.5958 
G01 X53.5864 Y47.9694 
G01 X54.4530 Y48.3076 
G01 X55.3328 Y48.6096 
G01 X56.2243 Y48.8750 
G01 X57.1260 Y49.1034 
G01 X58.0364 Y49.2943 
G01 X58.9539 Y49.4474 
G01 X59.8770 Y49.5624 
G01 X60.8040 Y49.6393 
G01 X61.7334 Y49.6777 
G01 X62.6636 Y49.6777 
G01 X63.5930 Y49.6393 
G01 X64.5200 Y49.5624 
G01 X65.4431 Y49.4474 
G01 X66.3606 Y49.2943 
G01 X67.2710 Y49.1034 
G01 X68.1727 Y48.8750 
G01 X69.0642 Y48.6096 
G01 X69.9440 Y48.3076 
G01 X70.8106 Y47.9694 
G01 X71.6625 Y47.5958 
G01 X72.4981 Y47.1873 
G01 X73.3162 Y46.7445 
G01 X74.1153 Y46.2684 
G01 X74.8940 Y45.7596 
G01 X75.6511 Y45.2191 
G01 X76.3851 Y44.6478 
G01 X77.0949 Y44.0466 
G01 X77.7793 Y43.4166 
G01 X78.4371 Y42.7588 
G01 X79.0671 Y42.0744 
G01 X79.6683 Y41.3646 
G01 X80.2396 Y40.6306 
G01 X80.7801 Y39.8735 
G01 X81.2889 Y39.0948 
G01 X81.7650 Y38.2957 
G01 X82.2078 Y37.4776 
G01 X82.6163 Y36.6419 
G01 X82.9899 Y35.7901 
G01 X83.3281 Y34.9235 
G01 X83.6301 Y34.0437 
G01 X83.8955 Y33.1522 
G01 X84.1239 Y32.2505 
G01 X84.3148 Y31.3401 
G01 X84.4679 Y30.4226 
G01 X84.5829 Y29.4995 
G01 X84.6598 Y28.5725 
G01 X84.6982 Y27.6431 
G01 X84.7030 Y27.1780 
G01 X84.6983 Y26.7195 
G01 X84.6604 Y25.8032 
G01 X84.5846 Y24.8892 
G01 X84.4712 Y23.9792 
G01 X84.3203 Y23.0746 
G01 X84.1321 Y22.1771 
G01 X83.9069 Y21.2881 
G01 X83.6453 Y20.4091 
G01 X83.3475 Y19.5417 
G01 X83.0141 Y18.6874 
G01 X82.6457 Y17.8476 
G01 X82.2430 Y17.0237 
G01 X81.8065 Y16.2171 
G01 X81.3370 Y15.4293 
G01 X80.8355 Y14.6616 
G01 X80.3026 Y13.9152 
G01 X79.7393 Y13.1915 
G01 X79.1466 Y12.4917 
G01 X78.5255 Y11.8170 
G01 X77.8770 Y11.1685 
G01 X77.2023 Y10.5474 
G01 X76.5025 Y9.9547  
G01 X75.7788 Y9.3914  
G01 X75.0324 Y8.8585  
G01 X74.2647 Y8.3570  
G01 X73.4769 Y7.8875  
G01 X72.6703 Y7.4510  
G01 X71.8464 Y7.0483  
G01 X71.0066 Y6.6799  
G01 X70.1523 Y6.3465  
G01 X69.2849 Y6.0487  
G01 X68.4059 Y5.7871  
G01 X67.5169 Y5.5619  
G01 X66.6194 Y5.3737  
G01 X65.7148 Y5.2228  
G01 X64.8048 Y5.1094  
G01 X63.8908 Y5.0336  
G01 X62.9745 Y4.9957  
G01 X62.0575 Y4.9957  
G01 X61.1412 Y5.0336  
G01 X60.2272 Y5.1094  
G01 X59.3172 Y5.2228  
G01 X58.4126 Y5.3737  
G01 X57.5151 Y5.5619  
G01 X56.6261 Y5.7871  
G01 X55.7471 Y6.0487  
G01 X54.8797 Y6.3465  
G01 X54.0254 Y6.6799  
G01 X53.1856 Y7.0483  
G01 X52.3617 Y7.4510  
G01 X51.5551 Y7.8875  
G01 X50.7673 Y8.3570  
G01 X49.9996 Y8.8585  
G01 X49.2532 Y9.3914  
G01 X48.5295 Y9.9547  
G01 X47.8297 Y10.5474 
G01 X47.1550 Y11.1685 
G01 X46.5065 Y11.8170 
G01 X45.8854 Y12.4917 
G01 X45.2927 Y13.1915 
G01 X44.7294 Y13.9152 
G01 X44.1965 Y14.6616 
G01 X43.6950 Y15.4293 
G01 X43.2255 Y16.2171 
G01 X42.7890 Y17.0237 
G01 X42.3863 Y17.8476 
G01 X42.0179 Y18.6874 
G01 X41.6845 Y19.5417 
G01 X41.3867 Y20.4091 
G01 X41.1251 Y21.2881 
G01 X40.8999 Y22.1771 
G01 X40.7117 Y23.0746 
G01 X40.5608 Y23.9792 
G01 X40.4474 Y24.8892 
G01 X40.3716 Y25.8032 
G01 X40.3337 Y26.7195 
G01 X40.3290 Y27.1780 
G01 X40.3338 Y27.6360 
G01 X40.3722 Y28.5512 
G01 X40.4488 Y29.4639 
G01 X40.5636 Y30.3727 
G01 X40.7164 Y31.2758 
G01 X40.9068 Y32.1718 
G01 X41.1346 Y33.0590 
G01 X41.3993 Y33.9359 
G01 X41.7006 Y34.8009 
G01 X42.0378 Y35.6526 
G01 X42.4103 Y36.4894 
G01 X42.8176 Y37.3098 
G01 X43.2589 Y38.1125 
G01 X43.7334 Y38.8960 
G01 X44.2403 Y39.6589 
G01 X44.7787 Y40.4000 
G01 X45.3476 Y41.1178 
G01 X45.9462 Y41.8112 
G01 X46.5732 Y42.4789 
G01 X47.2276 Y43.1198 
G01 X47.9083 Y43.7327 
G01 X48.6141 Y44.3166 
G01 X49.3437 Y44.8704 
G01 X50.0959 Y45.3932 
G01 X50.8693 Y45.8840 
G01 X51.6625 Y46.3420 
G01 X52.4743 Y46.7663 
G01 X53.3031 Y47.1563 
G01 X54.1475 Y47.5113 
G01 X55.0060 Y47.8306 
G01 X55.8772 Y48.1136 
G01 X56.7594 Y48.3599 
G01 X57.6512 Y48.5691 
G01 X58.5509 Y48.7407 
G01 X59.4571 Y48.8746 
G01 X60.3681 Y48.9703 
G01 X61.2822 Y49.0278 
G01 X62.1980 Y49.0470 
G01 X63.1138 Y49.0278 
G01 X64.0280 Y48.9703 
G01 X64.9389 Y48.8746 
G01 X65.8451 Y48.7407 
G01 X66.7448 Y48.5691 
G01 X67.6366 Y48.3599 
G01 X68.5188 Y48.1136 
G01 X69.3900 Y47.8306 
G01 X70.2485 Y47.5113 
G01 X71.0929 Y47.1563 
G01 X71.9217 Y46.7663 
G01 X72.7335 Y46.3420 
G01 X73.5267 Y45.8840 
G01 X74.3001 Y45.3932 
G01 X75.0523 Y44.8704 
G01 X75.7819 Y44.3166 
G01 X76.4877 Y43.7327 
G01 X77.1684 Y43.1198 
G01 X77.8228 Y42.4789 
G01 X78.4498 Y41.8112 
G01 X79.0484 Y41.1178 
G01 X79.6173 Y40.4000 
G01 X80.1557 Y39.6589 
G01 X80.6626 Y38.8960 
G01 X81.1371 Y38.1125 
G01 X81.5784 Y37.3098 
G01 X81.9857 Y36.4894 
G01 X82.3582 Y35.6526 
G01 X82.6954 Y34.8009 
G01 X82.9967 Y33.9359 
G01 X83.2614 Y33.0590 
G01 X83.4892 Y32.1718 
G01 X83.6796 Y31.2758 
G01 X83.8324 Y30.3727 
G01 X83.9472 Y29.4639 
G01 X84.0238 Y28.5512 
G01 X84.0622 Y27.6360 
G01 X84.0670 Y27.1780 
G01 X84.0623 Y26.7267 
G01 X84.0245 Y25.8248 
G01 X83.9489 Y24.9253 
G01 X83.8358 Y24.0297 
G01 X83.6853 Y23.1396 
G01 X83.4976 Y22.2567 
G01 X83.2731 Y21.3824 
G01 X83.0122 Y20.5182 
G01 X82.7153 Y19.6657 
G01 X82.3830 Y18.8265 
G01 X82.0159 Y18.0018 
G01 X81.6145 Y17.1933 
G01 X81.1796 Y16.4022 
G01 X80.7120 Y15.6301 
G01 X80.2125 Y14.8783 
G01 X79.6819 Y14.1480 
G01 X79.1212 Y13.4406 
G01 X78.5314 Y12.7572 
G01 X77.9135 Y12.0992 
G01 X77.2685 Y11.4676 
G01 X76.5977 Y10.8636 
G01 X75.9022 Y10.2882 
G01 X75.1832 Y9.7425  
G01 X74.4419 Y9.2273  
G01 X73.6798 Y8.7436  
G01 X72.8980 Y8.2923  
G01 X72.0981 Y7.8741  
G01 X71.2813 Y7.4897  
G01 X70.4491 Y7.1399  
G01 X69.6031 Y6.8253  
G01 X68.7446 Y6.5463  
G01 X67.8751 Y6.3036  
G01 X66.9963 Y6.0975  
G01 X66.1096 Y5.9283  
G01 X65.2166 Y5.7964  
G01 X64.3189 Y5.7021  
G01 X63.4180 Y5.6454  
G01 X62.5155 Y5.6265  
G01 X61.6130 Y5.6454  
G01 X60.7121 Y5.7021  
G01 X59.8144 Y5.7964  
G01 X58.9214 Y5.9283  
G01 X58.0347 Y6.0975  
G01 X57.1559 Y6.3036  
G01 X56.2864 Y6.5463  
G01 X55.4279 Y6.8253  
G01 X54.5819 Y7.1399  
G01 X53.7497 Y7.4897  
G01 X52.9329 Y7.8741  
G01 X52.1330 Y8.2923  
G01 X51.3512 Y8.7436  
G01 X50.5891 Y9.2273  
G01 X49.8478 Y9.7425  
G01 X49.1288 Y10.2882 
G01 X48.4333 Y10.8636 
G01 X47.7625 Y11.4676 
G01 X47.1175 Y12.0992 
G01 X46.4996 Y12.7572 
G01 X45.9098 Y13.4406 
G01 X45.3491 Y14.1480 
G01 X44.8185 Y14.8783 
G01 X44.3190 Y15.6301 
G01 X43.8514 Y16.4023 
G01 X43.4165 Y17.1933 
G01 X43.0151 Y18.0018 
G01 X42.6480 Y18.8265 
G01 X42.3157 Y19.6657 
G01 X42.0188 Y20.5182 
G01 X41.7579 Y21.3824 
G01 X41.5334 Y22.2567 
G01 X41.3457 Y23.1396 
G01 X41.1952 Y24.0297 
G01 X41.0821 Y24.9253 
G01 X41.0065 Y25.8248 
G01 X40.9687 Y26.7267 
G01 X40.9640 Y27.1780 
G01 X40.9688 Y27.6287 
G01 X41.0070 Y28.5293 
G01 X41.0835 Y29.4274 
G01 X41.1980 Y30.3215 
G01 X41.3503 Y31.2100 
G01 X41.5402 Y32.0911 
G01 X41.7674 Y32.9635 
G01 X42.0313 Y33.8253 
G01 X42.3316 Y34.6752 
G01 X42.6677 Y35.5117 
G01 X43.0390 Y36.3330 
G01 X43.4448 Y37.1379 
G01 X43.8844 Y37.9248 
G01 X44.3570 Y38.6924 
G01 X44.8618 Y39.4392 
G01 X45.3978 Y40.1640 
G01 X45.9640 Y40.8653 
G01 X46.5596 Y41.5419 
G01 X47.1833 Y42.1927 
G01 X47.8341 Y42.8164 
G01 X48.5107 Y43.4120 
G01 X49.2120 Y43.9782 
G01 X49.9368 Y44.5142 
G01 X50.6836 Y45.0190 
G01 X51.4512 Y45.4916 
G01 X52.2381 Y45.9312 
G01 X53.0430 Y46.3370 
G01 X53.8644 Y46.7083 
G01 X54.7007 Y47.0444 
G01 X55.5507 Y47.3447 
G01 X56.4125 Y47.6086 
G01 X57.2849 Y47.8358 
G01 X58.1660 Y48.0257 
G01 X59.0545 Y48.1780 
G01 X59.9486 Y48.2925 
G01 X60.8467 Y48.3690 
G01 X61.7473 Y48.4072 
G01 X62.6487 Y48.4072 
G01 X63.5493 Y48.3690 
G01 X64.4474 Y48.2925 
G01 X65.3415 Y48.1780 
G01 X66.2300 Y48.0257 
G01 X67.1111 Y47.8358 
G01 X67.9835 Y47.6086 
G01 X68.8453 Y47.3447 
G01 X69.6953 Y47.0444 
G01 X70.5316 Y46.7083 
G01 X71.3530 Y46.3370 
G01 X72.1579 Y45.9312 
G01 X72.9449 Y45.4916 
G01 X73.7124 Y45.0190 
G01 X74.4592 Y44.5142 
G01 X75.1840 Y43.9782 
G01 X75.8853 Y43.4120 
G01 X76.5619 Y42.8164 
G01 X77.2127 Y42.1927 
G01 X77.8364 Y41.5419 
G01 X78.4320 Y40.8653 
G01 X78.9982 Y40.1640 
G01 X79.5342 Y39.4392 
G01 X80.0390 Y38.6924 
G01 X80.5116 Y37.9248 
G01 X80.9512 Y37.1379 
G01 X81.3570 Y36.3330 
G01 X81.7283 Y35.5116 
G01 X82.0644 Y34.6752 
G01 X82.3647 Y33.8253 
G01 X82.6286 Y32.9635 
G01 X82.8558 Y32.0911 
G01 X83.0457 Y31.2100 
G01 X83.1980 Y30.3215 
G01 X83.3125 Y29.4274 
G01 X83.3890 Y28.5293 
G01 X83.4272 Y27.6287 
G01 X83.4320 Y27.1780 
G01 X83.4273 Y26.7340 
G01 X83.3896 Y25.8469 
G01 X83.3143 Y24.9622 
G01 X83.2015 Y24.0815 
G01 X83.0515 Y23.2063 
G01 X82.8644 Y22.3383 
G01 X82.6407 Y21.4791 
G01 X82.3807 Y20.6300 
G01 X82.0849 Y19.7928 
G01 X81.7538 Y18.9690 
G01 X81.3881 Y18.1599 
G01 X80.9883 Y17.3670 
G01 X80.5553 Y16.5918 
G01 X80.0897 Y15.8357 
G01 X79.5925 Y15.1001 
G01 X79.0645 Y14.3862 
G01 X78.5067 Y13.6954 
G01 X77.9201 Y13.0288 
G01 X77.3057 Y12.3878 
G01 X76.6647 Y11.7734 
G01 X75.9981 Y11.1868 
G01 X75.3073 Y10.6290 
G01 X74.5934 Y10.1010 
G01 X73.8577 Y9.6038  
G01 X73.1017 Y9.1382  
G01 X72.3265 Y8.7052  
G01 X71.5336 Y8.3054  
G01 X70.7245 Y7.9397  
G01 X69.9006 Y7.6086  
G01 X69.0634 Y7.3128  
G01 X68.2144 Y7.0528  
G01 X67.3552 Y6.8291  
G01 X66.4872 Y6.6420  
G01 X65.6120 Y6.4920  
G01 X64.7313 Y6.3792  
G01 X63.8466 Y6.3039  
G01 X62.9595 Y6.2662  
G01 X62.0715 Y6.2662  
G01 X61.1844 Y6.3039  
G01 X60.2997 Y6.3792  
G01 X59.4190 Y6.4920  
G01 X58.5438 Y6.6420  
G01 X57.6758 Y6.8291  
G01 X56.8165 Y7.0528  
G01 X55.9675 Y7.3128  
G01 X55.1303 Y7.6086  
G01 X54.3065 Y7.9397  
G01 X53.4974 Y8.3054  
G01 X52.7045 Y8.7052  
G01 X51.9293 Y9.1382  
G01 X51.1732 Y9.6038  
G01 X50.4376 Y10.1010 
G01 X49.7237 Y10.6290 
G01 X49.0329 Y11.1868 
G01 X48.3663 Y11.7734 
G01 X47.7253 Y12.3878 
G01 X47.1109 Y13.0288 
G01 X46.5243 Y13.6954 
G01 X45.9665 Y14.3862 
G01 X45.4385 Y15.1001 
G01 X44.9413 Y15.8358 
G01 X44.4757 Y16.5918 
G01 X44.0427 Y17.3670 
G01 X43.6429 Y18.1599 
G01 X43.2772 Y18.9690 
G01 X42.9461 Y19.7929 
G01 X42.6503 Y20.6301 
G01 X42.3903 Y21.4791 
G01 X42.1666 Y22.3383 
G01 X41.9795 Y23.2063 
G01 X41.8295 Y24.0815 
G01 X41.7167 Y24.9622 
G01 X41.6414 Y25.8469 
G01 X41.6037 Y26.7340 
G01 X41.5990 Y27.1779 
G01 X41.6038 Y27.6212 
G01 X41.6419 Y28.5068 
G01 X41.7181 Y29.3900 
G01 X41.8322 Y30.2691 
G01 X41.9841 Y31.1424 
G01 X42.1733 Y32.0084 
G01 X42.3997 Y32.8655 
G01 X42.6627 Y33.7120 
G01 X42.9619 Y34.5464 
G01 X43.2967 Y35.3672 
G01 X43.6666 Y36.1728 
G01 X44.0707 Y36.9618 
G01 X44.5084 Y37.7326 
G01 X44.9789 Y38.4839 
G01 X45.4812 Y39.2143 
G01 X46.0145 Y39.9223 
G01 X46.5778 Y40.6068 
G01 X47.1700 Y41.2664 
G01 X47.7900 Y41.8999 
G01 X48.4367 Y42.5062 
G01 X49.1089 Y43.0840 
G01 X49.8053 Y43.6325 
G01 X50.5247 Y44.1504 
G01 X51.2657 Y44.6369 
G01 X52.0270 Y45.0911 
G01 X52.8071 Y45.5121 
G01 X53.6045 Y45.8992 
G01 X54.4179 Y46.2516 
G01 X55.2457 Y46.5687 
G01 X56.0864 Y46.8498 
G01 X56.9383 Y47.0946 
G01 X57.8001 Y47.3024 
G01 X58.6699 Y47.4730 
G01 X59.5464 Y47.6061 
G01 X60.4277 Y47.7012 
G01 X61.3123 Y47.7584 
G01 X62.1985 Y47.7775 
G01 X63.0847 Y47.7584 
G01 X63.9693 Y47.7012 
G01 X64.8507 Y47.6061 
G01 X65.7271 Y47.4730 
G01 X66.5969 Y47.3024 
G01 X67.4587 Y47.0946 
G01 X68.3106 Y46.8498 
G01 X69.1513 Y46.5687 
G01 X69.9791 Y46.2516 
G01 X70.7925 Y45.8992 
G01 X71.5900 Y45.5121 
G01 X72.3700 Y45.0911 
G01 X73.1313 Y44.6369 
G01 X73.8723 Y44.1504 
G01 X74.5917 Y43.6325 
G01 X75.2881 Y43.0840 
G01 X75.9603 Y42.5062 
G01 X76.6070 Y41.8999 
G01 X77.2270 Y41.2664 
G01 X77.8192 Y40.6068 
G01 X78.3825 Y39.9223 
G01 X78.9158 Y39.2142 
G01 X79.4181 Y38.4839 
G01 X79.8886 Y37.7326 
G01 X80.3263 Y36.9618 
G01 X80.7304 Y36.1728 
G01 X81.1003 Y35.3672 
G01 X81.4351 Y34.5464 
G01 X81.7343 Y33.7120 
G01 X81.9973 Y32.8655 
G01 X82.2237 Y32.0084 
G01 X82.4129 Y31.1424 
G01 X82.5648 Y30.2691 
G01 X82.6789 Y29.3900 
G01 X82.7551 Y28.5068 
G01 X82.7932 Y27.6212 
G01 X82.7980 Y27.1780 
G01 X82.7932 Y26.7355 
G01 X82.7546 Y25.8515 
G01 X82.6775 Y24.9700 
G01 X82.5619 Y24.0926 
G01 X82.4083 Y23.2212 
G01 X82.2168 Y22.3573 
G01 X81.9877 Y21.5025 
G01 X81.7216 Y20.6586 
G01 X81.4190 Y19.8270 
G01 X81.0803 Y19.0095 
G01 X80.7064 Y18.2075 
G01 X80.2978 Y17.4226 
G01 X79.8553 Y16.6562 
G01 X79.3799 Y15.9099 
G01 X78.8723 Y15.1851 
G01 X78.3336 Y14.4830 
G01 X77.7648 Y13.8051 
G01 X77.1670 Y13.1527 
G01 X76.5413 Y12.5270 
G01 X75.8889 Y11.9292 
G01 X75.2110 Y11.3604 
G01 X74.5089 Y10.8217 
G01 X73.7841 Y10.3141 
G01 X73.0378 Y9.8387  
G01 X72.2714 Y9.3962  
G01 X71.4865 Y8.9876  
G01 X70.6845 Y8.6136  
G01 X69.8670 Y8.2750  
G01 X69.0354 Y7.9724  
G01 X68.1915 Y7.7063  
G01 X67.3367 Y7.4772  
G01 X66.4728 Y7.2857  
G01 X65.6014 Y7.1321  
G01 X64.7240 Y7.0165  
G01 X63.8425 Y6.9394  
G01 X62.9584 Y6.9008  
G01 X62.0735 Y6.9008  
G01 X61.1895 Y6.9394  
G01 X60.3080 Y7.0165  
G01 X59.4306 Y7.1321  
G01 X58.5592 Y7.2857  
G01 X57.6953 Y7.4772  
G01 X56.8405 Y7.7063  
G01 X55.9966 Y7.9724  
G01 X55.1650 Y8.2750  
G01 X54.3475 Y8.6136  
G01 X53.5455 Y8.9876  
G01 X52.7606 Y9.3962  
G01 X51.9942 Y9.8387  
G01 X51.2479 Y10.3141 
G01 X50.5231 Y10.8217 
G01 X49.8210 Y11.3604 
G01 X49.1431 Y11.9292 
G01 X48.4907 Y12.5270 
G01 X47.8650 Y13.1527 
G01 X47.2672 Y13.8051 
G01 X46.6984 Y14.4830 
G01 X46.1597 Y15.1851 
G01 X45.6521 Y15.9099 
G01 X45.1767 Y16.6562 
G01 X44.7342 Y17.4226 
G01 X44.3256 Y18.2075 
G01 X43.9517 Y19.0095 
G01 X43.6130 Y19.8270 
G01 X43.3104 Y20.6586 
G01 X43.0443 Y21.5025 
G01 X42.8152 Y22.3573 
G01 X42.6237 Y23.2212 
G01 X42.4701 Y24.0926 
G01 X42.3545 Y24.9700 
G01 X42.2774 Y25.8515 
G01 X42.2388 Y26.7355 
G01 X42.2340 Y27.1780 
G01 X42.2387 Y27.6135 
G01 X42.2767 Y28.4837 
G01 X42.3527 Y29.3514 
G01 X42.4663 Y30.2150 
G01 X42.6176 Y31.0728 
G01 X42.8061 Y31.9232 
G01 X43.0316 Y32.7645 
G01 X43.2935 Y33.5952 
G01 X43.5914 Y34.4137 
G01 X43.9247 Y35.2184 
G01 X44.2928 Y36.0079 
G01 X44.6950 Y36.7805 
G01 X45.1305 Y37.5348 
G01 X45.5985 Y38.2694 
G01 X46.0981 Y38.9829 
G01 X46.6284 Y39.6739 
G01 X47.1883 Y40.3412 
G01 X47.7767 Y40.9834 
G01 X48.3926 Y41.5993 
G01 X49.0348 Y42.1877 
G01 X49.7021 Y42.7476 
G01 X50.3931 Y43.2779 
G01 X51.1066 Y43.7775 
G01 X51.8412 Y44.2455 
G01 X52.5955 Y44.6810 
G01 X53.3681 Y45.0832 
G01 X54.1576 Y45.4513 
G01 X54.9623 Y45.7846 
G01 X55.7808 Y46.0825 
G01 X56.6115 Y46.3444 
G01 X57.4528 Y46.5699 
G01 X58.3032 Y46.7584 
G01 X59.1610 Y46.9096 
G01 X60.0246 Y47.0233 
G01 X60.8923 Y47.0993 
G01 X61.7625 Y47.1373 
G01 X62.6335 Y47.1373 
G01 X63.5037 Y47.0993 
G01 X64.3714 Y47.0233 
G01 X65.2350 Y46.9096 
G01 X66.0928 Y46.7584 
G01 X66.9432 Y46.5699 
G01 X67.7845 Y46.3444 
G01 X68.6152 Y46.0825 
G01 X69.4337 Y45.7846 
G01 X70.2384 Y45.4513 
G01 X71.0279 Y45.0832 
G01 X71.8005 Y44.6810 
G01 X72.5548 Y44.2455 
G01 X73.2894 Y43.7775 
G01 X74.0029 Y43.2779 
G01 X74.6939 Y42.7476 
G01 X75.3612 Y42.1877 
G01 X76.0034 Y41.5993 
G01 X76.6193 Y40.9834 
G01 X77.2077 Y40.3412 
G01 X77.7676 Y39.6739 
G01 X78.2979 Y38.9829 
G01 X78.7975 Y38.2694 
G01 X79.2655 Y37.5348 
G01 X79.7010 Y36.7805 
G01 X80.1032 Y36.0079 
G01 X80.4713 Y35.2184 
G01 X80.8046 Y34.4137 
G01 X81.1025 Y33.5952 
G01 X81.3644 Y32.7645 
G01 X81.5899 Y31.9232 
G01 X81.7784 Y31.0728 
G01 X81.9297 Y30.2150 
G01 X82.0433 Y29.3514 
G01 X82.1193 Y28.4837 
G01 X82.1573 Y27.6135 
G01 X82.1620 Y27.1780 
G01 X82.1572 Y26.7434 
G01 X82.1187 Y25.8750 
G01 X82.0419 Y25.0091 
G01 X81.9269 Y24.1475 
G01 X81.7738 Y23.2919 
G01 X81.5831 Y22.4438 
G01 X81.3550 Y21.6050 
G01 X81.0901 Y20.7772 
G01 X80.7887 Y19.9618 
G01 X80.4517 Y19.1606 
G01 X80.0795 Y18.3751 
G01 X79.6729 Y17.6068 
G01 X79.2327 Y16.8572 
G01 X78.7599 Y16.1278 
G01 X78.2552 Y15.4201 
G01 X77.7197 Y14.7354 
G01 X77.1544 Y14.0750 
G01 X76.5605 Y13.4403 
G01 X75.9391 Y12.8325 
G01 X75.2914 Y12.2528 
G01 X74.6187 Y11.7023 
G01 X73.9223 Y11.1821 
G01 X73.2036 Y10.6932 
G01 X72.4640 Y10.2365 
G01 X71.7048 Y9.8131  
G01 X70.9277 Y9.4236  
G01 X70.1342 Y9.0689  
G01 X69.3257 Y8.7496  
G01 X68.5039 Y8.4664  
G01 X67.6703 Y8.2198  
G01 X66.8267 Y8.0104  
G01 X65.9746 Y7.8384  
G01 X65.1158 Y7.7043  
G01 X64.2519 Y7.6084  
G01 X63.3845 Y7.5507  
G01 X62.5155 Y7.5315  
G01 X61.6465 Y7.5507  
G01 X60.7791 Y7.6084  
G01 X59.9152 Y7.7043  
G01 X59.0564 Y7.8384  
G01 X58.2043 Y8.0104  
G01 X57.3607 Y8.2198  
G01 X56.5271 Y8.4664  
G01 X55.7053 Y8.7496  
G01 X54.8968 Y9.0689  
G01 X54.1033 Y9.4236  
G01 X53.3262 Y9.8131  
G01 X52.5670 Y10.2365 
G01 X51.8274 Y10.6932 
G01 X51.1087 Y11.1821 
G01 X50.4123 Y11.7023 
G01 X49.7396 Y12.2528 
G01 X49.0919 Y12.8325 
G01 X48.4705 Y13.4403 
G01 X47.8766 Y14.0751 
G01 X47.3113 Y14.7354 
G01 X46.7758 Y15.4201 
G01 X46.2711 Y16.1278 
G01 X45.7983 Y16.8572 
G01 X45.3581 Y17.6068 
G01 X44.9515 Y18.3751 
G01 X44.5793 Y19.1606 
G01 X44.2423 Y19.9618 
G01 X43.9409 Y20.7772 
G01 X43.6760 Y21.6050 
G01 X43.4479 Y22.4438 
G01 X43.2572 Y23.2919 
G01 X43.1041 Y24.1475 
G01 X42.9891 Y25.0091 
G01 X42.9123 Y25.8750 
G01 X42.8738 Y26.7434 
G01 X42.8690 Y27.1780 
G01 X42.8737 Y27.6056 
G01 X42.9116 Y28.4600 
G01 X42.9871 Y29.3118 
G01 X43.1003 Y30.1595 
G01 X43.2509 Y31.0013 
G01 X43.4386 Y31.8357 
G01 X43.6629 Y32.6609 
G01 X43.9236 Y33.4754 
G01 X44.2201 Y34.2776 
G01 X44.5517 Y35.0659 
G01 X44.9179 Y35.8387 
G01 X45.3179 Y36.5946 
G01 X45.7509 Y37.3320 
G01 X46.2162 Y38.0496 
G01 X46.7127 Y38.7459 
G01 X47.2395 Y39.4195 
G01 X47.7957 Y40.0692 
G01 X48.3800 Y40.6936 
G01 X48.9913 Y41.2916 
G01 X49.6286 Y41.8620 
G01 X50.2904 Y42.4036 
G01 X50.9755 Y42.9154 
G01 X51.6826 Y43.3964 
G01 X52.4103 Y43.8457 
G01 X53.1572 Y44.2623 
G01 X53.9217 Y44.6455 
G01 X54.7025 Y44.9945 
G01 X55.4979 Y45.3086 
G01 X56.3064 Y45.5872 
G01 X57.1265 Y45.8298 
G01 X57.9565 Y46.0359 
G01 X58.7948 Y46.2050 
G01 X59.6397 Y46.3370 
G01 X60.4897 Y46.4314 
G01 X61.3430 Y46.4881 
G01 X62.1980 Y46.5070 
G01 X63.0530 Y46.4881 
G01 X63.9063 Y46.4314 
G01 X64.7563 Y46.3370 
G01 X65.6012 Y46.2050 
G01 X66.4395 Y46.0359 
G01 X67.2695 Y45.8298 
G01 X68.0896 Y45.5872 
G01 X68.8981 Y45.3086 
G01 X69.6935 Y44.9945 
G01 X70.4743 Y44.6455 
G01 X71.2388 Y44.2623 
G01 X71.9857 Y43.8457 
G01 X72.7134 Y43.3964 
G01 X73.4205 Y42.9154 
G01 X74.1056 Y42.4036 
G01 X74.7674 Y41.8620 
G01 X75.4047 Y41.2916 
G01 X76.0160 Y40.6936 
G01 X76.6003 Y40.0692 
G01 X77.1565 Y39.4195 
G01 X77.6833 Y38.7459 
G01 X78.1798 Y38.0496 
G01 X78.6451 Y37.3320 
G01 X79.0781 Y36.5946 
G01 X79.4781 Y35.8387 
G01 X79.8443 Y35.0658 
G01 X80.1759 Y34.2776 
G01 X80.4724 Y33.4754 
G01 X80.7331 Y32.6609 
G01 X80.9574 Y31.8357 
G01 X81.1451 Y31.0013 
G01 X81.2957 Y30.1595 
G01 X81.4089 Y29.3118 
G01 X81.4844 Y28.4600 
G01 X81.5223 Y27.6056 
G01 X81.5270 Y27.1780 
G01 X81.5222 Y26.7514 
G01 X81.4839 Y25.8991 
G01 X81.4075 Y25.0494 
G01 X81.2929 Y24.2039 
G01 X81.1406 Y23.3645 
G01 X80.9508 Y22.5327 
G01 X80.7238 Y21.7103 
G01 X80.4601 Y20.8989 
G01 X80.1604 Y20.1001 
G01 X79.8250 Y19.3156 
G01 X79.4549 Y18.5470 
G01 X79.0506 Y17.7957 
G01 X78.6130 Y17.0633 
G01 X78.1430 Y16.3512 
G01 X77.6415 Y15.6610 
G01 X77.1096 Y14.9940 
G01 X76.5483 Y14.3515 
G01 X75.9587 Y13.7348 
G01 X75.3420 Y13.1452 
G01 X74.6995 Y12.5839 
G01 X74.0325 Y12.0520 
G01 X73.3423 Y11.5505 
G01 X72.6302 Y11.0805 
G01 X71.8978 Y10.6429 
G01 X71.1465 Y10.2386 
G01 X70.3779 Y9.8685  
G01 X69.5934 Y9.5331  
G01 X68.7946 Y9.2334  
G01 X67.9832 Y8.9697  
G01 X67.1608 Y8.7427  
G01 X66.3290 Y8.5529  
G01 X65.4896 Y8.4006  
G01 X64.6441 Y8.2860  
G01 X63.7944 Y8.2096  
G01 X62.9421 Y8.1713  
G01 X62.0889 Y8.1713  
G01 X61.2366 Y8.2096  
G01 X60.3869 Y8.2860  
G01 X59.5414 Y8.4006  
G01 X58.7020 Y8.5529  
G01 X57.8702 Y8.7427  
G01 X57.0478 Y8.9697  
G01 X56.2364 Y9.2334  
G01 X55.4376 Y9.5331  
G01 X54.6531 Y9.8685  
G01 X53.8845 Y10.2386 
G01 X53.1332 Y10.6429 
G01 X52.4008 Y11.0805 
G01 X51.6887 Y11.5505 
G01 X50.9985 Y12.0520 
G01 X50.3315 Y12.5839 
G01 X49.6890 Y13.1452 
G01 X49.0723 Y13.7348 
G01 X48.4827 Y14.3515 
G01 X47.9214 Y14.9940 
G01 X47.3895 Y15.6610 
G01 X46.8880 Y16.3512 
G01 X46.4180 Y17.0633 
G01 X45.9804 Y17.7957 
G01 X45.5761 Y18.5470 
G01 X45.2060 Y19.3156 
G01 X44.8706 Y20.1001 
G01 X44.5709 Y20.8989 
G01 X44.3072 Y21.7103 
G01 X44.0802 Y22.5327 
G01 X43.8904 Y23.3645 
G01 X43.7381 Y24.2039 
G01 X43.6235 Y25.0494 
G01 X43.5471 Y25.8991 
G01 X43.5088 Y26.7514 
G01 X43.5040 Y27.1780 
G01 X43.5087 Y27.5975 
G01 X43.5463 Y28.4355 
G01 X43.6215 Y29.2711 
G01 X43.7341 Y30.1024 
G01 X43.8839 Y30.9278 
G01 X44.0706 Y31.7457 
G01 X44.2938 Y32.5544 
G01 X44.5530 Y33.3522 
G01 X44.8478 Y34.1377 
G01 X45.1775 Y34.9091 
G01 X45.5415 Y35.6649 
G01 X45.9391 Y36.4036 
G01 X46.3693 Y37.1238 
G01 X46.8315 Y37.8239 
G01 X47.3246 Y38.5026 
G01 X47.8476 Y39.1585 
G01 X48.3996 Y39.7903 
G01 X48.9793 Y40.3967 
G01 X49.5857 Y40.9764 
G01 X50.2175 Y41.5284 
G01 X50.8734 Y42.0514 
G01 X51.5521 Y42.5445 
G01 X52.2522 Y43.0067 
G01 X52.9724 Y43.4369 
G01 X53.7111 Y43.8345 
G01 X54.4669 Y44.1985 
G01 X55.2383 Y44.5282 
G01 X56.0238 Y44.8230 
G01 X56.8216 Y45.0822 
G01 X57.6303 Y45.3054 
G01 X58.4482 Y45.4921 
G01 X59.2736 Y45.6418 
G01 X60.1049 Y45.7545 
G01 X60.9405 Y45.8297 
G01 X61.7785 Y45.8673 
G01 X62.6175 Y45.8673 
G01 X63.4555 Y45.8297 
G01 X64.2911 Y45.7545 
G01 X65.1224 Y45.6418 
G01 X65.9478 Y45.4921 
G01 X66.7657 Y45.3054 
G01 X67.5744 Y45.0822 
G01 X68.3722 Y44.8230 
G01 X69.1577 Y44.5282 
G01 X69.9291 Y44.1985 
G01 X70.6849 Y43.8345 
G01 X71.4236 Y43.4369 
G01 X72.1438 Y43.0067 
G01 X72.8439 Y42.5445 
G01 X73.5226 Y42.0514 
G01 X74.1785 Y41.5284 
G01 X74.8103 Y40.9764 
G01 X75.4167 Y40.3967 
G01 X75.9964 Y39.7903 
G01 X76.5483 Y39.1585 
G01 X77.0714 Y38.5026 
G01 X77.5645 Y37.8239 
G01 X78.0267 Y37.1238 
G01 X78.4569 Y36.4036 
G01 X78.8545 Y35.6649 
G01 X79.2185 Y34.9091 
G01 X79.5482 Y34.1377 
G01 X79.8430 Y33.3522 
G01 X80.1022 Y32.5544 
G01 X80.3254 Y31.7457 
G01 X80.5121 Y30.9278 
G01 X80.6618 Y30.1024 
G01 X80.7745 Y29.2711 
G01 X80.8497 Y28.4355 
G01 X80.8873 Y27.5975 
G01 X80.8920 Y27.1780 
G01 X80.8872 Y26.7597 
G01 X80.8492 Y25.9239 
G01 X80.7731 Y25.0908 
G01 X80.6592 Y24.2620 
G01 X80.5076 Y23.4392 
G01 X80.3188 Y22.6242 
G01 X80.0931 Y21.8186 
G01 X79.8310 Y21.0241 
G01 X79.5329 Y20.2424 
G01 X79.1996 Y19.4750 
G01 X78.8317 Y18.7236 
G01 X78.4300 Y17.9897 
G01 X77.9953 Y17.2749 
G01 X77.5285 Y16.5806 
G01 X77.0307 Y15.9083 
G01 X76.5027 Y15.2593 
G01 X75.9457 Y14.6351 
G01 X75.3609 Y14.0368 
G01 X74.7495 Y13.4658 
G01 X74.1127 Y12.9231 
G01 X73.4519 Y12.4101 
G01 X72.7684 Y11.9276 
G01 X72.0636 Y11.4768 
G01 X71.3391 Y11.0585 
G01 X70.5963 Y10.6736 
G01 X69.8367 Y10.3229 
G01 X69.0620 Y10.0071 
G01 X68.2737 Y9.7269  
G01 X67.4734 Y9.4829  
G01 X66.6629 Y9.2756  
G01 X65.8438 Y9.1054  
G01 X65.0178 Y8.9727  
G01 X64.1866 Y8.8776  
G01 X63.3519 Y8.8205  
G01 X62.5155 Y8.8015  
G01 X61.6791 Y8.8205  
G01 X60.8444 Y8.8776  
G01 X60.0132 Y8.9727  
G01 X59.1872 Y9.1054  
G01 X58.3681 Y9.2756  
G01 X57.5576 Y9.4829  
G01 X56.7573 Y9.7269  
G01 X55.9690 Y10.0071 
G01 X55.1943 Y10.3229 
G01 X54.4347 Y10.6736 
G01 X53.6919 Y11.0585 
G01 X52.9674 Y11.4768 
G01 X52.2626 Y11.9276 
G01 X51.5791 Y12.4101 
G01 X50.9183 Y12.9231 
G01 X50.2815 Y13.4658 
G01 X49.6701 Y14.0368 
G01 X49.0853 Y14.6351 
G01 X48.5283 Y15.2593 
G01 X48.0003 Y15.9083 
G01 X47.5025 Y16.5806 
G01 X47.0357 Y17.2749 
G01 X46.6010 Y17.9897 
G01 X46.1993 Y18.7236 
G01 X45.8314 Y19.4750 
G01 X45.4981 Y20.2424 
G01 X45.2000 Y21.0241 
G01 X44.9379 Y21.8186 
G01 X44.7122 Y22.6242 
G01 X44.5234 Y23.4392 
G01 X44.3718 Y24.2620 
G01 X44.2579 Y25.0908 
G01 X44.1818 Y25.9239 
G01 X44.1438 Y26.7597 
G01 X44.1390 Y27.1780 
G01 X44.1438 Y27.5951 
G01 X44.1823 Y28.4285 
G01 X44.2593 Y29.2592 
G01 X44.3746 Y30.0854 
G01 X44.5279 Y30.9055 
G01 X44.7189 Y31.7176 
G01 X44.9472 Y32.5200 
G01 X45.2123 Y33.3110 
G01 X45.5137 Y34.0889 
G01 X45.8506 Y34.8520 
G01 X46.2225 Y35.5988 
G01 X46.6284 Y36.3277 
G01 X47.0676 Y37.0370 
G01 X47.5391 Y37.7252 
G01 X48.0418 Y38.3910 
G01 X48.5748 Y39.0328 
G01 X49.1368 Y39.6493 
G01 X49.7267 Y40.2392 
G01 X50.3432 Y40.8012 
G01 X50.9851 Y41.3342 
G01 X51.6508 Y41.8369 
G01 X52.3391 Y42.3084 
G01 X53.0483 Y42.7476 
G01 X53.7772 Y43.1535 
G01 X54.5240 Y43.5254 
G01 X55.2871 Y43.8623 
G01 X56.0650 Y44.1637 
G01 X56.8560 Y44.4288 
G01 X57.6584 Y44.6571 
G01 X58.4705 Y44.8481 
G01 X59.2906 Y45.0014 
G01 X60.1168 Y45.1167 
G01 X60.9475 Y45.1937 
G01 X61.7809 Y45.2322 
G01 X62.6151 Y45.2322 
G01 X63.4485 Y45.1937 
G01 X64.2792 Y45.1167 
G01 X65.1054 Y45.0014 
G01 X65.9255 Y44.8481 
G01 X66.7376 Y44.6571 
G01 X67.5400 Y44.4288 
G01 X68.3310 Y44.1637 
G01 X69.1089 Y43.8623 
G01 X69.8720 Y43.5254 
G01 X70.6188 Y43.1535 
G01 X71.3477 Y42.7476 
G01 X72.0570 Y42.3084 
G01 X72.7452 Y41.8369 
G01 X73.4109 Y41.3342 
G01 X74.0528 Y40.8012 
G01 X74.6693 Y40.2392 
G01 X75.2592 Y39.6493 
G01 X75.8212 Y39.0328 
G01 X76.3542 Y38.3909 
G01 X76.8569 Y37.7252 
G01 X77.3284 Y37.0369 
G01 X77.7676 Y36.3277 
G01 X78.1735 Y35.5988 
G01 X78.5454 Y34.8520 
G01 X78.8823 Y34.0889 
G01 X79.1837 Y33.3110 
G01 X79.4488 Y32.5200 
G01 X79.6771 Y31.7176 
G01 X79.8681 Y30.9055 
G01 X80.0214 Y30.0854 
G01 X80.1367 Y29.2592 
G01 X80.2137 Y28.4285 
G01 X80.2522 Y27.5951 
G01 X80.2570 Y27.1780 
G01 X80.2523 Y26.7682 
G01 X80.2144 Y25.9495 
G01 X80.1388 Y25.1334 
G01 X80.0256 Y24.3217 
G01 X79.8750 Y23.5161 
G01 X79.6873 Y22.7182 
G01 X79.4630 Y21.9300 
G01 X79.2026 Y21.1529 
G01 X78.9065 Y20.3886 
G01 X78.5755 Y19.6389 
G01 X78.2101 Y18.9052 
G01 X77.8113 Y18.1892 
G01 X77.3799 Y17.4924 
G01 X76.9167 Y16.8162 
G01 X76.4228 Y16.1622 
G01 X75.8992 Y15.5317 
G01 X75.3471 Y14.9260 
G01 X74.7675 Y14.3464 
G01 X74.1618 Y13.7943 
G01 X73.5313 Y13.2707 
G01 X72.8773 Y12.7768 
G01 X72.2011 Y12.3136 
G01 X71.5043 Y11.8822 
G01 X70.7883 Y11.4834 
G01 X70.0546 Y11.1180 
G01 X69.3049 Y10.7870 
G01 X68.5406 Y10.4909 
G01 X67.7635 Y10.2305 
G01 X66.9752 Y10.0062 
G01 X66.1774 Y9.8185  
G01 X65.3718 Y9.6679  
G01 X64.5601 Y9.5547  
G01 X63.7440 Y9.4791  
G01 X62.9253 Y9.4412  
G01 X62.1057 Y9.4412  
G01 X61.2870 Y9.4791  
G01 X60.4709 Y9.5547  
G01 X59.6592 Y9.6679  
G01 X58.8536 Y9.8185  
G01 X58.0557 Y10.0062 
G01 X57.2675 Y10.2305 
G01 X56.4904 Y10.4909 
G01 X55.7261 Y10.7870 
G01 X54.9764 Y11.1180 
G01 X54.2427 Y11.4834 
G01 X53.5267 Y11.8822 
G01 X52.8299 Y12.3136 
G01 X52.1537 Y12.7768 
G01 X51.4997 Y13.2707 
G01 X50.8692 Y13.7943 
G01 X50.2635 Y14.3464 
G01 X49.6839 Y14.9260 
G01 X49.1318 Y15.5317 
G01 X48.6082 Y16.1622 
G01 X48.1143 Y16.8162 
G01 X47.6511 Y17.4924 
G01 X47.2197 Y18.1892 
G01 X46.8209 Y18.9052 
G01 X46.4555 Y19.6389 
G01 X46.1245 Y20.3886 
G01 X45.8284 Y21.1529 
G01 X45.5680 Y21.9300 
G01 X45.3437 Y22.7183 
G01 X45.1560 Y23.5161 
G01 X45.0054 Y24.3217 
G01 X44.8922 Y25.1334 
G01 X44.8166 Y25.9495 
G01 X44.7787 Y26.7682 
G01 X44.7740 Y27.1780 
G01 X44.7788 Y27.5865 
G01 X44.8171 Y28.4025 
G01 X44.8936 Y29.2158 
G01 X45.0081 Y30.0247 
G01 X45.1604 Y30.8273 
G01 X45.3502 Y31.6219 
G01 X45.5770 Y32.4067 
G01 X45.8404 Y33.1800 
G01 X46.1397 Y33.9401 
G01 X46.4743 Y34.6854 
G01 X46.8435 Y35.4141 
G01 X47.2464 Y36.1248 
G01 X47.6822 Y36.8158 
G01 X48.1499 Y37.4856 
G01 X48.6484 Y38.1327 
G01 X49.1768 Y38.7558 
G01 X49.7338 Y39.3534 
G01 X50.3182 Y39.9242 
G01 X50.9287 Y40.4670 
G01 X51.5640 Y40.9806 
G01 X52.2226 Y41.4639 
G01 X52.9032 Y41.9158 
G01 X53.6042 Y42.3352 
G01 X54.3241 Y42.7214 
G01 X55.0613 Y43.0734 
G01 X55.8142 Y43.3904 
G01 X56.5811 Y43.6718 
G01 X57.3604 Y43.9170 
G01 X58.1503 Y44.1253 
G01 X58.9491 Y44.2964 
G01 X59.7551 Y44.4299 
G01 X60.5664 Y44.5254 
G01 X61.3813 Y44.5829 
G01 X62.1980 Y44.6020 
G01 X63.0147 Y44.5829 
G01 X63.8296 Y44.5254 
G01 X64.6409 Y44.4299 
G01 X65.4469 Y44.2964 
G01 X66.2457 Y44.1253 
G01 X67.0356 Y43.9170 
G01 X67.8149 Y43.6718 
G01 X68.5818 Y43.3904 
G01 X69.3347 Y43.0734 
G01 X70.0719 Y42.7214 
G01 X70.7918 Y42.3352 
G01 X71.4928 Y41.9158 
G01 X72.1734 Y41.4639 
G01 X72.8320 Y40.9806 
G01 X73.4673 Y40.4670 
G01 X74.0778 Y39.9242 
G01 X74.6622 Y39.3534 
G01 X75.2192 Y38.7557 
G01 X75.7476 Y38.1327 
G01 X76.2461 Y37.4856 
G01 X76.7138 Y36.8158 
G01 X77.1496 Y36.1248 
G01 X77.5525 Y35.4141 
G01 X77.9217 Y34.6854 
G01 X78.2563 Y33.9401 
G01 X78.5556 Y33.1800 
G01 X78.8190 Y32.4067 
G01 X79.0458 Y31.6219 
G01 X79.2356 Y30.8273 
G01 X79.3879 Y30.0247 
G01 X79.5024 Y29.2158 
G01 X79.5789 Y28.4025 
G01 X79.6172 Y27.5865 
G01 X79.6220 Y27.1780 
G01 X79.6173 Y26.7770 
G01 X79.5797 Y25.9758 
G01 X79.5046 Y25.1773 
G01 X79.3922 Y24.3832 
G01 X79.2426 Y23.5952 
G01 X79.0563 Y22.8151 
G01 X78.8336 Y22.0446 
G01 X78.5751 Y21.2854 
G01 X78.2812 Y20.5391 
G01 X77.9527 Y19.8074 
G01 X77.5903 Y19.0920 
G01 X77.1947 Y18.3942 
G01 X76.7668 Y17.7159 
G01 X76.3077 Y17.0583 
G01 X75.8182 Y16.4229 
G01 X75.2994 Y15.8112 
G01 X74.7526 Y15.2245 
G01 X74.1788 Y14.6641 
G01 X73.5795 Y14.1311 
G01 X72.9558 Y13.6269 
G01 X72.3091 Y13.1524 
G01 X71.6410 Y12.7088 
G01 X70.9527 Y12.2969 
G01 X70.2459 Y11.9178 
G01 X69.5222 Y11.5723 
G01 X68.7830 Y11.2610 
G01 X68.0300 Y10.9847 
G01 X67.2649 Y10.7440 
G01 X66.4894 Y10.5395 
G01 X65.7052 Y10.3715 
G01 X64.9139 Y10.2405 
G01 X64.1174 Y10.1467 
G01 X63.3173 Y10.0903 
G01 X62.5155 Y10.0715 
G01 X61.7137 Y10.0903 
G01 X60.9136 Y10.1467 
G01 X60.1171 Y10.2405 
G01 X59.3258 Y10.3715 
G01 X58.5416 Y10.5395 
G01 X57.7660 Y10.7440 
G01 X57.0010 Y10.9847 
G01 X56.2480 Y11.2610 
G01 X55.5088 Y11.5723 
G01 X54.7851 Y11.9178 
G01 X54.0783 Y12.2969 
G01 X53.3900 Y12.7088 
G01 X52.7219 Y13.1524 
G01 X52.0752 Y13.6269 
G01 X51.4515 Y14.1311 
G01 X50.8522 Y14.6641 
G01 X50.2784 Y15.2245 
G01 X49.7316 Y15.8112 
G01 X49.2128 Y16.4229 
G01 X48.7233 Y17.0583 
G01 X48.2642 Y17.7159 
G01 X47.8363 Y18.3943 
G01 X47.4407 Y19.0920 
G01 X47.0783 Y19.8074 
G01 X46.7498 Y20.5391 
G01 X46.4559 Y21.2854 
G01 X46.1974 Y22.0446 
G01 X45.9747 Y22.8151 
G01 X45.7884 Y23.5952 
G01 X45.6388 Y24.3832 
G01 X45.5264 Y25.1773 
G01 X45.4513 Y25.9758 
G01 X45.4137 Y26.7770 
G01 X45.4090 Y27.1780 
G01 X45.4138 Y27.5775 
G01 X45.4518 Y28.3757 
G01 X45.5277 Y29.1712 
G01 X45.6414 Y29.9621 
G01 X45.7927 Y30.7468 
G01 X45.9811 Y31.5233 
G01 X46.2062 Y32.2900 
G01 X46.4675 Y33.0452 
G01 X46.7645 Y33.7870 
G01 X47.0965 Y34.5139 
G01 X47.4626 Y35.2241 
G01 X47.8622 Y35.9161 
G01 X48.2942 Y36.5884 
G01 X48.7577 Y37.2393 
G01 X49.2517 Y37.8674 
G01 X49.7750 Y38.4713 
G01 X50.3264 Y39.0496 
G01 X50.9047 Y39.6010 
G01 X51.5086 Y40.1243 
G01 X52.1367 Y40.6183 
G01 X52.7876 Y41.0818 
G01 X53.4599 Y41.5138 
G01 X54.1519 Y41.9134 
G01 X54.8621 Y42.2795 
G01 X55.5890 Y42.6115 
G01 X56.3308 Y42.9085 
G01 X57.0860 Y43.1698 
G01 X57.8527 Y43.3949 
G01 X58.6292 Y43.5833 
G01 X59.4139 Y43.7345 
G01 X60.2048 Y43.8483 
G01 X61.0003 Y43.9242 
G01 X61.7985 Y43.9622 
G01 X62.5975 Y43.9622 
G01 X63.3957 Y43.9242 
G01 X64.1912 Y43.8483 
G01 X64.9821 Y43.7345 
G01 X65.7668 Y43.5833 
G01 X66.5433 Y43.3949 
G01 X67.3100 Y43.1698 
G01 X68.0652 Y42.9085 
G01 X68.8070 Y42.6115 
G01 X69.5339 Y42.2795 
G01 X70.2441 Y41.9134 
G01 X70.9361 Y41.5138 
G01 X71.6084 Y41.0818 
G01 X72.2593 Y40.6183 
G01 X72.8874 Y40.1243 
G01 X73.4913 Y39.6010 
G01 X74.0696 Y39.0496 
G01 X74.6210 Y38.4713 
G01 X75.1443 Y37.8674 
G01 X75.6383 Y37.2393 
G01 X76.1018 Y36.5884 
G01 X76.5338 Y35.9161 
G01 X76.9334 Y35.2241 
G01 X77.2995 Y34.5139 
G01 X77.6315 Y33.7870 
G01 X77.9284 Y33.0452 
G01 X78.1898 Y32.2900 
G01 X78.4149 Y31.5233 
G01 X78.6033 Y30.7468 
G01 X78.7545 Y29.9621 
G01 X78.8683 Y29.1712 
G01 X78.9442 Y28.3757 
G01 X78.9822 Y27.5775 
G01 X78.9870 Y27.1780 
G01 X78.9823 Y26.7860 
G01 X78.9450 Y26.0029 
G01 X78.8705 Y25.2225 
G01 X78.7589 Y24.4465 
G01 X78.6106 Y23.6767 
G01 X78.4257 Y22.9149 
G01 X78.2049 Y22.1626 
G01 X77.9485 Y21.4218 
G01 X77.6571 Y20.6940 
G01 X77.3314 Y19.9809 
G01 X76.9722 Y19.2840 
G01 X76.5802 Y18.6051 
G01 X76.1564 Y17.9456 
G01 X75.7016 Y17.3070 
G01 X75.2170 Y16.6908 
G01 X74.7036 Y16.0983 
G01 X74.1626 Y15.5309 
G01 X73.5952 Y14.9899 
G01 X73.0027 Y14.4765 
G01 X72.3865 Y13.9919 
G01 X71.7479 Y13.5371 
G01 X71.0884 Y13.1133 
G01 X70.4094 Y12.7213 
G01 X69.7126 Y12.3621 
G01 X68.9995 Y12.0364 
G01 X68.2717 Y11.7450 
G01 X67.5308 Y11.4886 
G01 X66.7786 Y11.2678 
G01 X66.0168 Y11.0829 
G01 X65.2470 Y10.9346 
G01 X64.4710 Y10.8230 
G01 X63.6906 Y10.7485 
G01 X62.9075 Y10.7112 
G01 X62.1235 Y10.7112 
G01 X61.3404 Y10.7485 
G01 X60.5600 Y10.8230 
G01 X59.7840 Y10.9346 
G01 X59.0142 Y11.0829 
G01 X58.2524 Y11.2678 
G01 X57.5001 Y11.4886 
G01 X56.7593 Y11.7450 
G01 X56.0315 Y12.0364 
G01 X55.3184 Y12.3621 
G01 X54.6215 Y12.7213 
G01 X53.9426 Y13.1133 
G01 X53.2831 Y13.5371 
G01 X52.6445 Y13.9919 
G01 X52.0283 Y14.4765 
G01 X51.4358 Y14.9899 
G01 X50.8684 Y15.5309 
G01 X50.3274 Y16.0983 
G01 X49.8140 Y16.6908 
G01 X49.3294 Y17.3070 
G01 X48.8746 Y17.9456 
G01 X48.4508 Y18.6051 
G01 X48.0588 Y19.2841 
G01 X47.6996 Y19.9809 
G01 X47.3739 Y20.6940 
G01 X47.0825 Y21.4218 
G01 X46.8261 Y22.1626 
G01 X46.6053 Y22.9149 
G01 X46.4204 Y23.6767 
G01 X46.2721 Y24.4465 
G01 X46.1605 Y25.2225 
G01 X46.0860 Y26.0029 
G01 X46.0487 Y26.7860 
G01 X46.0440 Y27.1780 
G01 X46.0487 Y27.5683 
G01 X46.0864 Y28.3481 
G01 X46.1618 Y29.1252 
G01 X46.2746 Y29.8976 
G01 X46.4246 Y30.6638 
G01 X46.6114 Y31.4218 
G01 X46.8346 Y32.1699 
G01 X47.0937 Y32.9063 
G01 X47.3881 Y33.6293 
G01 X47.7171 Y34.3373 
G01 X48.0799 Y35.0286 
G01 X48.4757 Y35.7015 
G01 X48.9035 Y36.3545 
G01 X49.3624 Y36.9861 
G01 X49.8512 Y37.5948 
G01 X50.3689 Y38.1791 
G01 X50.9142 Y38.7378 
G01 X51.4859 Y39.2694 
G01 X52.0826 Y39.7729 
G01 X52.7029 Y40.2469 
G01 X53.3454 Y40.6903 
G01 X54.0086 Y41.1023 
G01 X54.6909 Y41.4817 
G01 X55.3907 Y41.8276 
G01 X56.1064 Y42.1394 
G01 X56.8364 Y42.4163 
G01 X57.5788 Y42.6575 
G01 X58.3321 Y42.8626 
G01 X59.0944 Y43.0311 
G01 X59.8639 Y43.1625 
G01 X60.6389 Y43.2566 
G01 X61.4175 Y43.3131 
G01 X62.1980 Y43.3320 
G01 X62.9785 Y43.3131 
G01 X63.7571 Y43.2566 
G01 X64.5321 Y43.1625 
G01 X65.3016 Y43.0311 
G01 X66.0639 Y42.8626 
G01 X66.8172 Y42.6575 
G01 X67.5596 Y42.4163 
G01 X68.2896 Y42.1394 
G01 X69.0053 Y41.8276 
G01 X69.7051 Y41.4817 
G01 X70.3874 Y41.1023 
G01 X71.0506 Y40.6903 
G01 X71.6931 Y40.2469 
G01 X72.3134 Y39.7729 
G01 X72.9101 Y39.2694 
G01 X73.4818 Y38.7378 
G01 X74.0271 Y38.1791 
G01 X74.5448 Y37.5948 
G01 X75.0336 Y36.9861 
G01 X75.4925 Y36.3545 
G01 X75.9203 Y35.7015 
G01 X76.3161 Y35.0286 
G01 X76.6789 Y34.3373 
G01 X77.0079 Y33.6293 
G01 X77.3023 Y32.9063 
G01 X77.5614 Y32.1699 
G01 X77.7846 Y31.4218 
G01 X77.9714 Y30.6638 
G01 X78.1214 Y29.8976 
G01 X78.2342 Y29.1251 
G01 X78.3096 Y28.3481 
G01 X78.3473 Y27.5683 
G01 X78.3520 Y27.1781 
G01 X78.3472 Y26.7894 
G01 X78.3091 Y26.0130 
G01 X78.2329 Y25.2394 
G01 X78.1189 Y24.4706 
G01 X77.9672 Y23.7082 
G01 X77.7783 Y22.9542 
G01 X77.5527 Y22.2104 
G01 X77.2908 Y21.4785 
G01 X76.9934 Y20.7604 
G01 X76.6610 Y20.0577 
G01 X76.2946 Y19.3722 
G01 X75.8950 Y18.7055 
G01 X75.4632 Y18.0592 
G01 X75.0001 Y17.4349 
G01 X74.5070 Y16.8340 
G01 X73.9850 Y16.2581 
G01 X73.4354 Y15.7085 
G01 X72.8595 Y15.1865 
G01 X72.2586 Y14.6934 
G01 X71.6343 Y14.2303 
G01 X70.9880 Y13.7985 
G01 X70.3213 Y13.3989 
G01 X69.6358 Y13.0325 
G01 X68.9331 Y12.7001 
G01 X68.2150 Y12.4027 
G01 X67.4831 Y12.1408 
G01 X66.7393 Y11.9152 
G01 X65.9853 Y11.7263 
G01 X65.2229 Y11.5746 
G01 X64.4541 Y11.4606 
G01 X63.6805 Y11.3844 
G01 X62.9041 Y11.3463 
G01 X62.1269 Y11.3463 
G01 X61.3505 Y11.3844 
G01 X60.5769 Y11.4606 
G01 X59.8081 Y11.5746 
G01 X59.0457 Y11.7263 
G01 X58.2917 Y11.9152 
G01 X57.5479 Y12.1408 
G01 X56.8160 Y12.4027 
G01 X56.0979 Y12.7001 
G01 X55.3952 Y13.0325 
G01 X54.7097 Y13.3989 
G01 X54.0430 Y13.7985 
G01 X53.3967 Y14.2303 
G01 X52.7724 Y14.6934 
G01 X52.1715 Y15.1865 
G01 X51.5956 Y15.7085 
G01 X51.0460 Y16.2581 
G01 X50.5240 Y16.8340 
G01 X50.0309 Y17.4349 
G01 X49.5678 Y18.0592 
G01 X49.1360 Y18.7055 
G01 X48.7364 Y19.3722 
G01 X48.3700 Y20.0577 
G01 X48.0376 Y20.7604 
G01 X47.7402 Y21.4785 
G01 X47.4783 Y22.2104 
G01 X47.2527 Y22.9542 
G01 X47.0638 Y23.7082 
G01 X46.9121 Y24.4706 
G01 X46.7981 Y25.2394 
G01 X46.7219 Y26.0130 
G01 X46.6838 Y26.7894 
G01 X46.6790 Y27.1780 
G01 X46.6837 Y27.5589 
G01 X46.7210 Y28.3197 
G01 X46.7957 Y29.0778 
G01 X46.9075 Y29.8312 
G01 X47.0561 Y30.5783 
G01 X47.2412 Y31.3173 
G01 X47.4623 Y32.0462 
G01 X47.7189 Y32.7634 
G01 X48.0104 Y33.4671 
G01 X48.3361 Y34.1557 
G01 X48.6952 Y34.8275 
G01 X49.0868 Y35.4809 
G01 X49.5100 Y36.1143 
G01 X49.9638 Y36.7261 
G01 X50.4470 Y37.3149 
G01 X50.9585 Y37.8793 
G01 X51.4972 Y38.4180 
G01 X52.0616 Y38.9295 
G01 X52.6504 Y39.4127 
G01 X53.2622 Y39.8665 
G01 X53.8956 Y40.2897 
G01 X54.5490 Y40.6813 
G01 X55.2208 Y41.0404 
G01 X55.9094 Y41.3661 
G01 X56.6131 Y41.6576 
G01 X57.3303 Y41.9142 
G01 X58.0593 Y42.1353 
G01 X58.7982 Y42.3204 
G01 X59.5453 Y42.4690 
G01 X60.2987 Y42.5808 
G01 X61.0568 Y42.6555 
G01 X61.8176 Y42.6928 
G01 X62.5794 Y42.6928 
G01 X63.3402 Y42.6555 
G01 X64.0983 Y42.5808 
G01 X64.8517 Y42.4690 
G01 X65.5988 Y42.3204 
G01 X66.3377 Y42.1353 
G01 X67.0667 Y41.9142 
G01 X67.7839 Y41.6576 
G01 X68.4876 Y41.3661 
G01 X69.1762 Y41.0404 
G01 X69.8480 Y40.6813 
G01 X70.5014 Y40.2897 
G01 X71.1348 Y39.8665 
G01 X71.7466 Y39.4127 
G01 X72.3354 Y38.9295 
G01 X72.8998 Y38.4180 
G01 X73.4385 Y37.8793 
G01 X73.9500 Y37.3149 
G01 X74.4332 Y36.7261 
G01 X74.8870 Y36.1143 
G01 X75.3102 Y35.4809 
G01 X75.7018 Y34.8275 
G01 X76.0609 Y34.1557 
G01 X76.3866 Y33.4671 
G01 X76.6781 Y32.7634 
G01 X76.9347 Y32.0462 
G01 X77.1558 Y31.3172 
G01 X77.3409 Y30.5783 
G01 X77.4895 Y29.8312 
G01 X77.6013 Y29.0778 
G01 X77.6760 Y28.3197 
G01 X77.7133 Y27.5589 
G01 X77.7180 Y27.1780 
G01 X77.7133 Y26.7990 
G01 X77.6755 Y26.0419 
G01 X77.6000 Y25.2877 
G01 X77.4870 Y24.5382 
G01 X77.3369 Y23.7952 
G01 X77.1498 Y23.0607 
G01 X76.9264 Y22.3364 
G01 X76.6671 Y21.6241 
G01 X76.3727 Y20.9256 
G01 X76.0438 Y20.2427 
G01 X75.6813 Y19.5770 
G01 X75.2861 Y18.9302 
G01 X74.8591 Y18.3039 
G01 X74.4014 Y17.6997 
G01 X73.9142 Y17.1191 
G01 X73.3986 Y16.5634 
G01 X72.8560 Y16.0341 
G01 X72.2877 Y15.5326 
G01 X71.6950 Y15.0600 
G01 X71.0796 Y14.6175 
G01 X70.4429 Y14.2063 
G01 X69.7864 Y13.8273 
G01 X69.1119 Y13.4815 
G01 X68.4210 Y13.1697 
G01 X67.7154 Y12.8928 
G01 X66.9969 Y12.6514 
G01 X66.2672 Y12.4461 
G01 X65.5282 Y12.2774 
G01 X64.7817 Y12.1458 
G01 X64.0296 Y12.0515 
G01 X63.2738 Y11.9949 
G01 X62.5160 Y11.9760 
G01 X61.7582 Y11.9949 
G01 X61.0024 Y12.0515 
G01 X60.2503 Y12.1458 
G01 X59.5038 Y12.2774 
G01 X58.7648 Y12.4461 
G01 X58.0351 Y12.6514 
G01 X57.3166 Y12.8928 
G01 X56.6110 Y13.1697 
G01 X55.9201 Y13.4815 
G01 X55.2456 Y13.8273 
G01 X54.5891 Y14.2063 
G01 X53.9524 Y14.6175 
G01 X53.3370 Y15.0600 
G01 X52.7443 Y15.5326 
G01 X52.1760 Y16.0341 
G01 X51.6334 Y16.5634 
G01 X51.1178 Y17.1191 
G01 X50.6306 Y17.6997 
G01 X50.1729 Y18.3039 
G01 X49.7459 Y18.9302 
G01 X49.3507 Y19.5770 
G01 X48.9882 Y20.2427 
G01 X48.6593 Y20.9256 
G01 X48.3649 Y21.6241 
G01 X48.1056 Y22.3364 
G01 X47.8822 Y23.0607 
G01 X47.6951 Y23.7952 
G01 X47.5450 Y24.5382 
G01 X47.4320 Y25.2877 
G01 X47.3565 Y26.0420 
G01 X47.3187 Y26.7990 
G01 X47.3140 Y27.1780 
G01 X47.3188 Y27.5551 
G01 X47.3570 Y28.3082 
G01 X47.4333 Y29.0584 
G01 X47.5475 Y29.8038 
G01 X47.6993 Y30.5425 
G01 X47.8883 Y31.2725 
G01 X48.1140 Y31.9921 
G01 X48.3759 Y32.6992 
G01 X48.6733 Y33.3922 
G01 X49.0054 Y34.0692 
G01 X49.3714 Y34.7286 
G01 X49.7703 Y35.3686 
G01 X50.2011 Y35.9875 
G01 X50.6627 Y36.5838 
G01 X51.1539 Y37.1560 
G01 X51.6734 Y37.7026 
G01 X52.2200 Y38.2221 
G01 X52.7922 Y38.7133 
G01 X53.3885 Y39.1749 
G01 X54.0074 Y39.6057 
G01 X54.6474 Y40.0046 
G01 X55.3068 Y40.3706 
G01 X55.9838 Y40.7027 
G01 X56.6768 Y41.0001 
G01 X57.3839 Y41.2620 
G01 X58.1035 Y41.4877 
G01 X58.8335 Y41.6767 
G01 X59.5722 Y41.8285 
G01 X60.3176 Y41.9427 
G01 X61.0678 Y42.0190 
G01 X61.8209 Y42.0572 
G01 X62.5751 Y42.0572 
G01 X63.3282 Y42.0190 
G01 X64.0784 Y41.9427 
G01 X64.8238 Y41.8285 
G01 X65.5625 Y41.6767 
G01 X66.2925 Y41.4877 
G01 X67.0121 Y41.2620 
G01 X67.7192 Y41.0001 
G01 X68.4122 Y40.7027 
G01 X69.0892 Y40.3706 
G01 X69.7486 Y40.0046 
G01 X70.3886 Y39.6057 
G01 X71.0075 Y39.1749 
G01 X71.6038 Y38.7133 
G01 X72.1760 Y38.2221 
G01 X72.7226 Y37.7026 
G01 X73.2421 Y37.1560 
G01 X73.7333 Y36.5838 
G01 X74.1949 Y35.9875 
G01 X74.6257 Y35.3686 
G01 X75.0246 Y34.7286 
G01 X75.3906 Y34.0692 
G01 X75.7227 Y33.3922 
G01 X76.0201 Y32.6992 
G01 X76.2820 Y31.9921 
G01 X76.5077 Y31.2725 
G01 X76.6967 Y30.5425 
G01 X76.8485 Y29.8038 
G01 X76.9627 Y29.0584 
G01 X77.0390 Y28.3082 
G01 X77.0772 Y27.5551 
G01 X77.0820 Y27.1780 
G01 X77.0773 Y26.8090 
G01 X77.0399 Y26.0719 
G01 X76.9653 Y25.3377 
G01 X76.8535 Y24.6082 
G01 X76.7050 Y23.8853 
G01 X76.5200 Y23.1708 
G01 X76.2990 Y22.4666 
G01 X76.0427 Y21.7746 
G01 X75.7517 Y21.0964 
G01 X75.4267 Y20.4338 
G01 X75.0685 Y19.7885 
G01 X74.6781 Y19.1622 
G01 X74.2565 Y18.5564 
G01 X73.8048 Y17.9728 
G01 X73.3240 Y17.4128 
G01 X72.8156 Y16.8779 
G01 X72.2807 Y16.3695 
G01 X71.7207 Y15.8887 
G01 X71.1371 Y15.4370 
G01 X70.5313 Y15.0154 
G01 X69.9050 Y14.6250 
G01 X69.2597 Y14.2668 
G01 X68.5971 Y13.9418 
G01 X67.9189 Y13.6508 
G01 X67.2269 Y13.3945 
G01 X66.5227 Y13.1735 
G01 X65.8082 Y12.9885 
G01 X65.0853 Y12.8400 
G01 X64.3558 Y12.7282 
G01 X63.6216 Y12.6536 
G01 X62.8845 Y12.6162 
G01 X62.1465 Y12.6162 
G01 X61.4094 Y12.6536 
G01 X60.6752 Y12.7282 
G01 X59.9457 Y12.8400 
G01 X59.2228 Y12.9885 
G01 X58.5083 Y13.1735 
G01 X57.8041 Y13.3945 
G01 X57.1121 Y13.6508 
G01 X56.4338 Y13.9418 
G01 X55.7713 Y14.2668 
G01 X55.1260 Y14.6250 
G01 X54.4997 Y15.0154 
G01 X53.8939 Y15.4370 
G01 X53.3103 Y15.8887 
G01 X52.7503 Y16.3695 
G01 X52.2154 Y16.8779 
G01 X51.7070 Y17.4128 
G01 X51.2262 Y17.9728 
G01 X50.7745 Y18.5564 
G01 X50.3529 Y19.1622 
G01 X49.9625 Y19.7885 
G01 X49.6043 Y20.4338 
G01 X49.2793 Y21.0964 
G01 X48.9883 Y21.7746 
G01 X48.7320 Y22.4666 
G01 X48.5110 Y23.1708 
G01 X48.3260 Y23.8853 
G01 X48.1775 Y24.6082 
G01 X48.0657 Y25.3377 
G01 X47.9911 Y26.0719 
G01 X47.9537 Y26.8090 
G01 X47.9490 Y27.1780 
G01 X47.9537 Y27.5449 
G01 X47.9915 Y28.2777 
G01 X48.0669 Y29.0076 
G01 X48.1799 Y29.7326 
G01 X48.3300 Y30.4508 
G01 X48.5168 Y31.1604 
G01 X48.7400 Y31.8594 
G01 X48.9988 Y32.5460 
G01 X49.2926 Y33.2184 
G01 X49.6207 Y33.8747 
G01 X49.9821 Y34.5133 
G01 X50.3759 Y35.1324 
G01 X50.8011 Y35.7305 
G01 X51.2565 Y36.3058 
G01 X51.7409 Y36.8570 
G01 X52.2530 Y37.3825 
G01 X52.7915 Y37.8809 
G01 X53.3549 Y38.3509 
G01 X53.9418 Y38.7913 
G01 X54.5506 Y39.2010 
G01 X55.1797 Y39.5787 
G01 X55.8274 Y39.9235 
G01 X56.4919 Y40.2346 
G01 X57.1716 Y40.5110 
G01 X57.8647 Y40.7521 
G01 X58.5692 Y40.9572 
G01 X59.2833 Y41.1257 
G01 X60.0052 Y41.2573 
G01 X60.7329 Y41.3515 
G01 X61.4645 Y41.4081 
G01 X62.1980 Y41.4270 
G01 X62.9315 Y41.4081 
G01 X63.6631 Y41.3515 
G01 X64.3908 Y41.2573 
G01 X65.1127 Y41.1257 
G01 X65.8268 Y40.9572 
G01 X66.5313 Y40.7521 
G01 X67.2244 Y40.5110 
G01 X67.9041 Y40.2346 
G01 X68.5686 Y39.9235 
G01 X69.2163 Y39.5787 
G01 X69.8454 Y39.2010 
G01 X70.4542 Y38.7913 
G01 X71.0411 Y38.3509 
G01 X71.6045 Y37.8809 
G01 X72.1430 Y37.3825 
G01 X72.6551 Y36.8570 
G01 X73.1395 Y36.3058 
G01 X73.5949 Y35.7305 
G01 X74.0201 Y35.1324 
G01 X74.4139 Y34.5133 
G01 X74.7753 Y33.8747 
G01 X75.1034 Y33.2184 
G01 X75.3972 Y32.5460 
G01 X75.6560 Y31.8594 
G01 X75.8792 Y31.1604 
G01 X76.0660 Y30.4508 
G01 X76.2161 Y29.7326 
G01 X76.3291 Y29.0075 
G01 X76.4045 Y28.2777 
G01 X76.4423 Y27.5449 
G01 X76.4470 Y27.1780 
G01 X76.4422 Y26.8133 
G01 X76.4041 Y26.0849 
G01 X76.3278 Y25.3596 
G01 X76.2137 Y24.6392 
G01 X76.0621 Y23.9258 
G01 X75.8733 Y23.2212 
G01 X75.6479 Y22.5276 
G01 X75.3865 Y21.8466 
G01 X75.0899 Y21.1803 
G01 X74.7587 Y20.5305 
G01 X74.3941 Y19.8988 
G01 X73.9968 Y19.2871 
G01 X73.5681 Y18.6970 
G01 X73.1091 Y18.1302 
G01 X72.6211 Y17.5882 
G01 X72.1053 Y17.0724 
G01 X71.5633 Y16.5844 
G01 X70.9965 Y16.1254 
G01 X70.4064 Y15.6967 
G01 X69.7947 Y15.2994 
G01 X69.1630 Y14.9348 
G01 X68.5132 Y14.6036 
G01 X67.8469 Y14.3070 
G01 X67.1659 Y14.0456 
G01 X66.4723 Y13.8202 
G01 X65.7677 Y13.6314 
G01 X65.0543 Y13.4798 
G01 X64.3339 Y13.3657 
G01 X63.6086 Y13.2894 
G01 X62.8802 Y13.2513 
G01 X62.1508 Y13.2513 
G01 X61.4224 Y13.2894 
G01 X60.6971 Y13.3657 
G01 X59.9767 Y13.4798 
G01 X59.2633 Y13.6314 
G01 X58.5587 Y13.8202 
G01 X57.8651 Y14.0456 
G01 X57.1841 Y14.3070 
G01 X56.5178 Y14.6036 
G01 X55.8680 Y14.9348 
G01 X55.2363 Y15.2994 
G01 X54.6246 Y15.6967 
G01 X54.0345 Y16.1254 
G01 X53.4677 Y16.5844 
G01 X52.9257 Y17.0724 
G01 X52.4099 Y17.5882 
G01 X51.9219 Y18.1302 
G01 X51.4629 Y18.6970 
G01 X51.0342 Y19.2871 
G01 X50.6369 Y19.8988 
G01 X50.2723 Y20.5305 
G01 X49.9411 Y21.1803 
G01 X49.6445 Y21.8466 
G01 X49.3831 Y22.5276 
G01 X49.1577 Y23.2212 
G01 X48.9689 Y23.9258 
G01 X48.8173 Y24.6392 
G01 X48.7032 Y25.3596 
G01 X48.6269 Y26.0849 
G01 X48.5888 Y26.8133 
G01 X48.5840 Y27.1780 
G01 X48.5887 Y27.5344 
G01 X48.6260 Y28.2462 
G01 X48.7005 Y28.9550 
G01 X48.8120 Y29.6590 
G01 X48.9602 Y30.3562 
G01 X49.1446 Y31.0447 
G01 X49.3649 Y31.7226 
G01 X49.6203 Y32.3880 
G01 X49.9103 Y33.0392 
G01 X50.2338 Y33.6743 
G01 X50.5902 Y34.2916 
G01 X50.9784 Y34.8893 
G01 X51.3974 Y35.4660 
G01 X51.8460 Y36.0199 
G01 X52.3229 Y36.5496 
G01 X52.8269 Y37.0536 
G01 X53.3566 Y37.5305 
G01 X53.9105 Y37.9791 
G01 X54.4872 Y38.3981 
G01 X55.0849 Y38.7863 
G01 X55.7022 Y39.1427 
G01 X56.3373 Y39.4662 
G01 X56.9885 Y39.7562 
G01 X57.6539 Y40.0116 
G01 X58.3318 Y40.2319 
G01 X59.0203 Y40.4163 
G01 X59.7175 Y40.5645 
G01 X60.4215 Y40.6760 
G01 X61.1303 Y40.7505 
G01 X61.8421 Y40.7878 
G01 X62.5549 Y40.7878 
G01 X63.2667 Y40.7505 
G01 X63.9756 Y40.6760 
G01 X64.6795 Y40.5645 
G01 X65.3767 Y40.4163 
G01 X66.0652 Y40.2319 
G01 X66.7431 Y40.0116 
G01 X67.4085 Y39.7562 
G01 X68.0597 Y39.4662 
G01 X68.6948 Y39.1427 
G01 X69.3121 Y38.7863 
G01 X69.9098 Y38.3981 
G01 X70.4865 Y37.9791 
G01 X71.0404 Y37.5305 
G01 X71.5701 Y37.0536 
G01 X72.0741 Y36.5496 
G01 X72.5510 Y36.0199 
G01 X72.9996 Y35.4660 
G01 X73.4186 Y34.8893 
G01 X73.8068 Y34.2916 
G01 X74.1632 Y33.6743 
G01 X74.4867 Y33.0392 
G01 X74.7767 Y32.3880 
G01 X75.0321 Y31.7226 
G01 X75.2524 Y31.0447 
G01 X75.4368 Y30.3562 
G01 X75.5850 Y29.6590 
G01 X75.6965 Y28.9550 
G01 X75.7710 Y28.2462 
G01 X75.8083 Y27.5344 
G01 X75.8130 Y27.1780 
G01 X75.8083 Y26.8240 
G01 X75.7706 Y26.1171 
G01 X75.6954 Y25.4131 
G01 X75.5828 Y24.7142 
G01 X75.4331 Y24.0223 
G01 X75.2468 Y23.3393 
G01 X75.0245 Y22.6671 
G01 X74.7667 Y22.0078 
G01 X74.4742 Y21.3631 
G01 X74.1477 Y20.7349 
G01 X73.7883 Y20.1250 
G01 X73.3970 Y19.5350 
G01 X72.9748 Y18.9668 
G01 X72.5229 Y18.4218 
G01 X72.0427 Y17.9016 
G01 X71.5355 Y17.4077 
G01 X71.0027 Y16.9415 
G01 X70.4459 Y16.5043 
G01 X69.8666 Y16.0974 
G01 X69.2664 Y15.7219 
G01 X68.6471 Y15.3789 
G01 X68.0105 Y15.0693 
G01 X67.3582 Y14.7940 
G01 X66.6923 Y14.5539 
G01 X66.0145 Y14.3495 
G01 X65.3268 Y14.1815 
G01 X64.6311 Y14.0503 
G01 X63.9294 Y13.9563 
G01 X63.2237 Y13.8998 
G01 X62.5160 Y13.8810 
G01 X61.8083 Y13.8998 
G01 X61.1026 Y13.9563 
G01 X60.4009 Y14.0503 
G01 X59.7052 Y14.1815 
G01 X59.0175 Y14.3495 
G01 X58.3397 Y14.5539 
G01 X57.6738 Y14.7940 
G01 X57.0215 Y15.0693 
G01 X56.3849 Y15.3789 
G01 X55.7656 Y15.7219 
G01 X55.1654 Y16.0974 
G01 X54.5861 Y16.5043 
G01 X54.0293 Y16.9415 
G01 X53.4965 Y17.4077 
G01 X52.9893 Y17.9016 
G01 X52.5091 Y18.4218 
G01 X52.0572 Y18.9668 
G01 X51.6350 Y19.5351 
G01 X51.2437 Y20.1250 
G01 X50.8843 Y20.7349 
G01 X50.5578 Y21.3631 
G01 X50.2653 Y22.0078 
G01 X50.0075 Y22.6671 
G01 X49.7852 Y23.3393 
G01 X49.5989 Y24.0223 
G01 X49.4492 Y24.7142 
G01 X49.3366 Y25.4131 
G01 X49.2614 Y26.1171 
G01 X49.2237 Y26.8240 
G01 X49.2190 Y27.1780 
G01 X49.2238 Y27.5295 
G01 X49.2618 Y28.2314 
G01 X49.3378 Y28.9302 
G01 X49.4515 Y29.6238 
G01 X49.6026 Y30.3103 
G01 X49.7907 Y30.9876 
G01 X50.0151 Y31.6538 
G01 X50.2753 Y32.3068 
G01 X50.5705 Y32.9447 
G01 X50.8997 Y33.5658 
G01 X51.2621 Y34.1681 
G01 X51.6566 Y34.7499 
G01 X52.0820 Y35.3095 
G01 X52.5371 Y35.8452 
G01 X53.0205 Y36.3555 
G01 X53.5308 Y36.8389 
G01 X54.0665 Y37.2940 
G01 X54.6261 Y37.7194 
G01 X55.2079 Y38.1139 
G01 X55.8102 Y38.4763 
G01 X56.4313 Y38.8055 
G01 X57.0692 Y39.1007 
G01 X57.7222 Y39.3609 
G01 X58.3884 Y39.5853 
G01 X59.0657 Y39.7734 
G01 X59.7522 Y39.9245 
G01 X60.4458 Y40.0382 
G01 X61.1446 Y40.1142 
G01 X61.8465 Y40.1522 
G01 X62.5495 Y40.1522 
G01 X63.2514 Y40.1142 
G01 X63.9502 Y40.0382 
G01 X64.6438 Y39.9245 
G01 X65.3303 Y39.7734 
G01 X66.0076 Y39.5853 
G01 X66.6738 Y39.3609 
G01 X67.3268 Y39.1007 
G01 X67.9647 Y38.8055 
G01 X68.5858 Y38.4763 
G01 X69.1881 Y38.1139 
G01 X69.7699 Y37.7194 
G01 X70.3295 Y37.2940 
G01 X70.8652 Y36.8389 
G01 X71.3755 Y36.3555 
G01 X71.8589 Y35.8452 
G01 X72.3140 Y35.3095 
G01 X72.7394 Y34.7499 
G01 X73.1339 Y34.1681 
G01 X73.4963 Y33.5658 
G01 X73.8255 Y32.9447 
G01 X74.1207 Y32.3068 
G01 X74.3809 Y31.6538 
G01 X74.6053 Y30.9876 
G01 X74.7934 Y30.3103 
G01 X74.9445 Y29.6238 
G01 X75.0582 Y28.9302 
G01 X75.1342 Y28.2314 
G01 X75.1722 Y27.5295 
G01 X75.1770 Y27.1780 
G01 X75.1724 Y26.8351 
G01 X75.1352 Y26.1504 
G01 X75.0611 Y25.4687 
G01 X74.9502 Y24.7920 
G01 X74.8027 Y24.1223 
G01 X74.6193 Y23.4616 
G01 X74.4003 Y22.8117 
G01 X74.1465 Y22.1747 
G01 X73.8586 Y21.5523 
G01 X73.5374 Y20.9465 
G01 X73.1839 Y20.3589 
G01 X72.7990 Y19.7913 
G01 X72.3840 Y19.2454 
G01 X71.9401 Y18.7228 
G01 X71.4685 Y18.2250 
G01 X70.9707 Y17.7534 
G01 X70.4481 Y17.3095 
G01 X69.9022 Y16.8945 
G01 X69.3346 Y16.5096 
G01 X68.7470 Y16.1561 
G01 X68.1412 Y15.8349 
G01 X67.5188 Y15.5470 
G01 X66.8818 Y15.2932 
G01 X66.2319 Y15.0742 
G01 X65.5712 Y14.8908 
G01 X64.9015 Y14.7433 
G01 X64.2248 Y14.6324 
G01 X63.5431 Y14.5583 
G01 X62.8584 Y14.5211 
G01 X62.1726 Y14.5211 
G01 X61.4879 Y14.5583 
G01 X60.8062 Y14.6324 
G01 X60.1295 Y14.7433 
G01 X59.4598 Y14.8908 
G01 X58.7991 Y15.0742 
G01 X58.1492 Y15.2932 
G01 X57.5122 Y15.5470 
G01 X56.8898 Y15.8349 
G01 X56.2840 Y16.1561 
G01 X55.6964 Y16.5096 
G01 X55.1288 Y16.8945 
G01 X54.5829 Y17.3095 
G01 X54.0603 Y17.7534 
G01 X53.5625 Y18.2250 
G01 X53.0909 Y18.7228 
G01 X52.6470 Y19.2454 
G01 X52.2320 Y19.7913 
G01 X51.8471 Y20.3589 
G01 X51.4936 Y20.9465 
G01 X51.1724 Y21.5523 
G01 X50.8845 Y22.1747 
G01 X50.6307 Y22.8117 
G01 X50.4117 Y23.4616 
G01 X50.2283 Y24.1223 
G01 X50.0808 Y24.7920 
G01 X49.9699 Y25.4687 
G01 X49.8958 Y26.1504 
G01 X49.8586 Y26.8351 
G01 X49.8540 Y27.1780 
G01 X49.8587 Y27.5181 
G01 X49.8962 Y28.1974 
G01 X49.9710 Y28.8735 
G01 X50.0830 Y29.5445 
G01 X50.2317 Y30.2083 
G01 X50.4168 Y30.8629 
G01 X50.6377 Y31.5063 
G01 X50.8937 Y32.1365 
G01 X51.1840 Y32.7517 
G01 X51.5078 Y33.3500 
G01 X51.8640 Y33.9295 
G01 X52.2516 Y34.4886 
G01 X52.6695 Y35.0254 
G01 X53.1162 Y35.5384 
G01 X53.5906 Y36.0260 
G01 X54.0911 Y36.4867 
G01 X54.6162 Y36.9192 
G01 X55.1643 Y37.3220 
G01 X55.7338 Y37.6941 
G01 X56.3229 Y38.0342 
G01 X56.9299 Y38.3414 
G01 X57.5528 Y38.6146 
G01 X58.1899 Y38.8532 
G01 X58.8392 Y39.0562 
G01 X59.4986 Y39.2232 
G01 X60.1662 Y39.3536 
G01 X60.8401 Y39.4471 
G01 X61.5180 Y39.5033 
G01 X62.1980 Y39.5220 
G01 X62.8780 Y39.5033 
G01 X63.5559 Y39.4471 
G01 X64.2298 Y39.3536 
G01 X64.8974 Y39.2232 
G01 X65.5568 Y39.0562 
G01 X66.2061 Y38.8532 
G01 X66.8432 Y38.6146 
G01 X67.4661 Y38.3414 
G01 X68.0731 Y38.0342 
G01 X68.6622 Y37.6941 
G01 X69.2317 Y37.3220 
G01 X69.7798 Y36.9192 
G01 X70.3050 Y36.4867 
G01 X70.8054 Y36.0260 
G01 X71.2798 Y35.5384 
G01 X71.7265 Y35.0254 
G01 X72.1444 Y34.4886 
G01 X72.5320 Y33.9295 
G01 X72.8882 Y33.3500 
G01 X73.2120 Y32.7517 
G01 X73.5023 Y32.1365 
G01 X73.7583 Y31.5063 
G01 X73.9792 Y30.8629 
G01 X74.1643 Y30.2083 
G01 X74.3130 Y29.5445 
G01 X74.4250 Y28.8735 
G01 X74.4998 Y28.1974 
G01 X74.5373 Y27.5181 
G01 X74.5420 Y27.1780 
G01 X74.5373 Y26.8407 
G01 X74.4994 Y26.1672 
G01 X74.4239 Y25.4968 
G01 X74.3109 Y24.8317 
G01 X74.1608 Y24.1741 
G01 X73.9741 Y23.5258 
G01 X73.7512 Y22.8891 
G01 X73.4931 Y22.2658 
G01 X73.2004 Y21.6580 
G01 X72.8741 Y21.0676 
G01 X72.5152 Y20.4964 
G01 X72.1248 Y19.9463 
G01 X71.7042 Y19.4188 
G01 X71.2547 Y18.9158 
G01 X70.7777 Y18.4388 
G01 X70.2747 Y17.9893 
G01 X69.7472 Y17.5687 
G01 X69.1971 Y17.1783 
G01 X68.6259 Y16.8194 
G01 X68.0354 Y16.4931 
G01 X67.4277 Y16.2004 
G01 X66.8044 Y15.9423 
G01 X66.1677 Y15.7194 
G01 X65.5194 Y15.5327 
G01 X64.8618 Y15.3826 
G01 X64.1967 Y15.2696 
G01 X63.5263 Y15.1941 
G01 X62.8528 Y15.1562 
G01 X62.1782 Y15.1562 
G01 X61.5047 Y15.1941 
G01 X60.8343 Y15.2696 
G01 X60.1692 Y15.3826 
G01 X59.5116 Y15.5327 
G01 X58.8633 Y15.7194 
G01 X58.2266 Y15.9423 
G01 X57.6033 Y16.2004 
G01 X56.9956 Y16.4931 
G01 X56.4051 Y16.8194 
G01 X55.8339 Y17.1783 
G01 X55.2838 Y17.5687 
G01 X54.7563 Y17.9893 
G01 X54.2533 Y18.4388 
G01 X53.7763 Y18.9158 
G01 X53.3268 Y19.4188 
G01 X52.9062 Y19.9463 
G01 X52.5158 Y20.4964 
G01 X52.1569 Y21.0676 
G01 X51.8306 Y21.6581 
G01 X51.5379 Y22.2658 
G01 X51.2798 Y22.8891 
G01 X51.0569 Y23.5258 
G01 X50.8702 Y24.1741 
G01 X50.7201 Y24.8317 
G01 X50.6071 Y25.4968 
G01 X50.5316 Y26.1672 
G01 X50.4937 Y26.8407 
G01 X50.4890 Y27.1780 
G01 X50.4937 Y27.5078 
G01 X50.5314 Y28.1664 
G01 X50.6066 Y28.8218 
G01 X50.7191 Y29.4718 
G01 X50.8685 Y30.1144 
G01 X51.0543 Y30.7473 
G01 X51.2760 Y31.3686 
G01 X51.5328 Y31.9763 
G01 X51.8239 Y32.5682 
G01 X52.1482 Y33.1427 
G01 X52.5049 Y33.6976 
G01 X52.8926 Y34.2313 
G01 X53.3102 Y34.7420 
G01 X53.7563 Y35.2280 
G01 X54.2293 Y35.6877 
G01 X54.7279 Y36.1197 
G01 X55.2503 Y36.5226 
G01 X55.7948 Y36.8949 
G01 X56.3597 Y37.2356 
G01 X56.9432 Y37.5434 
G01 X57.5432 Y37.8174 
G01 X58.1580 Y38.0568 
G01 X58.7853 Y38.2606 
G01 X59.4233 Y38.4283 
G01 X60.0699 Y38.5593 
G01 X60.7228 Y38.6532 
G01 X61.3801 Y38.7097 
G01 X62.0395 Y38.7285 
G01 X62.6989 Y38.7097 
G01 X63.3562 Y38.6532 
G01 X64.0091 Y38.5593 
G01 X64.6557 Y38.4283 
G01 X65.2937 Y38.2606 
G01 X65.9210 Y38.0568 
G01 X66.5358 Y37.8174 
G01 X67.1358 Y37.5434 
G01 X67.7193 Y37.2356 
G01 X68.2842 Y36.8949 
G01 X68.8287 Y36.5226 
G01 X69.3511 Y36.1197 
G01 X69.8497 Y35.6877 
G01 X70.3227 Y35.2280 
G01 X70.7688 Y34.7420 
G01 X71.1864 Y34.2313 
G01 X71.5741 Y33.6976 
G01 X71.9308 Y33.1426 
G01 X72.2551 Y32.5682 
G01 X72.5462 Y31.9763 
G01 X72.8030 Y31.3686 
G01 X73.0247 Y30.7473 
G01 X73.2105 Y30.1143 
G01 X73.3599 Y29.4718 
G01 X73.4724 Y28.8218 
G01 X73.5476 Y28.1664 
G01 X73.5795 Y27.6083 
G01 X73.4945 Y27.5592 
G01 X73.4058 Y27.4705 
G01 X73.3431 Y27.3619 
G01 X73.3106 Y27.2407 
G01 X73.3106 Y27.1153 
G01 X73.3431 Y26.9941 
G01 X73.4058 Y26.8855 
G01 X73.4945 Y26.7968 
G01 X73.6031 Y26.7341 
G01 X73.7243 Y26.7016 
G01 X73.8497 Y26.7016 
G01 X73.9709 Y26.7341 
G01 X74.0795 Y26.7968 
G01 X74.1682 Y26.8855 
G01 X74.2309 Y26.9941 
G01 X74.2634 Y27.1153 
G01 X74.2634 Y27.2407 
G01 X74.2309 Y27.3619 
G01 X74.1682 Y27.4705 
G01 X74.0795 Y27.5592 
G01 X73.9784 Y27.6176 
G01 X73.9450 Y28.2006 
G01 X73.8672 Y28.8786 
G01 X73.7509 Y29.5510 
G01 X73.5963 Y30.2157 
G01 X73.4040 Y30.8706 
G01 X73.1747 Y31.5133 
G01 X72.9090 Y32.1419 
G01 X72.6079 Y32.7544 
G01 X72.2723 Y33.3486 
G01 X71.9034 Y33.9227 
G01 X71.5022 Y34.4749 
G01 X71.0702 Y35.0032 
G01 X70.6088 Y35.5060 
G01 X70.1194 Y35.9816 
G01 X69.6036 Y36.4285 
G01 X69.0632 Y36.8452 
G01 X68.4998 Y37.2305 
G01 X67.9154 Y37.5829 
G01 X67.3118 Y37.9013 
G01 X66.6910 Y38.1848 
G01 X66.0551 Y38.4324 
G01 X65.4060 Y38.6433 
G01 X64.7460 Y38.8168 
G01 X64.0771 Y38.9524 
G01 X63.4016 Y39.0495 
G01 X62.7217 Y39.1079 
G01 X62.0395 Y39.1274 
G01 X61.3573 Y39.1079 
G01 X60.6774 Y39.0495 
G01 X60.0019 Y38.9524 
G01 X59.3330 Y38.8168 
G01 X58.6730 Y38.6433 
G01 X58.0239 Y38.4324 
G01 X57.3880 Y38.1848 
G01 X56.7672 Y37.9013 
G01 X56.1636 Y37.5829 
G01 X55.5792 Y37.2305 
G01 X55.0158 Y36.8452 
G01 X54.4754 Y36.4285 
G01 X53.9596 Y35.9816 
