(/opt/eagle-G/pcb-gcode.ulp)
(Copyright 2005 - 2012 by John Johnson)
(See readme.txt for licensing terms.)
(This file generated from the board:)
(.../metal detektor/metal detector proto1.brd)
(Current profile is /opt/eagle-G/profiles/mach.pp  )
(This file generated 29. 10. 19 20:06)
(Settings from pcb-machine.h)
(  Tool Size)
(0.1000  )
(Z Axis Settings)
(  High     Up        Down     Drill)
(50.0000 	5.0000  	-0.2000 	-2.0000 )
(spindle on time = 1.0000)
(milling depth = -0.2500)
(text depth = -0.1200)
(tool change at 0.0000  150.0000 100.0000 )
(feed rate xy = F200   )
(feed rate z  = F250   )
(Settings from pcb-defaults.h)
(isolate min = 0.0200)
(isolate max = 0.5080)
(isolate step = 0.1270)
(Generated top outlines, top drill, bottom outlines, bottom drill, )
(Unit of measure: mm)
(Metric Mode)
G21
(Absolute Coordinates)
G90
G00 X0.0000  Y0.0000  
M03
G04 P1.000000
G00 Z5.0000  
G00 X-8.9197 Y42.0162 
G01 Z-0.2000 F250   
G01 X-9.2300 Y42.1448 F200   
G01 X-9.5660 Y42.1448 
G01 X-9.8763 Y42.0162 
G01 X-10.1138 Y41.7787 
G01 X-10.2424 Y41.4684 
G01 X-10.2424 Y39.8116 
G01 X-10.1138 Y39.5013 
G01 X-9.8763 Y39.2637 
G01 X-9.5660 Y39.1352 
G01 X-9.2300 Y39.1352 
G01 X-8.9197 Y39.2637 
G01 X-8.6821 Y39.5013 
G01 X-8.5536 Y39.8116 
G01 X-8.5536 Y41.4684 
G01 X-8.6821 Y41.7787 
G01 X-8.9197 Y42.0162 
G00 Z5.0000  
G00 X-8.6676 Y41.3723 
G01 Z-0.2000 F250   
G01 X-8.6676 Y39.9077 F200   
G01 X-8.6957 Y39.7665 
G01 X-8.7507 Y39.6336 
G01 X-8.8307 Y39.5140 
G01 X-8.9324 Y39.4123 
G01 X-9.0520 Y39.3323 
G01 X-9.1849 Y39.2773 
G01 X-9.3261 Y39.2492 
G01 X-9.4699 Y39.2492 
G01 X-9.6111 Y39.2773 
G01 X-9.7440 Y39.3323 
G01 X-9.8636 Y39.4123 
G01 X-9.9653 Y39.5140 
G01 X-10.0453 Y39.6336 
G01 X-10.1003 Y39.7665 
G01 X-10.1284 Y39.9077 
G01 X-10.1284 Y41.3723 
G01 X-10.1003 Y41.5134 
G01 X-10.0453 Y41.6464 
G01 X-9.9653 Y41.7660 
G01 X-9.8636 Y41.8677 
G01 X-9.7440 Y41.9477 
G01 X-9.6111 Y42.0027 
G01 X-9.4699 Y42.0308 
G01 X-9.3261 Y42.0308 
G01 X-9.1849 Y42.0027 
G01 X-9.0520 Y41.9477 
G01 X-8.9324 Y41.8677 
G01 X-8.8307 Y41.7660 
G01 X-8.7507 Y41.6464 
G01 X-8.6957 Y41.5134 
G01 X-8.6676 Y41.3723 
G00 Z5.0000  
G00 X-7.0207 Y26.1742 
G01 Z-0.2000 F250   
G01 X-6.5855 Y25.9940 F200   
G01 X-6.1145 Y25.9940 
G01 X-5.6793 Y26.1742 
G01 X-5.3462 Y26.5073 
G01 X-5.1660 Y26.9425 
G01 X-5.1660 Y27.4135 
G01 X-5.3462 Y27.8487 
G01 X-5.6793 Y28.1817 
G01 X-6.1145 Y28.3620 
G01 X-6.5855 Y28.3620 
G01 X-7.0207 Y28.1817 
G01 X-7.3537 Y27.8487 
G01 X-7.5340 Y27.4135 
G01 X-7.5340 Y26.9425 
G01 X-7.3537 Y26.5073 
G01 X-7.0207 Y26.1742 
G00 Z5.0000  
G00 X-7.4200 Y27.0938 
G01 Z-0.2000 F250   
G01 X-7.4200 Y27.2622 F200   
G01 X-7.3937 Y27.4286 
G01 X-7.3416 Y27.5887 
G01 X-7.2651 Y27.7388 
G01 X-7.1661 Y27.8751 
G01 X-7.0471 Y27.9941 
G01 X-6.9108 Y28.0931 
G01 X-6.7607 Y28.1696 
G01 X-6.6006 Y28.2217 
G01 X-6.4342 Y28.2480 
G01 X-6.2658 Y28.2480 
G01 X-6.0994 Y28.2217 
G01 X-5.9393 Y28.1696 
G01 X-5.7892 Y28.0931 
G01 X-5.6529 Y27.9941 
G01 X-5.5339 Y27.8751 
G01 X-5.4349 Y27.7388 
G01 X-5.3584 Y27.5887 
G01 X-5.3063 Y27.4286 
G01 X-5.2800 Y27.2622 
G01 X-5.2800 Y27.0938 
G01 X-5.3063 Y26.9274 
G01 X-5.3584 Y26.7673 
G01 X-5.4349 Y26.6172 
G01 X-5.5339 Y26.4809 
G01 X-5.6529 Y26.3619 
G01 X-5.7892 Y26.2629 
G01 X-5.9393 Y26.1864 
G01 X-6.0994 Y26.1343 
G01 X-6.2658 Y26.1080 
G01 X-6.4342 Y26.1080 
G01 X-6.6006 Y26.1343 
G01 X-6.7607 Y26.1864 
G01 X-6.9108 Y26.2629 
G01 X-7.0471 Y26.3619 
G01 X-7.1661 Y26.4809 
G01 X-7.2651 Y26.6172 
G01 X-7.3416 Y26.7673 
G01 X-7.3937 Y26.9274 
G01 X-7.4200 Y27.0938 
G00 Z5.0000  
G00 X-18.9587 Y39.7632 
G01 Z-0.2000 F250   
G01 X-18.5235 Y39.5830 F200   
G01 X-18.0525 Y39.5830 
G01 X-17.6173 Y39.7632 
G01 X-17.2842 Y40.0963 
G01 X-17.1040 Y40.5315 
G01 X-17.1040 Y41.0025 
G01 X-17.2842 Y41.4377 
G01 X-17.6173 Y41.7707 
G01 X-18.0525 Y41.9510 
G01 X-18.5235 Y41.9510 
G01 X-18.9587 Y41.7707 
G01 X-19.2917 Y41.4377 
G01 X-19.4720 Y41.0025 
G01 X-19.4720 Y40.5315 
G01 X-19.2917 Y40.0963 
G01 X-18.9587 Y39.7632 
G00 Z5.0000  
G00 X-19.3580 Y40.6828 
G01 Z-0.2000 F250   
G01 X-19.3580 Y40.8512 F200   
G01 X-19.3316 Y41.0176 
G01 X-19.2796 Y41.1777 
G01 X-19.2031 Y41.3278 
G01 X-19.1041 Y41.4641 
G01 X-18.9851 Y41.5831 
G01 X-18.8488 Y41.6821 
G01 X-18.6987 Y41.7586 
G01 X-18.5386 Y41.8107 
G01 X-18.3722 Y41.8370 
G01 X-18.2038 Y41.8370 
G01 X-18.0374 Y41.8107 
G01 X-17.8773 Y41.7586 
G01 X-17.7272 Y41.6821 
G01 X-17.5909 Y41.5831 
G01 X-17.4718 Y41.4641 
G01 X-17.3729 Y41.3278 
G01 X-17.2964 Y41.1777 
G01 X-17.2443 Y41.0176 
G01 X-17.2180 Y40.8512 
G01 X-17.2180 Y40.6828 
G01 X-17.2443 Y40.5164 
G01 X-17.2964 Y40.3563 
G01 X-17.3729 Y40.2062 
G01 X-17.4718 Y40.0699 
G01 X-17.5909 Y39.9509 
G01 X-17.7272 Y39.8519 
G01 X-17.8773 Y39.7754 
G01 X-18.0374 Y39.7233 
G01 X-18.2038 Y39.6970 
G01 X-18.3722 Y39.6970 
G01 X-18.5386 Y39.7233 
G01 X-18.6987 Y39.7754 
G01 X-18.8488 Y39.8519 
G01 X-18.9851 Y39.9509 
G01 X-19.1041 Y40.0699 
G01 X-19.2031 Y40.2062 
G01 X-19.2796 Y40.3563 
G01 X-19.3316 Y40.5164 
G01 X-19.3580 Y40.6828 
G00 Z5.0000  
G00 X-14.0057 Y43.5732 
G01 Z-0.2000 F250   
G01 X-13.5705 Y43.3930 F200   
G01 X-13.0995 Y43.3930 
G01 X-12.6643 Y43.5732 
G01 X-12.3312 Y43.9063 
G01 X-12.1510 Y44.3415 
G01 X-12.1510 Y44.3662 
G01 X-12.1219 Y44.4365 
G01 X-12.0656 Y44.4940 
G01 X-11.9932 Y44.5240 
G01 X-11.9148 Y44.5240 
G01 X-11.8445 Y44.4948 
G01 X-11.7870 Y44.4386 
G01 X-11.7570 Y44.3661 
G01 X-11.6717 Y44.1603 
G01 X-11.3387 Y43.8272 
G01 X-10.9035 Y43.6470 
G01 X-10.4325 Y43.6470 
G01 X-9.9973 Y43.8272 
G01 X-9.6642 Y44.1603 
G01 X-9.4840 Y44.5955 
G01 X-9.4840 Y45.0665 
G01 X-9.6642 Y45.5017 
G01 X-9.9973 Y45.8347 
G01 X-10.4325 Y46.0150 
G01 X-10.9035 Y46.0150 
G01 X-11.3387 Y45.8347 
G01 X-11.6717 Y45.5017 
G01 X-11.8520 Y45.0665 
G01 X-11.8520 Y45.0418 
G01 X-11.8811 Y44.9715 
G01 X-11.9374 Y44.9140 
G01 X-12.0098 Y44.8840 
G01 X-12.0882 Y44.8840 
G01 X-12.1585 Y44.9132 
G01 X-12.2160 Y44.9694 
G01 X-12.2460 Y45.0418 
G01 X-12.3312 Y45.2477 
G01 X-12.6643 Y45.5807 
G01 X-13.0995 Y45.7610 
G01 X-13.5705 Y45.7610 
G01 X-14.0057 Y45.5807 
G01 X-14.3387 Y45.2477 
G01 X-14.5190 Y44.8125 
G01 X-14.5190 Y44.3415 
G01 X-14.3387 Y43.9063 
G01 X-14.0057 Y43.5732 
G00 Z5.0000  
G00 X-14.4050 Y44.4928 
G01 Z-0.2000 F250   
G01 X-14.4050 Y44.6612 F200   
G01 X-14.3787 Y44.8276 
G01 X-14.3266 Y44.9877 
G01 X-14.2501 Y45.1378 
G01 X-14.1511 Y45.2741 
G01 X-14.0321 Y45.3931 
G01 X-13.8958 Y45.4921 
G01 X-13.7457 Y45.5686 
G01 X-13.5856 Y45.6207 
G01 X-13.4192 Y45.6470 
G01 X-13.2508 Y45.6470 
G01 X-13.0844 Y45.6207 
G01 X-12.9243 Y45.5686 
G01 X-12.7742 Y45.4921 
G01 X-12.6379 Y45.3931 
G01 X-12.5189 Y45.2741 
G01 X-12.4199 Y45.1378 
G01 X-12.3434 Y44.9877 
G01 X-12.2913 Y44.8276 
G01 X-12.2650 Y44.6612 
G01 X-12.2650 Y44.4928 
G01 X-12.2913 Y44.3264 
G01 X-12.3434 Y44.1663 
G01 X-12.4199 Y44.0162 
G01 X-12.5189 Y43.8799 
G01 X-12.6379 Y43.7609 
G01 X-12.7742 Y43.6619 
G01 X-12.9243 Y43.5854 
G01 X-13.0844 Y43.5333 
G01 X-13.2508 Y43.5070 
G01 X-13.4192 Y43.5070 
G01 X-13.5856 Y43.5333 
G01 X-13.7457 Y43.5854 
G01 X-13.8958 Y43.6619 
G01 X-14.0321 Y43.7609 
G01 X-14.1511 Y43.8799 
G01 X-14.2501 Y44.0162 
G01 X-14.3266 Y44.1663 
G01 X-14.3787 Y44.3264 
G01 X-14.4050 Y44.4928 
G00 Z5.0000  
G00 X-11.7380 Y44.7468 
G01 Z-0.2000 F250   
G01 X-11.7380 Y44.9152 F200   
G01 X-11.7117 Y45.0816 
G01 X-11.6596 Y45.2417 
G01 X-11.5831 Y45.3918 
G01 X-11.4841 Y45.5281 
G01 X-11.3651 Y45.6471 
G01 X-11.2288 Y45.7461 
G01 X-11.0787 Y45.8226 
G01 X-10.9186 Y45.8747 
G01 X-10.7522 Y45.9010 
G01 X-10.5838 Y45.9010 
G01 X-10.4174 Y45.8747 
G01 X-10.2573 Y45.8226 
G01 X-10.1072 Y45.7461 
G01 X-9.9709 Y45.6471 
G01 X-9.8519 Y45.5281 
G01 X-9.7529 Y45.3918 
G01 X-9.6764 Y45.2417 
G01 X-9.6243 Y45.0816 
G01 X-9.5980 Y44.9152 
G01 X-9.5980 Y44.7468 
G01 X-9.6243 Y44.5804 
G01 X-9.6764 Y44.4203 
G01 X-9.7529 Y44.2702 
G01 X-9.8519 Y44.1339 
G01 X-9.9709 Y44.0149 
G01 X-10.1072 Y43.9159 
G01 X-10.2573 Y43.8394 
G01 X-10.4174 Y43.7873 
G01 X-10.5838 Y43.7610 
G01 X-10.7522 Y43.7610 
G01 X-10.9186 Y43.7873 
G01 X-11.0787 Y43.8394 
G01 X-11.2288 Y43.9159 
G01 X-11.3651 Y44.0149 
G01 X-11.4841 Y44.1339 
G01 X-11.5831 Y44.2702 
G01 X-11.6596 Y44.4203 
G01 X-11.7117 Y44.5804 
G01 X-11.7380 Y44.7468 
G00 Z5.0000  
G00 X-11.0847 Y26.1742 
G01 Z-0.2000 F250   
G01 X-10.6495 Y25.9940 F200   
G01 X-10.1785 Y25.9940 
G01 X-9.7433 Y26.1742 
G01 X-9.4102 Y26.5073 
G01 X-9.2300 Y26.9425 
G01 X-9.2300 Y27.4135 
G01 X-9.4102 Y27.8487 
G01 X-9.7433 Y28.1817 
G01 X-10.1785 Y28.3620 
G01 X-10.6495 Y28.3620 
G01 X-11.0847 Y28.1817 
G01 X-11.4177 Y27.8487 
G01 X-11.5980 Y27.4135 
G01 X-11.5980 Y26.9425 
G01 X-11.4177 Y26.5073 
G01 X-11.0847 Y26.1742 
G00 Z5.0000  
G00 X-11.4840 Y27.0938 
G01 Z-0.2000 F250   
G01 X-11.4840 Y27.2622 F200   
G01 X-11.4577 Y27.4286 
G01 X-11.4056 Y27.5887 
G01 X-11.3291 Y27.7388 
G01 X-11.2301 Y27.8751 
G01 X-11.1111 Y27.9941 
G01 X-10.9748 Y28.0931 
G01 X-10.8247 Y28.1696 
G01 X-10.6646 Y28.2217 
G01 X-10.4982 Y28.2480 
G01 X-10.3298 Y28.2480 
G01 X-10.1634 Y28.2217 
G01 X-10.0033 Y28.1696 
G01 X-9.8532 Y28.0931 
G01 X-9.7169 Y27.9941 
G01 X-9.5979 Y27.8751 
G01 X-9.4989 Y27.7388 
G01 X-9.4224 Y27.5887 
G01 X-9.3703 Y27.4286 
G01 X-9.3440 Y27.2622 
G01 X-9.3440 Y27.0938 
G01 X-9.3703 Y26.9274 
G01 X-9.4224 Y26.7673 
G01 X-9.4989 Y26.6172 
G01 X-9.5979 Y26.4809 
G01 X-9.7169 Y26.3619 
G01 X-9.8532 Y26.2629 
G01 X-10.0033 Y26.1864 
G01 X-10.1634 Y26.1343 
G01 X-10.3298 Y26.1080 
G01 X-10.4982 Y26.1080 
G01 X-10.6646 Y26.1343 
G01 X-10.8247 Y26.1864 
G01 X-10.9748 Y26.2629 
G01 X-11.1111 Y26.3619 
G01 X-11.2301 Y26.4809 
G01 X-11.3291 Y26.6172 
G01 X-11.4056 Y26.7673 
G01 X-11.4577 Y26.9274 
G01 X-11.4840 Y27.0938 
G00 Z5.0000  
G00 X-19.8280 Y12.9958 
G01 Z-0.2000 F250   
G01 X-19.4056 Y12.8208 F200   
G01 X-18.9484 Y12.8208 
G01 X-18.5260 Y12.9958 
G01 X-18.2028 Y13.3190 
G01 X-18.1040 Y13.5574 
G01 X-18.0740 Y13.6299 
G01 X-18.0194 Y13.6844 
G01 X-17.9462 Y13.7153 
G01 X-17.8678 Y13.7153 
G01 X-17.7954 Y13.6853 
G01 X-17.7408 Y13.6307 
G01 X-17.7100 Y13.5575 
G01 X-17.6112 Y13.3190 
G01 X-17.2880 Y12.9958 
G01 X-16.8656 Y12.8208 
G01 X-16.4084 Y12.8208 
G01 X-15.9860 Y12.9958 
G01 X-15.6628 Y13.3190 
G01 X-15.5640 Y13.5574 
G01 X-15.5340 Y13.6299 
G01 X-15.4794 Y13.6844 
G01 X-15.4062 Y13.7153 
G01 X-15.3278 Y13.7153 
G01 X-15.2554 Y13.6853 
G01 X-15.2008 Y13.6307 
G01 X-15.1700 Y13.5575 
G01 X-15.0712 Y13.3190 
G01 X-14.7480 Y12.9958 
G01 X-14.3256 Y12.8208 
G01 X-13.8684 Y12.8208 
G01 X-13.4460 Y12.9958 
G01 X-13.1227 Y13.3190 
G01 X-12.9478 Y13.7414 
G01 X-12.9478 Y14.1986 
G01 X-13.1227 Y14.6210 
G01 X-13.4460 Y14.9442 
G01 X-13.8684 Y15.1192 
G01 X-14.3256 Y15.1192 
G01 X-14.7480 Y14.9442 
G01 X-15.0712 Y14.6210 
G01 X-15.1700 Y14.3825 
G01 X-15.1965 Y14.3186 
G01 X-15.2554 Y14.2547 
G01 X-15.3278 Y14.2247 
G01 X-15.4062 Y14.2247 
G01 X-15.4765 Y14.2539 
G01 X-15.5340 Y14.3101 
G01 X-15.5640 Y14.3825 
G01 X-15.6628 Y14.6210 
G01 X-15.9860 Y14.9442 
G01 X-16.4084 Y15.1192 
G01 X-16.8656 Y15.1192 
G01 X-17.2880 Y14.9442 
G01 X-17.6112 Y14.6210 
G01 X-17.7100 Y14.3825 
G01 X-17.7365 Y14.3186 
G01 X-17.7954 Y14.2547 
G01 X-17.8678 Y14.2247 
G01 X-17.9462 Y14.2247 
G01 X-18.0165 Y14.2539 
G01 X-18.0740 Y14.3101 
G01 X-18.1040 Y14.3825 
G01 X-18.2028 Y14.6210 
G01 X-18.5260 Y14.9442 
G01 X-18.9484 Y15.1192 
G01 X-19.4056 Y15.1192 
G01 X-19.8280 Y14.9442 
G01 X-20.1512 Y14.6210 
G01 X-20.3262 Y14.1986 
G01 X-20.3262 Y13.7414 
G01 X-20.1512 Y13.3190 
G01 X-19.8280 Y12.9958 
G00 Z5.0000  
G00 X-20.2122 Y13.8885 
G01 Z-0.2000 F250   
G01 X-20.2122 Y14.0515 F200   
G01 X-20.1867 Y14.2124 
G01 X-20.1364 Y14.3674 
G01 X-20.0624 Y14.5126 
G01 X-19.9666 Y14.6444 
G01 X-19.8514 Y14.7596 
G01 X-19.7196 Y14.8554 
G01 X-19.5744 Y14.9294 
G01 X-19.4194 Y14.9797 
G01 X-19.2585 Y15.0052 
G01 X-19.0955 Y15.0052 
G01 X-18.9346 Y14.9797 
G01 X-18.7796 Y14.9294 
G01 X-18.6344 Y14.8554 
G01 X-18.5026 Y14.7596 
G01 X-18.3874 Y14.6444 
G01 X-18.2916 Y14.5126 
G01 X-18.2176 Y14.3674 
G01 X-18.1673 Y14.2124 
G01 X-18.1418 Y14.0515 
G01 X-18.1418 Y13.8885 
G01 X-18.1673 Y13.7276 
G01 X-18.2176 Y13.5726 
G01 X-18.2916 Y13.4274 
G01 X-18.3874 Y13.2956 
G01 X-18.5026 Y13.1804 
G01 X-18.6344 Y13.0846 
G01 X-18.7796 Y13.0106 
G01 X-18.9346 Y12.9603 
G01 X-19.0955 Y12.9348 
G01 X-19.2585 Y12.9348 
G01 X-19.4194 Y12.9603 
G01 X-19.5744 Y13.0106 
G01 X-19.7196 Y13.0846 
G01 X-19.8514 Y13.1804 
G01 X-19.9666 Y13.2956 
G01 X-20.0624 Y13.4274 
G01 X-20.1364 Y13.5726 
G01 X-20.1867 Y13.7276 
G01 X-20.2122 Y13.8885 
G00 Z5.0000  
G00 X-17.6722 Y13.8885 
G01 Z-0.2000 F250   
G01 X-17.6722 Y14.0515 F200   
G01 X-17.6467 Y14.2124 
G01 X-17.5964 Y14.3674 
G01 X-17.5224 Y14.5126 
G01 X-17.4266 Y14.6444 
G01 X-17.3114 Y14.7596 
G01 X-17.1796 Y14.8554 
G01 X-17.0344 Y14.9294 
G01 X-16.8794 Y14.9797 
G01 X-16.7185 Y15.0052 
G01 X-16.5555 Y15.0052 
G01 X-16.3946 Y14.9797 
G01 X-16.2396 Y14.9294 
G01 X-16.0944 Y14.8554 
G01 X-15.9626 Y14.7596 
G01 X-15.8474 Y14.6444 
G01 X-15.7516 Y14.5126 
G01 X-15.6776 Y14.3674 
G01 X-15.6273 Y14.2124 
G01 X-15.6018 Y14.0515 
G01 X-15.6018 Y13.8885 
G01 X-15.6273 Y13.7276 
G01 X-15.6776 Y13.5726 
G01 X-15.7516 Y13.4274 
G01 X-15.8474 Y13.2956 
G01 X-15.9626 Y13.1804 
G01 X-16.0944 Y13.0846 
G01 X-16.2396 Y13.0106 
G01 X-16.3946 Y12.9603 
G01 X-16.5555 Y12.9348 
G01 X-16.7185 Y12.9348 
G01 X-16.8794 Y12.9603 
G01 X-17.0344 Y13.0106 
G01 X-17.1796 Y13.0846 
G01 X-17.3114 Y13.1804 
G01 X-17.4266 Y13.2956 
G01 X-17.5224 Y13.4274 
G01 X-17.5964 Y13.5726 
G01 X-17.6467 Y13.7276 
G01 X-17.6722 Y13.8885 
G00 Z5.0000  
G00 X-15.1322 Y13.8885 
G01 Z-0.2000 F250   
G01 X-15.1322 Y14.0515 F200   
G01 X-15.1067 Y14.2124 
G01 X-15.0564 Y14.3674 
G01 X-14.9824 Y14.5126 
G01 X-14.8866 Y14.6444 
G01 X-14.7714 Y14.7596 
G01 X-14.6396 Y14.8554 
G01 X-14.4944 Y14.9294 
G01 X-14.3394 Y14.9797 
G01 X-14.1785 Y15.0052 
G01 X-14.0155 Y15.0052 
G01 X-13.8546 Y14.9797 
G01 X-13.6996 Y14.9294 
G01 X-13.5544 Y14.8554 
G01 X-13.4226 Y14.7596 
G01 X-13.3074 Y14.6444 
G01 X-13.2116 Y14.5126 
G01 X-13.1376 Y14.3674 
G01 X-13.0873 Y14.2124 
G01 X-13.0618 Y14.0515 
G01 X-13.0618 Y13.8885 
G01 X-13.0873 Y13.7276 
G01 X-13.1376 Y13.5726 
G01 X-13.2116 Y13.4274 
G01 X-13.3074 Y13.2956 
G01 X-13.4226 Y13.1804 
G01 X-13.5544 Y13.0846 
G01 X-13.6996 Y13.0106 
G01 X-13.8546 Y12.9603 
G01 X-14.0155 Y12.9348 
G01 X-14.1785 Y12.9348 
G01 X-14.3394 Y12.9603 
G01 X-14.4944 Y13.0106 
G01 X-14.6396 Y13.0846 
G01 X-14.7714 Y13.1804 
G01 X-14.8866 Y13.2956 
G01 X-14.9824 Y13.4274 
G01 X-15.0564 Y13.5726 
G01 X-15.1067 Y13.7276 
G01 X-15.1322 Y13.8885 
G00 Z5.0000  
G00 X-3.4736 Y41.3668 
G01 Z-0.2000 F250   
G01 X-3.4944 Y41.4981 F200   
G01 X-3.5355 Y41.6245 
G01 X-3.5958 Y41.7430 
G01 X-3.6739 Y41.8505 
G01 X-3.7679 Y41.9445 
G01 X-3.8754 Y42.0226 
G01 X-3.9939 Y42.0829 
G01 X-4.0448 Y42.0995 
G01 X-4.0448 Y41.9778 
G01 X-3.9720 Y41.9477 
G01 X-3.8524 Y41.8677 
G01 X-3.7507 Y41.7660 
G01 X-3.6707 Y41.6464 
G01 X-3.6157 Y41.5134 
G01 X-3.5876 Y41.3723 
G01 X-3.5876 Y40.9132 
G01 X-3.4736 Y40.9132 
G01 X-3.4736 Y41.3668 
G00 Z5.0000  
G00 X-5.1624 Y39.9131 
G01 Z-0.2000 F250   
G01 X-5.1416 Y39.7819 F200   
G01 X-5.1005 Y39.6555 
G01 X-5.0402 Y39.5370 
G01 X-4.9621 Y39.4295 
G01 X-4.8681 Y39.3355 
G01 X-4.7606 Y39.2574 
G01 X-4.6421 Y39.1971 
G01 X-4.5912 Y39.1805 
G01 X-4.5912 Y39.3022 
G01 X-4.6640 Y39.3323 
G01 X-4.7836 Y39.4123 
G01 X-4.8853 Y39.5140 
G01 X-4.9653 Y39.6336 
G01 X-5.0203 Y39.7665 
G01 X-5.0484 Y39.9077 
G01 X-5.0484 Y40.3668 
G01 X-5.1624 Y40.3668 
G01 X-5.1624 Y39.9131 
G00 Z5.0000  
G00 X-4.8681 Y41.9445 
G01 Z-0.2000 F250   
G01 X-4.9621 Y41.8505 F200   
G01 X-5.0402 Y41.7430 
G01 X-5.1005 Y41.6245 
G01 X-5.1416 Y41.4981 
G01 X-5.1624 Y41.3669 
G01 X-5.1624 Y40.9132 
G01 X-5.0484 Y40.9132 
G01 X-5.0484 Y41.3723 
G01 X-5.0203 Y41.5134 
G01 X-4.9653 Y41.6464 
G01 X-4.8853 Y41.7660 
G01 X-4.7836 Y41.8677 
G01 X-4.6640 Y41.9477 
G01 X-4.5912 Y41.9778 
G01 X-4.5912 Y42.0995 
G01 X-4.6421 Y42.0829 
G01 X-4.7606 Y42.0226 
G01 X-4.8681 Y41.9445 
G00 Z5.0000  
G00 X-3.9939 Y39.1971 
G01 Z-0.2000 F250   
G01 X-3.8754 Y39.2574 F200   
G01 X-3.7679 Y39.3355 
G01 X-3.6739 Y39.4295 
G01 X-3.5958 Y39.5370 
G01 X-3.5355 Y39.6555 
G01 X-3.4944 Y39.7819 
G01 X-3.4736 Y39.9131 
G01 X-3.4736 Y40.3668 
G01 X-3.5876 Y40.3668 
G01 X-3.5876 Y39.9077 
G01 X-3.6157 Y39.7665 
G01 X-3.6707 Y39.6336 
G01 X-3.7507 Y39.5140 
G01 X-3.8524 Y39.4123 
G01 X-3.9720 Y39.3323 
G01 X-4.0448 Y39.3022 
G01 X-4.0448 Y39.1805 
G01 X-3.9939 Y39.1971 
G00 Z5.0000  
G00 X-14.0513 Y52.5045 
G01 Z-0.2000 F250   
G01 X-13.9666 Y52.3384 F200   
G01 X-13.8571 Y52.1877 
G01 X-13.7253 Y52.0559 
G01 X-13.5746 Y51.9464 
G01 X-13.4085 Y51.8617 
G01 X-13.2740 Y51.8180 
G01 X-13.2740 Y51.9379 
G01 X-13.3647 Y51.9674 
G01 X-13.5148 Y52.0439 
G01 X-13.6511 Y52.1429 
G01 X-13.7701 Y52.2619 
G01 X-13.8691 Y52.3982 
G01 X-13.9456 Y52.5483 
G01 X-13.9751 Y52.6390 
G01 X-14.0950 Y52.6390 
G01 X-14.0513 Y52.5045 
G00 Z5.0000  
G00 X-17.6345 Y28.7880 
G01 Z-0.2000 F250   
G01 X-17.1635 Y28.7880 F200   
G01 X-16.7283 Y28.9682 
G01 X-16.3952 Y29.3013 
G01 X-16.2150 Y29.7365 
G01 X-16.2150 Y30.2075 
G01 X-16.3952 Y30.6427 
G01 X-16.7283 Y30.9757 
G01 X-17.1635 Y31.1560 
G01 X-17.6345 Y31.1560 
G01 X-18.0697 Y30.9757 
G01 X-18.4027 Y30.6427 
G01 X-18.5830 Y30.2075 
G01 X-18.5830 Y29.7365 
G01 X-18.4027 Y29.3013 
G01 X-18.0697 Y28.9682 
G01 X-17.6345 Y28.7880 
G00 Z5.0000  
G00 X-18.4690 Y29.8878 
G01 Z-0.2000 F250   
G01 X-18.4690 Y30.0562 F200   
G01 X-18.4427 Y30.2226 
G01 X-18.3906 Y30.3827 
G01 X-18.3141 Y30.5328 
G01 X-18.2151 Y30.6691 
G01 X-18.0961 Y30.7881 
G01 X-17.9598 Y30.8871 
G01 X-17.8097 Y30.9636 
G01 X-17.6496 Y31.0157 
G01 X-17.4832 Y31.0420 
G01 X-17.3148 Y31.0420 
G01 X-17.1484 Y31.0157 
G01 X-16.9883 Y30.9636 
G01 X-16.8382 Y30.8871 
G01 X-16.7019 Y30.7881 
G01 X-16.5829 Y30.6691 
G01 X-16.4839 Y30.5328 
G01 X-16.4074 Y30.3827 
G01 X-16.3553 Y30.2226 
G01 X-16.3290 Y30.0562 
G01 X-16.3290 Y29.8878 
G01 X-16.3553 Y29.7214 
G01 X-16.4074 Y29.5613 
G01 X-16.4839 Y29.4112 
G01 X-16.5829 Y29.2749 
G01 X-16.7019 Y29.1559 
G01 X-16.8382 Y29.0569 
G01 X-16.9883 Y28.9804 
G01 X-17.1484 Y28.9283 
G01 X-17.3148 Y28.9020 
G01 X-17.4832 Y28.9020 
G01 X-17.6496 Y28.9283 
G01 X-17.8097 Y28.9804 
G01 X-17.9598 Y29.0569 
G01 X-18.0961 Y29.1559 
G01 X-18.2151 Y29.2749 
G01 X-18.3141 Y29.4112 
G01 X-18.3906 Y29.5613 
G01 X-18.4427 Y29.7214 
G01 X-18.4690 Y29.8878 
G00 Z5.0000  
G00 X-3.1979 Y8.1050  
G01 Z-0.2000 F250   
G01 X-3.2882 Y8.2822  F200   
G01 X-3.4051 Y8.4431  
G01 X-3.5457 Y8.5837  
G01 X-3.7066 Y8.7006  
G01 X-3.8838 Y8.7909  
G01 X-4.0702 Y8.8515  
G01 X-4.0702 Y8.7316  
G01 X-3.9275 Y8.6853  
G01 X-3.7663 Y8.6031  
G01 X-3.6200 Y8.4968  
G01 X-3.4920 Y8.3688  
G01 X-3.3857 Y8.2225  
G01 X-3.3035 Y8.0613  
G01 X-3.2572 Y7.9186  
G01 X-3.1373 Y7.9186  
G01 X-3.1979 Y8.1050  
G00 Z5.0000  
G00 X-5.5397 Y7.1350  
G01 Z-0.2000 F250   
G01 X-5.4494 Y6.9578  F200   
G01 X-5.3325 Y6.7969  
G01 X-5.1919 Y6.6563  
G01 X-5.0310 Y6.5394  
G01 X-4.8538 Y6.4491  
G01 X-4.6674 Y6.3885  
G01 X-4.6674 Y6.5084  
G01 X-4.8101 Y6.5547  
G01 X-4.9713 Y6.6369  
G01 X-5.1176 Y6.7432  
G01 X-5.2456 Y6.8712  
G01 X-5.3519 Y7.0175  
G01 X-5.4341 Y7.1787  
G01 X-5.4804 Y7.3214  
G01 X-5.6003 Y7.3214  
G01 X-5.5397 Y7.1350  
G00 Z5.0000  
G00 X-5.4341 Y8.0613  
G01 Z-0.2000 F250   
G01 X-5.3519 Y8.2225  F200   
G01 X-5.2456 Y8.3688  
G01 X-5.1176 Y8.4968  
G01 X-4.9713 Y8.6031  
G01 X-4.8101 Y8.6853  
G01 X-4.6674 Y8.7316  
G01 X-4.6674 Y8.8515  
G01 X-4.8538 Y8.7909  
G01 X-5.0310 Y8.7006  
G01 X-5.1919 Y8.5837  
G01 X-5.3325 Y8.4431  
G01 X-5.4494 Y8.2822  
G01 X-5.5397 Y8.1050  
G01 X-5.6003 Y7.9186  
G01 X-5.4804 Y7.9186  
G01 X-5.4341 Y8.0613  
G00 Z5.0000  
G00 X-3.8838 Y6.4491  
G01 Z-0.2000 F250   
G01 X-3.7066 Y6.5394  F200   
G01 X-3.5457 Y6.6563  
G01 X-3.4051 Y6.7969  
G01 X-3.2882 Y6.9578  
G01 X-3.1979 Y7.1350  
G01 X-3.1373 Y7.3214  
G01 X-3.2572 Y7.3214  
G01 X-3.3035 Y7.1787  
G01 X-3.3857 Y7.0175  
G01 X-3.4920 Y6.8712  
G01 X-3.6200 Y6.7432  
G01 X-3.7663 Y6.6369  
G01 X-3.9275 Y6.5547  
G01 X-4.0702 Y6.5084  
G01 X-4.0702 Y6.3885  
G01 X-3.8838 Y6.4491  
G00 Z5.0000  
G00 X-2.0777 Y35.5065 
G01 Z-0.2000 F250   
G01 X-2.1623 Y35.6726 F200   
G01 X-2.2719 Y35.8233 
G01 X-2.4037 Y35.9551 
G01 X-2.5544 Y36.0646 
G01 X-2.7205 Y36.1493 
G01 X-2.8550 Y36.1930 
G01 X-2.8550 Y36.0731 
G01 X-2.7643 Y36.0436 
G01 X-2.6142 Y35.9671 
G01 X-2.4779 Y35.8681 
G01 X-2.3588 Y35.7491 
G01 X-2.2599 Y35.6128 
G01 X-2.1834 Y35.4627 
G01 X-2.1539 Y35.3720 
G01 X-2.0340 Y35.3720 
G01 X-2.0777 Y35.5065 
G00 Z5.0000  
G00 X-4.2723 Y34.5975 
G01 Z-0.2000 F250   
G01 X-4.1876 Y34.4314 F200   
G01 X-4.0781 Y34.2807 
G01 X-3.9463 Y34.1489 
G01 X-3.7955 Y34.0393 
G01 X-3.6295 Y33.9547 
G01 X-3.4950 Y33.9110 
G01 X-3.4950 Y34.0309 
G01 X-3.5857 Y34.0604 
G01 X-3.7358 Y34.1369 
G01 X-3.8721 Y34.2358 
G01 X-3.9911 Y34.3549 
G01 X-4.0901 Y34.4912 
G01 X-4.1666 Y34.6413 
G01 X-4.1961 Y34.7320 
G01 X-4.3160 Y34.7320 
G01 X-4.2723 Y34.5975 
G00 Z5.0000  
G00 X-4.1666 Y35.4627 
G01 Z-0.2000 F250   
G01 X-4.0901 Y35.6128 F200   
G01 X-3.9911 Y35.7491 
G01 X-3.8721 Y35.8681 
G01 X-3.7358 Y35.9671 
G01 X-3.5857 Y36.0436 
G01 X-3.4950 Y36.0731 
G01 X-3.4950 Y36.1930 
G01 X-3.6295 Y36.1493 
G01 X-3.7955 Y36.0646 
G01 X-3.9463 Y35.9551 
G01 X-4.0781 Y35.8233 
G01 X-4.1876 Y35.6726 
G01 X-4.2723 Y35.5065 
G01 X-4.3160 Y35.3720 
G01 X-4.1961 Y35.3720 
G01 X-4.1666 Y35.4627 
G00 Z5.0000  
G00 X-2.7205 Y33.9547 
G01 Z-0.2000 F250   
G01 X-2.5544 Y34.0393 F200   
G01 X-2.4037 Y34.1489 
G01 X-2.2719 Y34.2807 
G01 X-2.1624 Y34.4314 
G01 X-2.0777 Y34.5975 
G01 X-2.0340 Y34.7320 
G01 X-2.1539 Y34.7320 
G01 X-2.1834 Y34.6413 
G01 X-2.2599 Y34.4912 
G01 X-2.3588 Y34.3549 
G01 X-2.4779 Y34.2358 
G01 X-2.6142 Y34.1369 
G01 X-2.7643 Y34.0604 
G01 X-2.8550 Y34.0309 
G01 X-2.8550 Y33.9110 
G01 X-2.7205 Y33.9547 
G00 Z5.0000  
G00 X-4.1992 Y28.3620 
G01 Z-0.2000 F250   
G01 X-4.2460 Y28.3495 F200   
G01 X-4.2880 Y28.3252 
G01 X-4.3222 Y28.2910 
G01 X-4.3465 Y28.2490 
G01 X-4.3590 Y28.2022 
G01 X-4.3590 Y27.4980 
G01 X-4.2450 Y27.4980 
G01 X-4.2450 Y28.1919 
G01 X-4.2343 Y28.2177 
G01 X-4.1889 Y28.2480 
G01 X-3.4950 Y28.2480 
G01 X-3.4950 Y28.3620 
G01 X-4.1992 Y28.3620 
G00 Z5.0000  
G00 X-2.1050 Y28.1919 
G01 Z-0.2000 F250   
G01 X-2.1050 Y27.4980 F200   
G01 X-1.9910 Y27.4980 
G01 X-1.9910 Y28.2022 
G01 X-2.0035 Y28.2490 
G01 X-2.0278 Y28.2910 
G01 X-2.0620 Y28.3252 
G01 X-2.1040 Y28.3495 
G01 X-2.1508 Y28.3620 
G01 X-2.8550 Y28.3620 
G01 X-2.8550 Y28.2480 
G01 X-2.1611 Y28.2480 
G01 X-2.1353 Y28.2373 
G01 X-2.1050 Y28.1919 
G00 Z5.0000  
G00 X-2.1050 Y26.1641 
G01 Z-0.2000 F250   
G01 X-2.1157 Y26.1383 F200   
G01 X-2.1353 Y26.1187 
G01 X-2.1611 Y26.1080 
G01 X-2.8550 Y26.1080 
G01 X-2.8550 Y25.9940 
G01 X-2.1508 Y25.9940 
G01 X-2.1040 Y26.0065 
G01 X-2.0620 Y26.0308 
G01 X-2.0278 Y26.0650 
G01 X-2.0035 Y26.1070 
G01 X-1.9910 Y26.1538 
G01 X-1.9910 Y26.8580 
G01 X-2.1050 Y26.8580 
G01 X-2.1050 Y26.1641 
G00 Z5.0000  
G00 X-4.3590 Y26.1538 
G01 Z-0.2000 F250   
G01 X-4.3465 Y26.1070 F200   
G01 X-4.3222 Y26.0650 
G01 X-4.2880 Y26.0308 
G01 X-4.2460 Y26.0065 
G01 X-4.1992 Y25.9940 
G01 X-3.4950 Y25.9940 
G01 X-3.4950 Y26.1080 
G01 X-4.1889 Y26.1080 
G01 X-4.2146 Y26.1187 
G01 X-4.2450 Y26.1641 
G01 X-4.2450 Y26.8580 
G01 X-4.3590 Y26.8580 
G01 X-4.3590 Y26.1538 
G00 Z5.0000  
G00 X-18.0797 Y49.4765 
G01 Z-0.2000 F250   
G01 X-18.1644 Y49.6425 F200   
G01 X-18.2739 Y49.7933 
G01 X-18.4057 Y49.9251 
G01 X-18.5564 Y50.0346 
G01 X-18.7225 Y50.1193 
G01 X-18.8570 Y50.1630 
G01 X-18.8570 Y50.0431 
G01 X-18.7663 Y50.0136 
G01 X-18.6162 Y49.9371 
G01 X-18.4799 Y49.8381 
G01 X-18.3608 Y49.7191 
G01 X-18.2619 Y49.5828 
G01 X-18.1854 Y49.4327 
G01 X-18.1559 Y49.3420 
G01 X-18.0360 Y49.3420 
G01 X-18.0797 Y49.4765 
G00 Z5.0000  
G00 X-20.2743 Y48.5675 
G01 Z-0.2000 F250   
G01 X-20.1896 Y48.4014 F200   
G01 X-20.0801 Y48.2507 
G01 X-19.9483 Y48.1189 
G01 X-19.7976 Y48.0094 
G01 X-19.6315 Y47.9247 
G01 X-19.4970 Y47.8810 
G01 X-19.4970 Y48.0009 
G01 X-19.5877 Y48.0304 
G01 X-19.7378 Y48.1069 
G01 X-19.8741 Y48.2059 
G01 X-19.9931 Y48.3249 
G01 X-20.0921 Y48.4612 
G01 X-20.1686 Y48.6113 
G01 X-20.1981 Y48.7020 
G01 X-20.3180 Y48.7020 
G01 X-20.2743 Y48.5675 
G00 Z5.0000  
G00 X-20.1686 Y49.4327 
G01 Z-0.2000 F250   
G01 X-20.0921 Y49.5828 F200   
G01 X-19.9931 Y49.7191 
G01 X-19.8741 Y49.8381 
G01 X-19.7378 Y49.9371 
G01 X-19.5877 Y50.0136 
G01 X-19.4970 Y50.0431 
G01 X-19.4970 Y50.1630 
G01 X-19.6315 Y50.1193 
G01 X-19.7976 Y50.0346 
G01 X-19.9483 Y49.9251 
G01 X-20.0801 Y49.7933 
G01 X-20.1896 Y49.6425 
G01 X-20.2743 Y49.4765 
G01 X-20.3180 Y49.3420 
G01 X-20.1981 Y49.3420 
G01 X-20.1686 Y49.4327 
G00 Z5.0000  
G00 X-18.7225 Y47.9247 
G01 Z-0.2000 F250   
G01 X-18.5564 Y48.0094 F200   
G01 X-18.4057 Y48.1189 
G01 X-18.2739 Y48.2507 
G01 X-18.1644 Y48.4014 
G01 X-18.0797 Y48.5675 
G01 X-18.0360 Y48.7020 
G01 X-18.1559 Y48.7020 
G01 X-18.1854 Y48.6113 
G01 X-18.2619 Y48.4612 
G01 X-18.3608 Y48.3249 
G01 X-18.4799 Y48.2059 
G01 X-18.6162 Y48.1069 
G01 X-18.7663 Y48.0304 
G01 X-18.8570 Y48.0009 
G01 X-18.8570 Y47.8810 
G01 X-18.7225 Y47.9247 
G00 Z5.0000  
G00 X-11.5869 Y6.5489  
G01 Z-0.2000 F250   
G01 X-11.1225 Y6.3565  F200   
G01 X-10.6199 Y6.3565  
G01 X-10.1555 Y6.5489  
G01 X-9.8001 Y6.9043  
G01 X-9.6077 Y7.3687  
G01 X-9.6077 Y7.8713  
G01 X-9.8001 Y8.3357  
G01 X-10.1555 Y8.6911  
G01 X-10.6199 Y8.8835  
G01 X-11.1225 Y8.8835  
G01 X-11.5869 Y8.6911  
G01 X-11.9423 Y8.3357  
G01 X-12.1347 Y7.8713  
G01 X-12.1347 Y7.3687  
G01 X-11.9423 Y6.9043  
G01 X-11.5869 Y6.5489  
G00 Z5.0000  
G00 X-12.0207 Y7.5295  
G01 Z-0.2000 F250   
G01 X-12.0207 Y7.7105  F200   
G01 X-11.9924 Y7.8892  
G01 X-11.9365 Y8.0613  
G01 X-11.8543 Y8.2225  
G01 X-11.7480 Y8.3688  
G01 X-11.6200 Y8.4968  
G01 X-11.4737 Y8.6031  
G01 X-11.3125 Y8.6853  
G01 X-11.1404 Y8.7412  
G01 X-10.9617 Y8.7695  
G01 X-10.7807 Y8.7695  
G01 X-10.6020 Y8.7412  
G01 X-10.4299 Y8.6853  
G01 X-10.2687 Y8.6031  
G01 X-10.1224 Y8.4968  
G01 X-9.9944 Y8.3688  
G01 X-9.8881 Y8.2225  
G01 X-9.8059 Y8.0613  
G01 X-9.7500 Y7.8892  
G01 X-9.7217 Y7.7105  
G01 X-9.7217 Y7.5295  
G01 X-9.7500 Y7.3508  
G01 X-9.8059 Y7.1787  
G01 X-9.8881 Y7.0175  
G01 X-9.9944 Y6.8712  
G01 X-10.1224 Y6.7432  
G01 X-10.2687 Y6.6369  
G01 X-10.4299 Y6.5547  
G01 X-10.6020 Y6.4988  
G01 X-10.7807 Y6.4705  
G01 X-10.9617 Y6.4705  
G01 X-11.1404 Y6.4988  
G01 X-11.3125 Y6.5547  
G01 X-11.4737 Y6.6369  
G01 X-11.6200 Y6.7432  
G01 X-11.7480 Y6.8712  
G01 X-11.8543 Y7.0175  
G01 X-11.9365 Y7.1787  
G01 X-11.9924 Y7.3508  
G01 X-12.0207 Y7.5295  
G00 Z5.0000  
G00 X-11.0847 Y18.5542 
G01 Z-0.2000 F250   
G01 X-10.6495 Y18.3740 F200   
G01 X-10.1785 Y18.3740 
G01 X-9.7433 Y18.5542 
G01 X-9.4102 Y18.8873 
G01 X-9.2300 Y19.3225 
G01 X-9.2300 Y19.7935 
G01 X-9.4102 Y20.2287 
G01 X-9.7433 Y20.5617 
G01 X-10.1785 Y20.7420 
G01 X-10.6495 Y20.7420 
G01 X-11.0847 Y20.5617 
G01 X-11.4177 Y20.2287 
G01 X-11.5980 Y19.7935 
G01 X-11.5980 Y19.3225 
G01 X-11.4177 Y18.8873 
G01 X-11.0847 Y18.5542 
G00 Z5.0000  
G00 X-11.4840 Y19.4738 
G01 Z-0.2000 F250   
G01 X-11.4840 Y19.6422 F200   
G01 X-11.4577 Y19.8086 
G01 X-11.4056 Y19.9687 
G01 X-11.3291 Y20.1188 
G01 X-11.2301 Y20.2551 
G01 X-11.1111 Y20.3741 
G01 X-10.9748 Y20.4731 
G01 X-10.8247 Y20.5496 
G01 X-10.6646 Y20.6016 
G01 X-10.4982 Y20.6280 
G01 X-10.3298 Y20.6280 
G01 X-10.1634 Y20.6016 
G01 X-10.0033 Y20.5496 
G01 X-9.8532 Y20.4731 
G01 X-9.7169 Y20.3741 
G01 X-9.5979 Y20.2551 
G01 X-9.4989 Y20.1188 
G01 X-9.4224 Y19.9687 
G01 X-9.3703 Y19.8086 
G01 X-9.3440 Y19.6422 
G01 X-9.3440 Y19.4738 
G01 X-9.3703 Y19.3074 
G01 X-9.4224 Y19.1473 
G01 X-9.4989 Y18.9972 
G01 X-9.5979 Y18.8609 
G01 X-9.7169 Y18.7418 
G01 X-9.8532 Y18.6429 
G01 X-10.0033 Y18.5664 
G01 X-10.1634 Y18.5143 
G01 X-10.3298 Y18.4880 
G01 X-10.4982 Y18.4880 
G01 X-10.6646 Y18.5143 
G01 X-10.8247 Y18.5664 
G01 X-10.9748 Y18.6429 
G01 X-11.1111 Y18.7418 
G01 X-11.2301 Y18.8609 
G01 X-11.3291 Y18.9972 
G01 X-11.4056 Y19.1473 
G01 X-11.4577 Y19.3074 
G01 X-11.4840 Y19.4738 
G00 Z5.0000  
G00 X-3.3477 Y17.4725 
G01 Z-0.2000 F250   
G01 X-3.4324 Y17.6386 F200   
G01 X-3.5419 Y17.7893 
G01 X-3.6737 Y17.9211 
G01 X-3.7877 Y18.0039 
G01 X-3.8191 Y18.0267 
G01 X-3.8465 Y18.0542 
G01 X-3.8668 Y18.0873 
G01 X-3.8792 Y18.1075 
G01 X-3.8877 Y18.1378 
G01 X-3.8877 Y18.1615 
G01 X-3.8914 Y18.1849 
G01 X-3.8877 Y18.2162 
G01 X-3.8787 Y18.2381 
G01 X-3.8731 Y18.2611 
G01 X-3.8577 Y18.2886 
G01 X-3.8271 Y18.3245 
G01 X-3.8023 Y18.3440 
G01 X-3.7805 Y18.3531 
G01 X-3.7603 Y18.3654 
G01 X-3.7299 Y18.3740 
G01 X-3.7063 Y18.3740 
G01 X-3.6829 Y18.3777 
G01 X-3.3688 Y18.3740 
G01 X-3.2610 Y18.4818 
G01 X-3.2610 Y20.6342 
G01 X-3.3688 Y20.7420 
G01 X-5.5212 Y20.7420 
G01 X-5.6290 Y20.6342 
G01 X-5.6290 Y18.4818 
G01 X-5.5212 Y18.3740 
G01 X-5.2226 Y18.3740 
G01 X-5.1837 Y18.3740 
G01 X-5.1601 Y18.3740 
G01 X-5.1297 Y18.3654 
G01 X-5.1095 Y18.3531 
G01 X-5.0877 Y18.3440 
G01 X-5.0629 Y18.3245 
G01 X-5.0323 Y18.2886 
G01 X-5.0168 Y18.2611 
G01 X-5.0113 Y18.2381 
G01 X-5.0023 Y18.2162 
G01 X-4.9986 Y18.1849 
G01 X-5.0023 Y18.1615 
G01 X-5.0023 Y18.1378 
G01 X-5.0108 Y18.1075 
G01 X-5.0232 Y18.0873 
G01 X-5.0323 Y18.0654 
G01 X-5.0518 Y18.0407 
G01 X-5.0877 Y18.0100 
G01 X-5.2163 Y17.9211 
G01 X-5.3481 Y17.7893 
G01 X-5.4576 Y17.6386 
G01 X-5.5423 Y17.4725 
G01 X-5.5860 Y17.3380 
G01 X-5.4661 Y17.3380 
G01 X-5.4366 Y17.4287 
G01 X-5.3601 Y17.5788 
G01 X-5.2611 Y17.7151 
G01 X-5.1421 Y17.8341 
G01 X-5.0058 Y17.9331 
G01 X-4.8557 Y18.0096 
G01 X-4.6956 Y18.0617 
G01 X-4.5292 Y18.0880 
G01 X-4.3608 Y18.0880 
G01 X-4.1944 Y18.0617 
G01 X-4.0343 Y18.0096 
G01 X-3.8842 Y17.9331 
G01 X-3.7479 Y17.8341 
G01 X-3.6289 Y17.7151 
G01 X-3.5299 Y17.5788 
G01 X-3.4534 Y17.4287 
G01 X-3.4239 Y17.3380 
G01 X-3.3040 Y17.3380 
G01 X-3.3477 Y17.4725 
G00 Z5.0000  
G00 X-3.4311 Y18.4880 
G01 Z-0.2000 F250   
G01 X-5.4589 Y18.4880 F200   
G01 X-5.4847 Y18.4987 
G01 X-5.5150 Y18.5441 
G01 X-5.5150 Y20.5719 
G01 X-5.5043 Y20.5977 
G01 X-5.4589 Y20.6280 
G01 X-3.4311 Y20.6280 
G01 X-3.4053 Y20.6173 
G01 X-3.3750 Y20.5719 
G01 X-3.3750 Y18.5441 
G01 X-3.3857 Y18.5183 
G01 X-3.4311 Y18.4880 
G00 Z5.0000  
G00 X-3.8245 Y16.0053 
G01 Z-0.2000 F250   
G01 X-3.6737 Y16.1149 F200   
G01 X-3.5419 Y16.2467 
G01 X-3.4324 Y16.3974 
G01 X-3.3477 Y16.5635 
G01 X-3.3040 Y16.6980 
G01 X-3.4239 Y16.6980 
G01 X-3.4534 Y16.6073 
G01 X-3.5299 Y16.4572 
G01 X-3.6289 Y16.3209 
G01 X-3.7479 Y16.2019 
G01 X-3.8842 Y16.1029 
G01 X-4.0343 Y16.0264 
G01 X-4.1250 Y15.9969 
G01 X-4.1250 Y15.8770 
G01 X-3.9905 Y15.9207 
G01 X-3.8245 Y16.0053 
G00 Z5.0000  
G00 X-5.5423 Y16.5635 
G01 Z-0.2000 F250   
G01 X-5.4577 Y16.3974 F200   
G01 X-5.3481 Y16.2467 
G01 X-5.2163 Y16.1149 
G01 X-5.0655 Y16.0053 
G01 X-4.8995 Y15.9207 
G01 X-4.7650 Y15.8770 
G01 X-4.7650 Y15.9969 
G01 X-4.8557 Y16.0264 
G01 X-5.0058 Y16.1029 
G01 X-5.1421 Y16.2019 
G01 X-5.2611 Y16.3209 
G01 X-5.3601 Y16.4572 
G01 X-5.4366 Y16.6073 
G01 X-5.4661 Y16.6980 
G01 X-5.5860 Y16.6980 
G01 X-5.5423 Y16.5635 
G00 Z5.0000  
G00 X-12.9897 Y28.9682 
G01 Z-0.2000 F250   
G01 X-12.5545 Y28.7880 F200   
G01 X-12.0835 Y28.7880 
G01 X-11.6483 Y28.9682 
G01 X-11.3152 Y29.3013 
G01 X-11.1350 Y29.7365 
G01 X-11.1350 Y30.2075 
G01 X-11.3152 Y30.6427 
G01 X-11.6483 Y30.9757 
G01 X-12.0835 Y31.1560 
G01 X-12.5545 Y31.1560 
G01 X-12.9897 Y30.9757 
G01 X-13.3227 Y30.6427 
G01 X-13.5030 Y30.2075 
G01 X-13.5030 Y29.7365 
G01 X-13.3227 Y29.3013 
G01 X-12.9897 Y28.9682 
G00 Z5.0000  
G00 X-13.3890 Y29.8878 
G01 Z-0.2000 F250   
G01 X-13.3890 Y30.0562 F200   
G01 X-13.3627 Y30.2226 
G01 X-13.3106 Y30.3827 
G01 X-13.2341 Y30.5328 
G01 X-13.1351 Y30.6691 
G01 X-13.0161 Y30.7881 
G01 X-12.8798 Y30.8871 
G01 X-12.7297 Y30.9636 
G01 X-12.5696 Y31.0157 
G01 X-12.4032 Y31.0420 
G01 X-12.2348 Y31.0420 
G01 X-12.0684 Y31.0157 
G01 X-11.9083 Y30.9636 
G01 X-11.7582 Y30.8871 
G01 X-11.6219 Y30.7881 
G01 X-11.5029 Y30.6691 
G01 X-11.4039 Y30.5328 
G01 X-11.3274 Y30.3827 
G01 X-11.2753 Y30.2226 
G01 X-11.2490 Y30.0562 
G01 X-11.2490 Y29.8878 
G01 X-11.2753 Y29.7214 
G01 X-11.3274 Y29.5613 
G01 X-11.4039 Y29.4112 
G01 X-11.5029 Y29.2749 
G01 X-11.6219 Y29.1559 
G01 X-11.7582 Y29.0569 
G01 X-11.9083 Y28.9804 
G01 X-12.0684 Y28.9283 
G01 X-12.2348 Y28.9020 
G01 X-12.4032 Y28.9020 
G01 X-12.5696 Y28.9283 
G01 X-12.7297 Y28.9804 
G01 X-12.8798 Y29.0569 
G01 X-13.0161 Y29.1559 
G01 X-13.1351 Y29.2749 
G01 X-13.2341 Y29.4112 
G01 X-13.3106 Y29.5613 
G01 X-13.3627 Y29.7214 
G01 X-13.3890 Y29.8878 
G00 Z5.0000  
G00 X-13.8787 Y39.7632 
G01 Z-0.2000 F250   
G01 X-13.4435 Y39.5830 F200   
G01 X-12.9725 Y39.5830 
G01 X-12.5373 Y39.7632 
G01 X-12.2042 Y40.0963 
G01 X-12.0240 Y40.5315 
G01 X-12.0240 Y41.0025 
G01 X-12.2042 Y41.4377 
G01 X-12.5373 Y41.7707 
G01 X-12.9725 Y41.9510 
G01 X-13.4435 Y41.9510 
G01 X-13.8787 Y41.7707 
G01 X-14.2117 Y41.4377 
G01 X-14.3920 Y41.0025 
G01 X-14.3920 Y40.5315 
G01 X-14.2117 Y40.0963 
G01 X-13.8787 Y39.7632 
G00 Z5.0000  
G00 X-14.2780 Y40.6828 
G01 Z-0.2000 F250   
G01 X-14.2780 Y40.8512 F200   
G01 X-14.2517 Y41.0176 
G01 X-14.1996 Y41.1777 
G01 X-14.1231 Y41.3278 
G01 X-14.0241 Y41.4641 
G01 X-13.9051 Y41.5831 
G01 X-13.7688 Y41.6821 
G01 X-13.6187 Y41.7586 
G01 X-13.4586 Y41.8107 
G01 X-13.2922 Y41.8370 
G01 X-13.1238 Y41.8370 
G01 X-12.9574 Y41.8107 
G01 X-12.7973 Y41.7586 
G01 X-12.6472 Y41.6821 
G01 X-12.5109 Y41.5831 
G01 X-12.3918 Y41.4641 
G01 X-12.2929 Y41.3278 
G01 X-12.2164 Y41.1777 
G01 X-12.1643 Y41.0176 
G01 X-12.1380 Y40.8512 
G01 X-12.1380 Y40.6828 
G01 X-12.1643 Y40.5164 
G01 X-12.2164 Y40.3563 
G01 X-12.2929 Y40.2062 
G01 X-12.3918 Y40.0699 
G01 X-12.5109 Y39.9509 
G01 X-12.6472 Y39.8519 
G01 X-12.7973 Y39.7754 
G01 X-12.9574 Y39.7233 
G01 X-13.1238 Y39.6970 
G01 X-13.2922 Y39.6970 
G01 X-13.4586 Y39.7233 
G01 X-13.6187 Y39.7754 
G01 X-13.7688 Y39.8519 
G01 X-13.9051 Y39.9509 
G01 X-14.0241 Y40.0699 
G01 X-14.1231 Y40.2062 
G01 X-14.1996 Y40.3563 
G01 X-14.2517 Y40.5164 
G01 X-14.2780 Y40.6828 
G00 Z5.0000  
G00 X-14.7677 Y48.0182 
G01 Z-0.2000 F250   
G01 X-14.3325 Y47.8380 F200   
G01 X-13.8615 Y47.8380 
G01 X-13.4263 Y48.0182 
G01 X-13.0933 Y48.3513 
G01 X-12.9130 Y48.7865 
G01 X-12.9130 Y49.2575 
G01 X-13.0932 Y49.6927 
G01 X-13.4263 Y50.0257 
G01 X-13.8615 Y50.2060 
G01 X-14.3325 Y50.2060 
G01 X-14.7677 Y50.0257 
G01 X-15.1007 Y49.6927 
G01 X-15.2810 Y49.2575 
G01 X-15.2810 Y48.7865 
G01 X-15.1007 Y48.3513 
G01 X-14.7677 Y48.0182 
G00 Z5.0000  
G00 X-15.1670 Y48.9378 
G01 Z-0.2000 F250   
G01 X-15.1670 Y49.1062 F200   
G01 X-15.1407 Y49.2726 
G01 X-15.0886 Y49.4327 
G01 X-15.0121 Y49.5828 
G01 X-14.9131 Y49.7191 
G01 X-14.7941 Y49.8381 
G01 X-14.6578 Y49.9371 
G01 X-14.5077 Y50.0136 
G01 X-14.3476 Y50.0657 
G01 X-14.1812 Y50.0920 
G01 X-14.0128 Y50.0920 
G01 X-13.8464 Y50.0657 
G01 X-13.6863 Y50.0136 
G01 X-13.5362 Y49.9371 
G01 X-13.3999 Y49.8381 
G01 X-13.2809 Y49.7191 
G01 X-13.1819 Y49.5828 
G01 X-13.1054 Y49.4327 
G01 X-13.0533 Y49.2726 
G01 X-13.0270 Y49.1062 
G01 X-13.0270 Y48.9378 
G01 X-13.0533 Y48.7714 
G01 X-13.1054 Y48.6113 
G01 X-13.1819 Y48.4612 
G01 X-13.2809 Y48.3249 
G01 X-13.3999 Y48.2059 
G01 X-13.5362 Y48.1069 
G01 X-13.6863 Y48.0304 
G01 X-13.8464 Y47.9783 
G01 X-14.0128 Y47.9520 
G01 X-14.1812 Y47.9520 
G01 X-14.3476 Y47.9783 
G01 X-14.5077 Y48.0304 
G01 X-14.6578 Y48.1069 
G01 X-14.7941 Y48.2059 
G01 X-14.9131 Y48.3249 
G01 X-15.0121 Y48.4612 
G01 X-15.0886 Y48.6113 
G01 X-15.1407 Y48.7714 
G01 X-15.1670 Y48.9378 
G00 Z5.0000  
G00 X-3.7187 Y43.8272 
G01 Z-0.2000 F250   
G01 X-3.2835 Y43.6470 F200   
G01 X-2.8125 Y43.6470 
G01 X-2.3773 Y43.8272 
G01 X-2.0442 Y44.1603 
G01 X-1.8640 Y44.5955 
G01 X-1.8640 Y45.0665 
G01 X-2.0442 Y45.5017 
G01 X-2.3773 Y45.8347 
G01 X-2.8125 Y46.0150 
G01 X-3.2835 Y46.0150 
G01 X-3.7187 Y45.8347 
G01 X-4.0517 Y45.5017 
G01 X-4.2320 Y45.0665 
G01 X-4.2320 Y44.5955 
G01 X-4.0517 Y44.1603 
G01 X-3.7187 Y43.8272 
G00 Z5.0000  
G00 X-4.1180 Y44.7468 
G01 Z-0.2000 F250   
G01 X-4.1180 Y44.9152 F200   
G01 X-4.0917 Y45.0816 
G01 X-4.0396 Y45.2417 
G01 X-3.9631 Y45.3918 
G01 X-3.8641 Y45.5281 
G01 X-3.7451 Y45.6471 
G01 X-3.6088 Y45.7461 
G01 X-3.4587 Y45.8226 
G01 X-3.2986 Y45.8747 
G01 X-3.1322 Y45.9010 
G01 X-2.9638 Y45.9010 
G01 X-2.7974 Y45.8747 
G01 X-2.6373 Y45.8226 
G01 X-2.4872 Y45.7461 
G01 X-2.3509 Y45.6471 
G01 X-2.2319 Y45.5281 
G01 X-2.1329 Y45.3918 
G01 X-2.0564 Y45.2417 
G01 X-2.0043 Y45.0816 
G01 X-1.9780 Y44.9152 
G01 X-1.9780 Y44.7468 
G01 X-2.0043 Y44.5804 
G01 X-2.0564 Y44.4203 
G01 X-2.1329 Y44.2702 
G01 X-2.2319 Y44.1339 
G01 X-2.3509 Y44.0149 
G01 X-2.4872 Y43.9159 
G01 X-2.6373 Y43.8394 
G01 X-2.7974 Y43.7873 
G01 X-2.9638 Y43.7610 
G01 X-3.1322 Y43.7610 
G01 X-3.2986 Y43.7873 
G01 X-3.4587 Y43.8394 
G01 X-3.6088 Y43.9159 
G01 X-3.7451 Y44.0149 
G01 X-3.8641 Y44.1339 
G01 X-3.9631 Y44.2702 
G01 X-4.0396 Y44.4203 
G01 X-4.0917 Y44.5804 
G01 X-4.1180 Y44.7468 
G00 Z5.0000  
G00 X-6.5339 Y39.1971 
G01 Z-0.2000 F250   
G01 X-6.4154 Y39.2574 F200   
G01 X-6.3079 Y39.3355 
G01 X-6.2139 Y39.4295 
G01 X-6.1358 Y39.5370 
G01 X-6.0755 Y39.6555 
G01 X-6.0344 Y39.7819 
G01 X-6.0136 Y39.9131 
G01 X-6.0136 Y40.3668 
G01 X-6.1276 Y40.3668 
G01 X-6.1276 Y39.9077 
G01 X-6.1557 Y39.7665 
G01 X-6.2107 Y39.6336 
G01 X-6.2907 Y39.5140 
G01 X-6.3924 Y39.4123 
G01 X-6.5120 Y39.3323 
G01 X-6.5848 Y39.3022 
G01 X-6.5848 Y39.1805 
G01 X-6.5339 Y39.1971 
G00 Z5.0000  
G00 X-7.4081 Y41.9445 
G01 Z-0.2000 F250   
G01 X-7.5021 Y41.8505 F200   
G01 X-7.5802 Y41.7430 
G01 X-7.6405 Y41.6245 
G01 X-7.6816 Y41.4981 
G01 X-7.7024 Y41.3669 
G01 X-7.7024 Y40.9132 
G01 X-7.5884 Y40.9132 
G01 X-7.5884 Y41.3723 
G01 X-7.5603 Y41.5134 
G01 X-7.5053 Y41.6464 
G01 X-7.4253 Y41.7660 
G01 X-7.3236 Y41.8677 
G01 X-7.2040 Y41.9477 
G01 X-7.1312 Y41.9778 
G01 X-7.1312 Y42.0995 
G01 X-7.1821 Y42.0829 
G01 X-7.3006 Y42.0226 
G01 X-7.4081 Y41.9445 
G00 Z5.0000  
G00 X-7.7024 Y39.9131 
G01 Z-0.2000 F250   
G01 X-7.6816 Y39.7819 F200   
G01 X-7.6405 Y39.6555 
G01 X-7.5802 Y39.5370 
G01 X-7.5021 Y39.4295 
G01 X-7.4081 Y39.3355 
G01 X-7.3006 Y39.2574 
G01 X-7.1821 Y39.1971 
G01 X-7.1312 Y39.1805 
G01 X-7.1312 Y39.3022 
G01 X-7.2040 Y39.3323 
G01 X-7.3236 Y39.4123 
G01 X-7.4253 Y39.5140 
G01 X-7.5053 Y39.6336 
G01 X-7.5603 Y39.7665 
G01 X-7.5884 Y39.9077 
G01 X-7.5884 Y40.3668 
G01 X-7.7024 Y40.3668 
G01 X-7.7024 Y39.9131 
G00 Z5.0000  
G00 X-6.0136 Y41.3669 
G01 Z-0.2000 F250   
G01 X-6.0344 Y41.4981 F200   
G01 X-6.0755 Y41.6245 
G01 X-6.1358 Y41.7430 
G01 X-6.2139 Y41.8505 
G01 X-6.3079 Y41.9445 
G01 X-6.4154 Y42.0226 
G01 X-6.5339 Y42.0829 
G01 X-6.5848 Y42.0995 
G01 X-6.5848 Y41.9778 
G01 X-6.5120 Y41.9477 
G01 X-6.3924 Y41.8677 
G01 X-6.2907 Y41.7660 
G01 X-6.2107 Y41.6464 
G01 X-6.1557 Y41.5134 
G01 X-6.1276 Y41.3723 
G01 X-6.1276 Y40.9132 
G01 X-6.0136 Y40.9132 
G01 X-6.0136 Y41.3669 
G00 Z5.0000  
G00 X-19.4066 Y44.9877 
G01 Z-0.2000 F250   
G01 X-19.3301 Y45.1378 F200   
G01 X-19.2311 Y45.2741 
G01 X-19.1121 Y45.3931 
G01 X-18.9758 Y45.4921 
G01 X-18.8257 Y45.5686 
G01 X-18.6656 Y45.6207 
G01 X-18.4992 Y45.6470 
G01 X-18.3308 Y45.6470 
G01 X-18.1644 Y45.6207 
G01 X-18.0043 Y45.5686 
G01 X-17.8542 Y45.4921 
G01 X-17.7179 Y45.3931 
G01 X-17.5989 Y45.2741 
G01 X-17.4999 Y45.1378 
G01 X-17.4234 Y44.9877 
G01 X-17.3713 Y44.8276 
G01 X-17.3450 Y44.6612 
G01 X-17.3450 Y44.4928 
G01 X-17.3713 Y44.3264 
G01 X-17.4234 Y44.1663 
G01 X-17.4999 Y44.0162 
G01 X-17.5989 Y43.8799 
G01 X-17.7179 Y43.7609 
G01 X-17.8542 Y43.6619 
G01 X-18.0043 Y43.5854 
G01 X-18.1644 Y43.5333 
G01 X-18.3308 Y43.5070 
G01 X-18.4992 Y43.5070 
G01 X-18.6656 Y43.5333 
G01 X-18.8257 Y43.5854 
G01 X-18.9758 Y43.6619 
G01 X-19.1121 Y43.7609 
G01 X-19.2311 Y43.8799 
G01 X-19.3301 Y44.0162 
G01 X-19.4066 Y44.1663 
G01 X-19.4348 Y44.2530 
G01 X-19.5508 Y44.2530 
G01 X-20.5040 Y43.2998 
G01 X-20.5040 Y29.8023 
G01 X-20.5261 Y29.7199 
G01 X-20.5687 Y29.6461 
G01 X-20.6291 Y29.5857 
G01 X-23.0313 Y27.1835 
G01 X-23.0313 Y27.1170 
G01 X-23.0629 Y26.9990 
G01 X-23.1239 Y26.8933 
G01 X-23.2103 Y26.8069 
G01 X-23.3160 Y26.7459 
G01 X-23.4339 Y26.7143 
G01 X-23.5560 Y26.7143 
G01 X-23.6740 Y26.7459 
G01 X-23.7797 Y26.8069 
G01 X-23.8661 Y26.8933 
G01 X-23.9271 Y26.9990 
G01 X-23.9587 Y27.1170 
G01 X-23.9587 Y27.2390 
G01 X-23.9271 Y27.3570 
G01 X-23.8661 Y27.4627 
G01 X-23.7797 Y27.5491 
G01 X-23.6740 Y27.6101 
G01 X-23.5560 Y27.6417 
G01 X-23.4895 Y27.6417 
G01 X-21.1520 Y29.9792 
G01 X-21.1520 Y43.4767 
G01 X-21.1299 Y43.5591 
G01 X-21.0873 Y43.6329 
G01 X-21.0269 Y43.6933 
G01 X-19.8839 Y44.8363 
G01 X-19.8101 Y44.8789 
G01 X-19.7277 Y44.9010 
G01 X-19.4348 Y44.9010 
G01 X-19.4066 Y44.9877 
G00 Z5.0000  
G00 X-11.8650 Y34.9678 
G01 Z-0.2000 F250   
G01 X-11.8650 Y35.1362 F200   
G01 X-11.8387 Y35.3026 
G01 X-11.7866 Y35.4627 
G01 X-11.7101 Y35.6128 
G01 X-11.6111 Y35.7491 
G01 X-11.4921 Y35.8681 
G01 X-11.3558 Y35.9671 
G01 X-11.2057 Y36.0436 
G01 X-11.0456 Y36.0956 
G01 X-10.8792 Y36.1220 
G01 X-10.7108 Y36.1220 
G01 X-10.5444 Y36.0956 
G01 X-10.3843 Y36.0436 
G01 X-10.2342 Y35.9671 
G01 X-10.0979 Y35.8681 
G01 X-9.9789 Y35.7491 
G01 X-9.8799 Y35.6128 
G01 X-9.8034 Y35.4627 
G01 X-9.7513 Y35.3026 
G01 X-9.7250 Y35.1362 
G01 X-9.7250 Y34.9678 
G01 X-9.7513 Y34.8014 
G01 X-9.8034 Y34.6413 
G01 X-9.8799 Y34.4912 
G01 X-9.9789 Y34.3549 
G01 X-10.0979 Y34.2358 
G01 X-10.2342 Y34.1369 
G01 X-10.3843 Y34.0604 
G01 X-10.5444 Y34.0083 
G01 X-10.7108 Y33.9820 
G01 X-10.8792 Y33.9820 
G01 X-11.0456 Y34.0083 
G01 X-11.2057 Y34.0604 
G01 X-11.3558 Y34.1369 
G01 X-11.4921 Y34.2358 
G01 X-11.6111 Y34.3549 
G01 X-11.7101 Y34.4912 
G01 X-11.7866 Y34.6413 
G01 X-11.8387 Y34.8014 
G01 X-11.8650 Y34.9678 
G00 Z5.0000  
G00 X-20.2122 Y21.5085 
G01 Z-0.2000 F250   
G01 X-20.2122 Y21.6715 F200   
G01 X-20.1867 Y21.8324 
G01 X-20.1364 Y21.9874 
G01 X-20.0624 Y22.1326 
G01 X-19.9666 Y22.2644 
G01 X-19.8514 Y22.3796 
G01 X-19.7196 Y22.4754 
G01 X-19.5744 Y22.5494 
G01 X-19.4194 Y22.5997 
G01 X-19.2585 Y22.6252 
G01 X-19.0955 Y22.6252 
G01 X-18.9346 Y22.5997 
G01 X-18.7796 Y22.5494 
G01 X-18.6344 Y22.4754 
G01 X-18.5026 Y22.3796 
G01 X-18.3874 Y22.2644 
G01 X-18.2916 Y22.1326 
G01 X-18.2176 Y21.9874 
G01 X-18.1673 Y21.8324 
G01 X-18.1418 Y21.6715 
G01 X-18.1418 Y21.5085 
G01 X-18.1673 Y21.3476 
G01 X-18.2176 Y21.1926 
G01 X-18.2916 Y21.0474 
G01 X-18.3874 Y20.9156 
G01 X-18.5026 Y20.8004 
G01 X-18.6344 Y20.7046 
G01 X-18.7796 Y20.6306 
G01 X-18.9346 Y20.5803 
G01 X-19.0955 Y20.5548 
G01 X-19.2585 Y20.5548 
G01 X-19.4194 Y20.5803 
G01 X-19.5744 Y20.6306 
G01 X-19.7196 Y20.7046 
G01 X-19.8514 Y20.8004 
G01 X-19.9666 Y20.9156 
G01 X-20.0624 Y21.0474 
G01 X-20.1364 Y21.1926 
G01 X-20.1867 Y21.3476 
G01 X-20.2122 Y21.5085 
G00 Z5.0000  
G00 X-17.6722 Y21.5085 
G01 Z-0.2000 F250   
G01 X-17.6722 Y21.6715 F200   
G01 X-17.6467 Y21.8324 
G01 X-17.5964 Y21.9874 
G01 X-17.5224 Y22.1326 
G01 X-17.4266 Y22.2644 
G01 X-17.3114 Y22.3796 
G01 X-17.1796 Y22.4754 
G01 X-17.0344 Y22.5494 
G01 X-16.9610 Y22.5732 
G01 X-16.9610 Y23.6148 
G01 X-17.4062 Y24.0600 
G01 X-19.4737 Y24.0600 
G01 X-19.5561 Y24.0821 
G01 X-19.6299 Y24.1247 
G01 X-19.6903 Y24.1851 
G01 X-30.6975 Y24.1870 
G01 X-30.7366 Y24.1870 
G01 X-30.7732 Y24.1870 
G01 X-30.9765 Y24.1891 
G01 X-31.4505 Y24.1680 
G01 X-31.9219 Y24.1134 
G01 X-32.3882 Y24.0255 
G01 X-32.8471 Y23.9049 
G01 X-33.2963 Y23.7521 
G01 X-33.7336 Y23.5678 
G01 X-34.1568 Y23.3531 
G01 X-34.5637 Y23.1090 
G01 X-34.9523 Y22.8366 
G01 X-35.3206 Y22.5375 
G01 X-35.6668 Y22.2130 
G01 X-35.9892 Y21.8649 
G01 X-36.2862 Y21.4948 
G01 X-36.5562 Y21.1046 
G01 X-36.7979 Y20.6962 
G01 X-36.9078 Y20.4859 
G01 X-37.0262 Y20.2492 
G01 X-37.1552 Y19.7793 
G01 X-37.4613 Y18.8133 
G01 X-37.8047 Y17.8600 
G01 X-38.1848 Y16.9207 
G01 X-38.6011 Y15.9969 
G01 X-39.0529 Y15.0900 
G01 X-39.5397 Y14.2012 
G01 X-40.0605 Y13.3321 
G01 X-40.6147 Y12.4838 
G01 X-41.2014 Y11.6576 
G01 X-41.8198 Y10.8549 
G01 X-42.4688 Y10.0768 
G01 X-43.1476 Y9.3245  
G01 X-43.8550 Y8.5990  
G01 X-44.5901 Y7.9016  
G01 X-45.3517 Y7.2333  
G01 X-46.1387 Y6.5950  
G01 X-46.9499 Y5.9877  
G01 X-47.7840 Y5.4125  
G01 X-48.6398 Y4.8700  
G01 X-49.5161 Y4.3611  
G01 X-50.4114 Y3.8867  
G01 X-51.3245 Y3.4474  
G01 X-52.2540 Y3.0438  
G01 X-53.1984 Y2.6766  
G01 X-54.1563 Y2.3464  
G01 X-55.1264 Y2.0537  
G01 X-56.1071 Y1.7987  
G01 X-57.0969 Y1.5821  
G01 X-58.0944 Y1.4041  
G01 X-59.0981 Y1.2649  
G01 X-60.1064 Y1.1648  
G01 X-61.1179 Y1.1039  
G01 X-62.1309 Y1.0823  
G01 X-63.1441 Y1.1000  
G01 X-64.1557 Y1.1571  
G01 X-65.1644 Y1.2534  
G01 X-66.1686 Y1.3888  
G01 X-67.1668 Y1.5631  
G01 X-68.1574 Y1.7760  
G01 X-69.1391 Y2.0272  
G01 X-70.1102 Y2.3163  
G01 X-71.0694 Y2.6429  
G01 X-72.0152 Y3.0065  
G01 X-72.9462 Y3.4066  
G01 X-73.8609 Y3.8425  
G01 X-74.7581 Y4.3135  
G01 X-75.6362 Y4.8190  
G01 X-76.4941 Y5.3583  
G01 X-77.3304 Y5.9304  
G01 X-78.1438 Y6.5346  
G01 X-78.9332 Y7.1699  
G01 X-79.6973 Y7.8354  
G01 X-80.4351 Y8.5300  
G01 X-81.1453 Y9.2528  
G01 X-81.8268 Y10.0025 
G01 X-82.4788 Y10.7782 
G01 X-83.1002 Y11.5786 
G01 X-83.6900 Y12.4025 
G01 X-84.2474 Y13.2487 
G01 X-84.7715 Y14.1159 
G01 X-85.2616 Y15.0028 
G01 X-85.7169 Y15.9080 
G01 X-86.1366 Y16.8303 
G01 X-86.5203 Y17.7681 
G01 X-86.8673 Y18.7201 
G01 X-87.1770 Y19.6849 
G01 X-87.4491 Y20.6610 
G01 X-87.6830 Y21.6469 
G01 X-87.8785 Y22.6411 
G01 X-88.0353 Y23.6422 
G01 X-88.1530 Y24.6486 
G01 X-88.2317 Y25.6588 
G01 X-88.2710 Y26.6714 
G01 X-88.2710 Y27.6775 
G01 X-88.2323 Y28.6758 
G01 X-88.1548 Y29.6719 
G01 X-88.0389 Y30.6642 
G01 X-87.8845 Y31.6512 
G01 X-87.6920 Y32.6316 
G01 X-87.4616 Y33.6037 
G01 X-87.1936 Y34.5661 
G01 X-86.8886 Y35.5175 
G01 X-86.5469 Y36.4563 
G01 X-86.1691 Y37.3811 
G01 X-85.7556 Y38.2906 
G01 X-85.3073 Y39.1834 
G01 X-84.8246 Y40.0582 
G01 X-84.3084 Y40.9135 
G01 X-83.7594 Y41.7482 
G01 X-83.1785 Y42.5610 
G01 X-82.5664 Y43.3507 
G01 X-81.9243 Y44.1160 
G01 X-81.2529 Y44.8558 
G01 X-80.5533 Y45.5691 
G01 X-79.8267 Y46.2547 
G01 X-79.0739 Y46.9116 
G01 X-78.2963 Y47.5388 
G01 X-77.4949 Y48.1354 
G01 X-76.6710 Y48.7005 
G01 X-75.8259 Y49.2332 
G01 X-74.9606 Y49.7327 
G01 X-74.0767 Y50.1983 
G01 X-73.1754 Y50.6293 
G01 X-72.2581 Y51.0250 
G01 X-71.3261 Y51.3848 
G01 X-70.3808 Y51.7082 
G01 X-69.4237 Y51.9948 
G01 X-68.4562 Y52.2440 
G01 X-67.4798 Y52.4555 
G01 X-66.4960 Y52.6290 
G01 X-65.5061 Y52.7642 
G01 X-64.5117 Y52.8609 
G01 X-63.5144 Y52.9190 
G01 X-62.5155 Y52.9383 
G01 X-61.5166 Y52.9190 
G01 X-60.5193 Y52.8609 
G01 X-59.5249 Y52.7642 
G01 X-58.5350 Y52.6290 
G01 X-57.5512 Y52.4555 
G01 X-56.5748 Y52.2440 
G01 X-55.6073 Y51.9948 
G01 X-54.6502 Y51.7082 
G01 X-53.7049 Y51.3848 
G01 X-52.7729 Y51.0250 
G01 X-51.8556 Y50.6293 
G01 X-50.9543 Y50.1983 
G01 X-50.0704 Y49.7327 
G01 X-49.2051 Y49.2332 
G01 X-48.3600 Y48.7005 
G01 X-47.5361 Y48.1354 
G01 X-46.7347 Y47.5388 
G01 X-45.9571 Y46.9116 
G01 X-45.2044 Y46.2547 
G01 X-44.4777 Y45.5691 
G01 X-43.7781 Y44.8558 
G01 X-43.1067 Y44.1160 
G01 X-42.4646 Y43.3507 
G01 X-41.8525 Y42.5610 
G01 X-41.2716 Y41.7482 
G01 X-40.7226 Y40.9135 
G01 X-40.2064 Y40.0582 
G01 X-39.7237 Y39.1834 
G01 X-39.2754 Y38.2907 
G01 X-38.8619 Y37.3812 
G01 X-38.4841 Y36.4563 
G01 X-38.1424 Y35.5175 
G01 X-37.8374 Y34.5662 
G01 X-37.5694 Y33.6037 
G01 X-37.3390 Y32.6316 
G01 X-37.1465 Y31.6512 
G01 X-36.9921 Y30.6642 
G01 X-36.8762 Y29.6719 
G01 X-36.7987 Y28.6758 
G01 X-36.7600 Y27.6775 
G01 X-36.7600 Y26.6785 
G01 X-36.7992 Y25.6802 
G01 X-36.8776 Y24.6842 
G01 X-36.9950 Y23.6920 
G01 X-37.1513 Y22.7052 
G01 X-37.3462 Y21.7254 
G01 X-37.5795 Y20.7539 
G01 X-37.8507 Y19.7923 
G01 X-38.1594 Y18.8421 
G01 X-38.5052 Y17.9048 
G01 X-38.8875 Y16.9818 
G01 X-39.3058 Y16.0745 
G01 X-39.7594 Y15.1843 
G01 X-40.2475 Y14.3126 
G01 X-40.7695 Y13.4608 
G01 X-41.3246 Y12.6301 
G01 X-41.9118 Y11.8218 
G01 X-42.5304 Y11.0372 
G01 X-43.1792 Y10.2775 
G01 X-43.8574 Y9.5438  
G01 X-44.5638 Y8.8374  
G01 X-45.2975 Y8.1592  
G01 X-46.0572 Y7.5104  
G01 X-46.8418 Y6.8918  
G01 X-47.6501 Y6.3046  
G01 X-48.4808 Y5.7495  
G01 X-49.3326 Y5.2275  
G01 X-50.2043 Y4.7394  
G01 X-51.0945 Y4.2858  
G01 X-52.0018 Y3.8675  
G01 X-52.9248 Y3.4852  
G01 X-53.8621 Y3.1394  
G01 X-54.8123 Y2.8307  
G01 X-55.7739 Y2.5595  
G01 X-56.7454 Y2.3262  
G01 X-57.7252 Y2.1313  
G01 X-58.7120 Y1.9750  
G01 X-59.7042 Y1.8576  
G01 X-60.7002 Y1.7792  
G01 X-61.6985 Y1.7400  
G01 X-62.6975 Y1.7400  
G01 X-63.6958 Y1.7792  
G01 X-64.6918 Y1.8576  
G01 X-65.6840 Y1.9750  
G01 X-66.6708 Y2.1313  
G01 X-67.6506 Y2.3262  
G01 X-68.6221 Y2.5595  
G01 X-69.5837 Y2.8307  
G01 X-70.5339 Y3.1394  
G01 X-71.4712 Y3.4852  
G01 X-72.3942 Y3.8675  
G01 X-73.3015 Y4.2858  
G01 X-74.1917 Y4.7394  
G01 X-75.0634 Y5.2275  
G01 X-75.9152 Y5.7495  
G01 X-76.7459 Y6.3046  
G01 X-77.5542 Y6.8918  
G01 X-78.3388 Y7.5104  
G01 X-79.0985 Y8.1592  
G01 X-79.8321 Y8.8374  
G01 X-80.5386 Y9.5438  
G01 X-81.2168 Y10.2775 
G01 X-81.8656 Y11.0372 
G01 X-82.4841 Y11.8218 
G01 X-83.0714 Y12.6301 
G01 X-83.6265 Y13.4608 
G01 X-84.1485 Y14.3126 
G01 X-84.6366 Y15.1843 
G01 X-85.0902 Y16.0745 
G01 X-85.5085 Y16.9818 
G01 X-85.8908 Y17.9048 
G01 X-86.2366 Y18.8421 
G01 X-86.5453 Y19.7923 
G01 X-86.8165 Y20.7539 
G01 X-87.0498 Y21.7254 
G01 X-87.2447 Y22.7052 
G01 X-87.4010 Y23.6920 
G01 X-87.5184 Y24.6842 
G01 X-87.5968 Y25.6802 
G01 X-87.6360 Y26.6785 
G01 X-87.6360 Y27.6713 
G01 X-87.5973 Y28.6571 
G01 X-87.5199 Y29.6407 
G01 X-87.4039 Y30.6205 
G01 X-87.2496 Y31.5949 
G01 X-87.0571 Y32.5626 
G01 X-86.8268 Y33.5219 
G01 X-86.5590 Y34.4715 
G01 X-86.2541 Y35.4098 
G01 X-85.9126 Y36.3354 
G01 X-85.5350 Y37.2469 
G01 X-85.1220 Y38.1429 
G01 X-84.6741 Y39.0220 
G01 X-84.1920 Y39.8828 
G01 X-83.6765 Y40.7240 
G01 X-83.1284 Y41.5444 
G01 X-82.5485 Y42.3425 
G01 X-81.9377 Y43.1173 
G01 X-81.2969 Y43.8676 
G01 X-80.6272 Y44.5921 
G01 X-79.9296 Y45.2897 
G01 X-79.2051 Y45.9594 
G01 X-78.4548 Y46.6001 
G01 X-77.6800 Y47.2110 
G01 X-76.8819 Y47.7909 
G01 X-76.0615 Y48.3390 
G01 X-75.2203 Y48.8545 
G01 X-74.3595 Y49.3366 
G01 X-73.4804 Y49.7845 
G01 X-72.5845 Y50.1975 
G01 X-71.6729 Y50.5751 
G01 X-70.7473 Y50.9166 
G01 X-69.8090 Y51.2215 
G01 X-68.8594 Y51.4893 
G01 X-67.9001 Y51.7196 
G01 X-66.9324 Y51.9121 
G01 X-65.9580 Y52.0664 
G01 X-64.9782 Y52.1824 
G01 X-63.9947 Y52.2598 
G01 X-63.0088 Y52.2985 
G01 X-62.0222 Y52.2985 
G01 X-61.0364 Y52.2598 
G01 X-60.0528 Y52.1824 
G01 X-59.0730 Y52.0664 
G01 X-58.0986 Y51.9121 
G01 X-57.1309 Y51.7196 
G01 X-56.1716 Y51.4893 
G01 X-55.2220 Y51.2215 
G01 X-54.2837 Y50.9166 
G01 X-53.3581 Y50.5751 
G01 X-52.4466 Y50.1975 
G01 X-51.5506 Y49.7845 
G01 X-50.6715 Y49.3366 
G01 X-49.8107 Y48.8545 
G01 X-48.9695 Y48.3390 
G01 X-48.1491 Y47.7909 
G01 X-47.3510 Y47.2110 
G01 X-46.5762 Y46.6001 
G01 X-45.8259 Y45.9594 
G01 X-45.1014 Y45.2897 
G01 X-44.4038 Y44.5921 
G01 X-43.7341 Y43.8676 
G01 X-43.0934 Y43.1173 
G01 X-42.4825 Y42.3425 
G01 X-41.9026 Y41.5444 
G01 X-41.3545 Y40.7240 
G01 X-40.8390 Y39.8828 
G01 X-40.3569 Y39.0220 
G01 X-39.9090 Y38.1429 
G01 X-39.4960 Y37.2470 
G01 X-39.1184 Y36.3354 
G01 X-38.7769 Y35.4098 
G01 X-38.4720 Y34.4715 
G01 X-38.2042 Y33.5219 
G01 X-37.9739 Y32.5626 
G01 X-37.7814 Y31.5949 
G01 X-37.6271 Y30.6205 
G01 X-37.5111 Y29.6407 
G01 X-37.4337 Y28.6572 
G01 X-37.3950 Y27.6713 
G01 X-37.3950 Y26.6848 
G01 X-37.4342 Y25.6991 
G01 X-37.5126 Y24.7157 
G01 X-37.6300 Y23.7363 
G01 X-37.7863 Y22.7622 
G01 X-37.9811 Y21.7952 
G01 X-38.2143 Y20.8367 
G01 X-38.4853 Y19.8882 
G01 X-38.7939 Y18.9512 
G01 X-39.1395 Y18.0273 
G01 X-39.5215 Y17.1178 
G01 X-39.9394 Y16.2242 
G01 X-40.3925 Y15.3479 
G01 X-40.8800 Y14.4904 
G01 X-41.4013 Y13.6529 
G01 X-41.9555 Y12.8368 
G01 X-42.5416 Y12.0433 
G01 X-43.1589 Y11.2738 
G01 X-43.8062 Y10.5295 
G01 X-44.4826 Y9.8114  
G01 X-45.1871 Y9.1209  
G01 X-45.9184 Y8.4588  
G01 X-46.6755 Y7.8264  
G01 X-47.4571 Y7.2246  
G01 X-48.2621 Y6.6543  
G01 X-49.0890 Y6.1165  
G01 X-49.9367 Y5.6120  
G01 X-50.8038 Y5.1416  
G01 X-51.6889 Y4.7060  
G01 X-52.5906 Y4.3060  
G01 X-53.5075 Y3.9421  
G01 X-54.4382 Y3.6150  
G01 X-55.3811 Y3.3251  
G01 X-56.3348 Y3.0729  
G01 X-57.2978 Y2.8589  
G01 X-58.2685 Y2.6833  
G01 X-59.2454 Y2.5464  
G01 X-60.2270 Y2.4485  
G01 X-61.2117 Y2.3897  
G01 X-62.1980 Y2.3701  
G01 X-63.1843 Y2.3897  
G01 X-64.1690 Y2.4485  
G01 X-65.1506 Y2.5464  
G01 X-66.1275 Y2.6833  
G01 X-67.0982 Y2.8589  
G01 X-68.0612 Y3.0729  
G01 X-69.0149 Y3.3251  
G01 X-69.9578 Y3.6150  
G01 X-70.8885 Y3.9421  
G01 X-71.8054 Y4.3060  
G01 X-72.7071 Y4.7060  
G01 X-73.5922 Y5.1416  
G01 X-74.4593 Y5.6120  
G01 X-75.3070 Y6.1165  
G01 X-76.1339 Y6.6543  
G01 X-76.9389 Y7.2246  
G01 X-77.7205 Y7.8264  
G01 X-78.4776 Y8.4588  
G01 X-79.2089 Y9.1209  
G01 X-79.9134 Y9.8114  
G01 X-80.5898 Y10.5295 
G01 X-81.2371 Y11.2738 
G01 X-81.8544 Y12.0433 
G01 X-82.4405 Y12.8367 
G01 X-82.9947 Y13.6529 
G01 X-83.5160 Y14.4904 
G01 X-84.0035 Y15.3479 
G01 X-84.4566 Y16.2242 
G01 X-84.8745 Y17.1178 
G01 X-85.2565 Y18.0273 
G01 X-85.6021 Y18.9512 
G01 X-85.9107 Y19.8882 
G01 X-86.1817 Y20.8367 
G01 X-86.4149 Y21.7952 
G01 X-86.6097 Y22.7622 
G01 X-86.7660 Y23.7363 
G01 X-86.8834 Y24.7157 
G01 X-86.9618 Y25.6991 
G01 X-87.0010 Y26.6848 
G01 X-87.0010 Y27.6649 
G01 X-86.9623 Y28.6380 
G01 X-86.8849 Y29.6088 
G01 X-86.7690 Y30.5757 
G01 X-86.6148 Y31.5372 
G01 X-86.4224 Y32.4919 
G01 X-86.1922 Y33.4381 
G01 X-85.9246 Y34.3745 
G01 X-85.6200 Y35.2995 
G01 X-85.2789 Y36.2116 
G01 X-84.9017 Y37.1095 
G01 X-84.4892 Y37.9916 
G01 X-84.0419 Y38.8566 
G01 X-83.5606 Y39.7032 
G01 X-83.0460 Y40.5300 
G01 X-82.4989 Y41.3357 
G01 X-81.9203 Y42.1189 
G01 X-81.3109 Y42.8786 
G01 X-80.6719 Y43.6134 
G01 X-80.0041 Y44.3223 
G01 X-79.3087 Y45.0040 
G01 X-78.5867 Y45.6575 
G01 X-77.8393 Y46.2819 
G01 X-77.0677 Y46.8760 
G01 X-76.2731 Y47.4390 
G01 X-75.4567 Y47.9699 
G01 X-74.6198 Y48.4679 
G01 X-73.7638 Y48.9323 
G01 X-72.8901 Y49.3623 
G01 X-71.9999 Y49.7573 
G01 X-71.0947 Y50.1165 
G01 X-70.1760 Y50.4394 
G01 X-69.2451 Y50.7256 
G01 X-68.3037 Y50.9745 
G01 X-67.3530 Y51.1858 
G01 X-66.3947 Y51.3592 
G01 X-65.4303 Y51.4943 
G01 X-64.4613 Y51.5909 
G01 X-63.4892 Y51.6490 
G01 X-62.5155 Y51.6683 
G01 X-61.5419 Y51.6490 
G01 X-60.5697 Y51.5909 
G01 X-59.6007 Y51.4943 
G01 X-58.6363 Y51.3592 
G01 X-57.6780 Y51.1858 
G01 X-56.7273 Y50.9745 
G01 X-55.7859 Y50.7256 
G01 X-54.8550 Y50.4394 
G01 X-53.9363 Y50.1165 
G01 X-53.0311 Y49.7573 
G01 X-52.1409 Y49.3623 
G01 X-51.2672 Y48.9323 
G01 X-50.4112 Y48.4679 
G01 X-49.5743 Y47.9699 
G01 X-48.7579 Y47.4390 
G01 X-47.9633 Y46.8760 
G01 X-47.1917 Y46.2819 
G01 X-46.4443 Y45.6575 
G01 X-45.7223 Y45.0040 
G01 X-45.0269 Y44.3223 
G01 X-44.3591 Y43.6134 
G01 X-43.7201 Y42.8786 
G01 X-43.1107 Y42.1189 
G01 X-42.5321 Y41.3357 
G01 X-41.9850 Y40.5300 
G01 X-41.4704 Y39.7032 
G01 X-40.9891 Y38.8566 
G01 X-40.5418 Y37.9916 
G01 X-40.1293 Y37.1095 
G01 X-39.7521 Y36.2116 
G01 X-39.4110 Y35.2995 
G01 X-39.1064 Y34.3745 
G01 X-38.8388 Y33.4381 
G01 X-38.6086 Y32.4919 
G01 X-38.4162 Y31.5372 
G01 X-38.2620 Y30.5757 
G01 X-38.1461 Y29.6088 
G01 X-38.0687 Y28.6380 
G01 X-38.0300 Y27.6649 
G01 X-38.0300 Y26.6912 
G01 X-38.0692 Y25.7185 
G01 X-38.1475 Y24.7481 
G01 X-38.2649 Y23.7816 
G01 X-38.4211 Y22.8207 
G01 X-38.6158 Y21.8668 
G01 X-38.8488 Y20.9216 
G01 X-39.1196 Y19.9865 
G01 X-39.4279 Y19.0631 
G01 X-39.7731 Y18.1528 
G01 X-40.1547 Y17.2571 
G01 X-40.5721 Y16.3776 
G01 X-41.0245 Y15.5156 
G01 X-41.5113 Y14.6724 
G01 X-42.0316 Y13.8496 
G01 X-42.5846 Y13.0484 
G01 X-43.1695 Y12.2701 
G01 X-43.7852 Y11.5160 
G01 X-44.4308 Y10.7873 
G01 X-45.1052 Y10.0852 
G01 X-45.8073 Y9.4108  
G01 X-46.5360 Y8.7652  
G01 X-47.2901 Y8.1495  
G01 X-48.0684 Y7.5646  
G01 X-48.8696 Y7.0116  
G01 X-49.6924 Y6.4913  
G01 X-50.5356 Y6.0045  
G01 X-51.3976 Y5.5521  
G01 X-52.2771 Y5.1347  
G01 X-53.1728 Y4.7531  
G01 X-54.0830 Y4.4079  
G01 X-55.0065 Y4.0996  
G01 X-55.9416 Y3.8288  
G01 X-56.8868 Y3.5958  
G01 X-57.8407 Y3.4011  
G01 X-58.8016 Y3.2449  
G01 X-59.7681 Y3.1275  
G01 X-60.7385 Y3.0492  
G01 X-61.7112 Y3.0100  
G01 X-62.6848 Y3.0100  
G01 X-63.6575 Y3.0492  
G01 X-64.6279 Y3.1275  
G01 X-65.5944 Y3.2449  
G01 X-66.5553 Y3.4011  
G01 X-67.5092 Y3.5958  
G01 X-68.4544 Y3.8288  
G01 X-69.3895 Y4.0996  
G01 X-70.3129 Y4.4079  
G01 X-71.2232 Y4.7531  
G01 X-72.1189 Y5.1347  
G01 X-72.9984 Y5.5521  
G01 X-73.8604 Y6.0045  
G01 X-74.7036 Y6.4913  
G01 X-75.5264 Y7.0116  
G01 X-76.3276 Y7.5646  
G01 X-77.1059 Y8.1495  
G01 X-77.8600 Y8.7652  
G01 X-78.5887 Y9.4108  
G01 X-79.2908 Y10.0852 
G01 X-79.9652 Y10.7873 
G01 X-80.6108 Y11.5160 
G01 X-81.2265 Y12.2701 
G01 X-81.8114 Y13.0484 
G01 X-82.3644 Y13.8496 
G01 X-82.8847 Y14.6724 
G01 X-83.3715 Y15.5156 
G01 X-83.8239 Y16.3776 
G01 X-84.2413 Y17.2571 
G01 X-84.6229 Y18.1528 
G01 X-84.9681 Y19.0630 
G01 X-85.2764 Y19.9865 
G01 X-85.5472 Y20.9216 
G01 X-85.7802 Y21.8668 
G01 X-85.9749 Y22.8207 
G01 X-86.1311 Y23.7816 
G01 X-86.2485 Y24.7481 
G01 X-86.3268 Y25.7185 
G01 X-86.3660 Y26.6912 
G01 X-86.3660 Y27.6584 
G01 X-86.3273 Y28.6183 
G01 X-86.2500 Y29.5760 
G01 X-86.1342 Y30.5297 
G01 X-85.9801 Y31.4780 
G01 X-85.7879 Y32.4194 
G01 X-85.5580 Y33.3522 
G01 X-85.2907 Y34.2750 
G01 X-84.9864 Y35.1863 
G01 X-84.6458 Y36.0847 
G01 X-84.2692 Y36.9685 
G01 X-83.8573 Y37.8365 
G01 X-83.4108 Y38.6872 
G01 X-82.9304 Y39.5193 
G01 X-82.4170 Y40.3313 
G01 X-81.8712 Y41.1220 
G01 X-81.2940 Y41.8900 
G01 X-80.6864 Y42.6342 
G01 X-80.0493 Y43.3534 
G01 X-79.3838 Y44.0463 
G01 X-78.6909 Y44.7118 
G01 X-77.9717 Y45.3489 
G01 X-77.2275 Y45.9565 
G01 X-76.4595 Y46.5337 
G01 X-75.6688 Y47.0795 
G01 X-74.8568 Y47.5929 
G01 X-74.0247 Y48.0733 
G01 X-73.1740 Y48.5198 
G01 X-72.3060 Y48.9317 
G01 X-71.4222 Y49.3083 
G01 X-70.5238 Y49.6489 
G01 X-69.6125 Y49.9532 
G01 X-68.6897 Y50.2205 
G01 X-67.7569 Y50.4504 
G01 X-66.8155 Y50.6426 
G01 X-65.8672 Y50.7967 
G01 X-64.9135 Y50.9125 
G01 X-63.9559 Y50.9898 
G01 X-62.9959 Y51.0285 
G01 X-62.0351 Y51.0285 
G01 X-61.0752 Y50.9898 
G01 X-60.1175 Y50.9125 
G01 X-59.1638 Y50.7967 
G01 X-58.2155 Y50.6426 
G01 X-57.2741 Y50.4504 
G01 X-56.3413 Y50.2205 
G01 X-55.4185 Y49.9532 
G01 X-54.5072 Y49.6489 
G01 X-53.6088 Y49.3083 
G01 X-52.7250 Y48.9317 
G01 X-51.8570 Y48.5198 
G01 X-51.0063 Y48.0733 
G01 X-50.1742 Y47.5929 
G01 X-49.3622 Y47.0795 
G01 X-48.5715 Y46.5337 
G01 X-47.8035 Y45.9565 
G01 X-47.0593 Y45.3489 
G01 X-46.3401 Y44.7118 
G01 X-45.6472 Y44.0463 
G01 X-44.9817 Y43.3534 
G01 X-44.3446 Y42.6342 
G01 X-43.7370 Y41.8900 
G01 X-43.1598 Y41.1220 
G01 X-42.6140 Y40.3313 
G01 X-42.1006 Y39.5193 
G01 X-41.6202 Y38.6872 
G01 X-41.1737 Y37.8365 
G01 X-40.7618 Y36.9685 
G01 X-40.3852 Y36.0847 
G01 X-40.0446 Y35.1863 
G01 X-39.7403 Y34.2750 
G01 X-39.4730 Y33.3522 
G01 X-39.2431 Y32.4194 
G01 X-39.0509 Y31.4780 
G01 X-38.8968 Y30.5297 
G01 X-38.7810 Y29.5760 
G01 X-38.7037 Y28.6184 
G01 X-38.6650 Y27.6584 
G01 X-38.6650 Y26.6979 
G01 X-38.7042 Y25.7384 
G01 X-38.7824 Y24.7813 
G01 X-38.8997 Y23.8282 
G01 X-39.0557 Y22.8807 
G01 X-39.2502 Y21.9403 
G01 X-39.4830 Y21.0087 
G01 X-39.7535 Y20.0873 
G01 X-40.0614 Y19.1777 
G01 X-40.4062 Y18.2815 
G01 X-40.7872 Y17.4000 
G01 X-41.2038 Y16.5348 
G01 X-41.6554 Y15.6874 
G01 X-42.1412 Y14.8590 
G01 X-42.6604 Y14.0512 
G01 X-43.2120 Y13.2652 
G01 X-43.7953 Y12.5024 
G01 X-44.4092 Y11.7640 
G01 X-45.0528 Y11.0512 
G01 X-45.7248 Y10.3653 
G01 X-46.4243 Y9.7074  
G01 X-47.1500 Y9.0785  
G01 X-47.9008 Y8.4798  
G01 X-48.6754 Y7.9122  
G01 X-49.4725 Y7.3767  
G01 X-50.2907 Y6.8741  
G01 X-51.1288 Y6.4053  
G01 X-51.9853 Y5.9711  
G01 X-52.8588 Y5.5722  
G01 X-53.7478 Y5.2092  
G01 X-54.6509 Y4.8828  
G01 X-55.5666 Y4.5936  
G01 X-56.4933 Y4.3419  
G01 X-57.4295 Y4.1282  
G01 X-58.3737 Y3.9529  
G01 X-59.3242 Y3.8162  
G01 X-60.2794 Y3.7184  
G01 X-61.2379 Y3.6597  
G01 X-62.1980 Y3.6401  
G01 X-63.1581 Y3.6597  
G01 X-64.1166 Y3.7184  
G01 X-65.0718 Y3.8162  
G01 X-66.0223 Y3.9529  
G01 X-66.9665 Y4.1282  
G01 X-67.9027 Y4.3419  
G01 X-68.8294 Y4.5936  
G01 X-69.7451 Y4.8828  
G01 X-70.6482 Y5.2092  
G01 X-71.5372 Y5.5722  
G01 X-72.4107 Y5.9711  
G01 X-73.2672 Y6.4053  
G01 X-74.1053 Y6.8741  
G01 X-74.9235 Y7.3767  
G01 X-75.7206 Y7.9122  
G01 X-76.4952 Y8.4798  
G01 X-77.2460 Y9.0785  
G01 X-77.9717 Y9.7074  
G01 X-78.6712 Y10.3653 
G01 X-79.3432 Y11.0512 
G01 X-79.9868 Y11.7640 
G01 X-80.6007 Y12.5024 
G01 X-81.1840 Y13.2652 
G01 X-81.7356 Y14.0512 
G01 X-82.2548 Y14.8590 
G01 X-82.7406 Y15.6874 
G01 X-83.1922 Y16.5348 
G01 X-83.6088 Y17.4000 
G01 X-83.9898 Y18.2815 
G01 X-84.3346 Y19.1777 
G01 X-84.6425 Y20.0873 
G01 X-84.9130 Y21.0087 
G01 X-85.1458 Y21.9403 
G01 X-85.3403 Y22.8807 
G01 X-85.4963 Y23.8282 
G01 X-85.6136 Y24.7813 
G01 X-85.6918 Y25.7384 
G01 X-85.7310 Y26.6979 
G01 X-85.7310 Y27.6517 
G01 X-85.6924 Y28.5982 
G01 X-85.6151 Y29.5424 
G01 X-85.4995 Y30.4826 
G01 X-85.3456 Y31.4173 
G01 X-85.1536 Y32.3450 
G01 X-84.9241 Y33.2641 
G01 X-84.6572 Y34.1730 
G01 X-84.3534 Y35.0703 
G01 X-84.0133 Y35.9545 
G01 X-83.6375 Y36.8241 
G01 X-83.2264 Y37.6776 
G01 X-82.7809 Y38.5136 
G01 X-82.3017 Y39.3308 
G01 X-81.7895 Y40.1277 
G01 X-81.2453 Y40.9031 
G01 X-80.6699 Y41.6556 
G01 X-80.0643 Y42.3841 
G01 X-79.4294 Y43.0872 
G01 X-78.7664 Y43.7639 
G01 X-78.0764 Y44.4129 
G01 X-77.3604 Y45.0333 
G01 X-76.6198 Y45.6239 
G01 X-75.8557 Y46.1839 
G01 X-75.0694 Y46.7122 
G01 X-74.2621 Y47.2080 
G01 X-73.4354 Y47.6704 
G01 X-72.5904 Y48.0988 
G01 X-71.7287 Y48.4923 
G01 X-70.8517 Y48.8504 
G01 X-69.9607 Y49.1724 
G01 X-69.0574 Y49.4577 
G01 X-68.1432 Y49.7060 
G01 X-67.2197 Y49.9168 
G01 X-66.2883 Y50.0898 
G01 X-65.3506 Y50.2246 
G01 X-64.4082 Y50.3211 
G01 X-63.4626 Y50.3790 
G01 X-62.5155 Y50.3983 
G01 X-61.5684 Y50.3790 
G01 X-60.6228 Y50.3211 
G01 X-59.6804 Y50.2246 
G01 X-58.7428 Y50.0898 
G01 X-57.8114 Y49.9168 
G01 X-56.8878 Y49.7060 
G01 X-55.9736 Y49.4577 
G01 X-55.0703 Y49.1724 
G01 X-54.1793 Y48.8504 
G01 X-53.3023 Y48.4923 
G01 X-52.4406 Y48.0988 
G01 X-51.5956 Y47.6704 
G01 X-50.7689 Y47.2080 
G01 X-49.9616 Y46.7122 
G01 X-49.1753 Y46.1839 
G01 X-48.4112 Y45.6239 
G01 X-47.6706 Y45.0333 
G01 X-46.9546 Y44.4129 
G01 X-46.2646 Y43.7639 
G01 X-45.6016 Y43.0872 
G01 X-44.9667 Y42.3841 
G01 X-44.3611 Y41.6556 
G01 X-43.7857 Y40.9031 
G01 X-43.2415 Y40.1277 
G01 X-42.7293 Y39.3308 
G01 X-42.2501 Y38.5136 
G01 X-41.8046 Y37.6776 
G01 X-41.3935 Y36.8241 
G01 X-41.0177 Y35.9545 
G01 X-40.6776 Y35.0703 
G01 X-40.3738 Y34.1730 
G01 X-40.1069 Y33.2641 
G01 X-39.8773 Y32.3450 
G01 X-39.6854 Y31.4173 
G01 X-39.5315 Y30.4826 
G01 X-39.4159 Y29.5424 
G01 X-39.3386 Y28.5982 
G01 X-39.3000 Y27.6517 
G01 X-39.3000 Y26.7047 
G01 X-39.3391 Y25.7588 
G01 X-39.4173 Y24.8153 
G01 X-39.5344 Y23.8759 
G01 X-39.6902 Y22.9421 
G01 X-39.8845 Y22.0156 
G01 X-40.1169 Y21.0979 
G01 X-40.3870 Y20.1906 
G01 X-40.6944 Y19.2952 
G01 X-41.0385 Y18.4133 
G01 X-41.4188 Y17.5463 
G01 X-41.8346 Y16.6958 
G01 X-42.2852 Y15.8632 
G01 X-42.7698 Y15.0500 
G01 X-43.2875 Y14.2574 
G01 X-43.8376 Y13.4870 
G01 X-44.4191 Y12.7399 
G01 X-45.0309 Y12.0175 
G01 X-45.6721 Y11.3210 
G01 X-46.3415 Y10.6516 
G01 X-47.0380 Y10.0104 
G01 X-47.7604 Y9.3986  
G01 X-48.5075 Y8.8171  
G01 X-49.2779 Y8.2670  
G01 X-50.0705 Y7.7492  
G01 X-50.8837 Y7.2647  
G01 X-51.7163 Y6.8141  
G01 X-52.5668 Y6.3983  
G01 X-53.4338 Y6.0180  
G01 X-54.3157 Y5.6739  
G01 X-55.2111 Y5.3665  
G01 X-56.1184 Y5.0964  
G01 X-57.0361 Y4.8640  
G01 X-57.9626 Y4.6697  
G01 X-58.8964 Y4.5139  
G01 X-59.8358 Y4.3968  
G01 X-60.7793 Y4.3186  
G01 X-61.7252 Y4.2795  
G01 X-62.6718 Y4.2795  
G01 X-63.6177 Y4.3186  
G01 X-64.5612 Y4.3968  
G01 X-65.5006 Y4.5139  
G01 X-66.4344 Y4.6697  
G01 X-67.3609 Y4.8640  
G01 X-68.2786 Y5.0964  
G01 X-69.1859 Y5.3665  
G01 X-70.0813 Y5.6739  
G01 X-70.9632 Y6.0180  
G01 X-71.8302 Y6.3983  
G01 X-72.6807 Y6.8141  
G01 X-73.5133 Y7.2647  
G01 X-74.3265 Y7.7492  
G01 X-75.1191 Y8.2670  
G01 X-75.8895 Y8.8171  
G01 X-76.6366 Y9.3986  
G01 X-77.3590 Y10.0104 
G01 X-78.0555 Y10.6516 
G01 X-78.7249 Y11.3210 
G01 X-79.3661 Y12.0175 
G01 X-79.9779 Y12.7399 
G01 X-80.5594 Y13.4870 
G01 X-81.1095 Y14.2574 
G01 X-81.6272 Y15.0500 
G01 X-82.1118 Y15.8632 
G01 X-82.5624 Y16.6958 
G01 X-82.9782 Y17.5463 
G01 X-83.3585 Y18.4133 
G01 X-83.7026 Y19.2952 
G01 X-84.0100 Y20.1906 
G01 X-84.2801 Y21.0979 
G01 X-84.5125 Y22.0156 
G01 X-84.7068 Y22.9421 
G01 X-84.8626 Y23.8759 
G01 X-84.9797 Y24.8153 
G01 X-85.0579 Y25.7588 
G01 X-85.0970 Y26.7047 
G01 X-85.0970 Y27.6448 
G01 X-85.0584 Y28.5775 
G01 X-84.9813 Y29.5079 
G01 X-84.8659 Y30.4343 
G01 X-84.7122 Y31.3551 
G01 X-84.5206 Y32.2688 
G01 X-84.2914 Y33.1738 
G01 X-84.0251 Y34.0685 
G01 X-83.7219 Y34.9515 
G01 X-83.3826 Y35.8212 
G01 X-83.0076 Y36.6761 
G01 X-82.5976 Y37.5148 
G01 X-82.1532 Y38.3359 
G01 X-81.6754 Y39.1379 
G01 X-81.1647 Y39.9194 
G01 X-80.6223 Y40.6792 
G01 X-80.0489 Y41.4159 
G01 X-79.4455 Y42.1283 
G01 X-78.8132 Y42.8151 
G01 X-78.1531 Y43.4752 
G01 X-77.4663 Y44.1075 
G01 X-76.7539 Y44.7109 
G01 X-76.0172 Y45.2843 
G01 X-75.2574 Y45.8268 
G01 X-74.4759 Y46.3374 
G01 X-73.6739 Y46.8152 
G01 X-72.8528 Y47.2596 
G01 X-72.0141 Y47.6696 
G01 X-71.1592 Y48.0446 
G01 X-70.2895 Y48.3839 
G01 X-69.4066 Y48.6871 
G01 X-68.5118 Y48.9534 
G01 X-67.6068 Y49.1826 
G01 X-66.6931 Y49.3742 
G01 X-65.7723 Y49.5279 
G01 X-64.8459 Y49.6433 
G01 X-63.9155 Y49.7204 
G01 X-62.9828 Y49.7590 
G01 X-62.0492 Y49.7590 
G01 X-61.1165 Y49.7204 
G01 X-60.1861 Y49.6433 
G01 X-59.2597 Y49.5279 
G01 X-58.3389 Y49.3742 
G01 X-57.4252 Y49.1826 
G01 X-56.5202 Y48.9534 
G01 X-55.6255 Y48.6871 
G01 X-54.7425 Y48.3839 
G01 X-53.8728 Y48.0446 
G01 X-53.0179 Y47.6696 
G01 X-52.1792 Y47.2596 
G01 X-51.3581 Y46.8152 
G01 X-50.5561 Y46.3374 
G01 X-49.7746 Y45.8268 
G01 X-49.0148 Y45.2843 
G01 X-48.2781 Y44.7109 
G01 X-47.5657 Y44.1075 
G01 X-46.8789 Y43.4752 
G01 X-46.2188 Y42.8151 
G01 X-45.5865 Y42.1283 
G01 X-44.9831 Y41.4159 
G01 X-44.4097 Y40.6792 
G01 X-43.8672 Y39.9194 
G01 X-43.3566 Y39.1379 
G01 X-42.8788 Y38.3359 
G01 X-42.4344 Y37.5148 
G01 X-42.0244 Y36.6761 
G01 X-41.6494 Y35.8212 
G01 X-41.3101 Y34.9515 
G01 X-41.0069 Y34.0686 
G01 X-40.7406 Y33.1738 
G01 X-40.5114 Y32.2688 
G01 X-40.3198 Y31.3551 
G01 X-40.1661 Y30.4343 
G01 X-40.0507 Y29.5079 
G01 X-39.9736 Y28.5775 
G01 X-39.9350 Y27.6448 
G01 X-39.9350 Y26.7117 
G01 X-39.9741 Y25.7798 
G01 X-40.0521 Y24.8504 
G01 X-40.1690 Y23.9250 
G01 X-40.3245 Y23.0054 
G01 X-40.5185 Y22.0931 
G01 X-40.7504 Y21.1897 
G01 X-41.0200 Y20.2968 
G01 X-41.3267 Y19.4160 
G01 X-41.6701 Y18.5489 
G01 X-42.0494 Y17.6968 
G01 X-42.4641 Y16.8614 
G01 X-42.9134 Y16.0441 
G01 X-43.3966 Y15.2463 
G01 X-43.9127 Y14.4694 
G01 X-44.4610 Y13.7149 
G01 X-45.0403 Y12.9839 
G01 X-45.6497 Y12.2779 
G01 X-46.2882 Y11.5980 
G01 X-46.9546 Y10.9454 
G01 X-47.6477 Y10.3213 
G01 X-48.3664 Y9.7268  
G01 X-49.1093 Y9.1629  
G01 X-49.8751 Y8.6306  
G01 X-50.6626 Y8.1308  
G01 X-51.4704 Y7.6645  
G01 X-52.2969 Y7.2324  
G01 X-53.1408 Y6.8353  
G01 X-54.0006 Y6.4738  
G01 X-54.8748 Y6.1487  
G01 X-55.7619 Y5.8605  
G01 X-56.6602 Y5.6097  
G01 X-57.5682 Y5.3967  
G01 X-58.4844 Y5.2220  
G01 X-59.4071 Y5.0857  
G01 X-60.3347 Y4.9882  
G01 X-61.2655 Y4.9297  
G01 X-62.1980 Y4.9101  
G01 X-63.1305 Y4.9297  
G01 X-64.0613 Y4.9882  
G01 X-64.9889 Y5.0857  
G01 X-65.9116 Y5.2220  
G01 X-66.8278 Y5.3967  
G01 X-67.7358 Y5.6097  
G01 X-68.6341 Y5.8605  
G01 X-69.5212 Y6.1487  
G01 X-70.3954 Y6.4738  
G01 X-71.2552 Y6.8353  
G01 X-72.0991 Y7.2324  
G01 X-72.9256 Y7.6645  
G01 X-73.7334 Y8.1308  
G01 X-74.5209 Y8.6306  
G01 X-75.2867 Y9.1629  
G01 X-76.0296 Y9.7268  
G01 X-76.7483 Y10.3213 
G01 X-77.4414 Y10.9454 
G01 X-78.1078 Y11.5980 
G01 X-78.7463 Y12.2779 
G01 X-79.3557 Y12.9839 
G01 X-79.9350 Y13.7149 
G01 X-80.4833 Y14.4694 
G01 X-80.9994 Y15.2463 
G01 X-81.4826 Y16.0441 
G01 X-81.9319 Y16.8614 
G01 X-82.3466 Y17.6968 
G01 X-82.7259 Y18.5488 
G01 X-83.0693 Y19.4160 
G01 X-83.3760 Y20.2968 
G01 X-83.6456 Y21.1897 
G01 X-83.8775 Y22.0931 
G01 X-84.0715 Y23.0054 
G01 X-84.2270 Y23.9250 
G01 X-84.3439 Y24.8504 
G01 X-84.4219 Y25.7798 
G01 X-84.4610 Y26.7117 
G01 X-84.4610 Y27.6377 
G01 X-84.4225 Y28.5563 
G01 X-84.3456 Y29.4724 
G01 X-84.2303 Y30.3846 
G01 X-84.0770 Y31.2911 
G01 X-83.8859 Y32.1904 
G01 X-83.6572 Y33.0809 
G01 X-83.3915 Y33.9610 
G01 X-83.0891 Y34.8293 
G01 X-82.7507 Y35.6841 
G01 X-82.3767 Y36.5240 
G01 X-81.9679 Y37.3475 
G01 X-81.5250 Y38.1532 
G01 X-81.0488 Y38.9396 
G01 X-80.5400 Y39.7053 
G01 X-79.9996 Y40.4491 
G01 X-79.4285 Y41.1697 
G01 X-78.8278 Y41.8656 
G01 X-78.1984 Y42.5358 
G01 X-77.5415 Y43.1791 
G01 X-76.8583 Y43.7943 
G01 X-76.1499 Y44.3803 
G01 X-75.4176 Y44.9362 
G01 X-74.6626 Y45.4609 
G01 X-73.8864 Y45.9535 
G01 X-73.0901 Y46.4132 
G01 X-72.2754 Y46.8392 
G01 X-71.4435 Y47.2306 
G01 X-70.5959 Y47.5869 
G01 X-69.7342 Y47.9074 
G01 X-68.8598 Y48.1915 
G01 X-67.9743 Y48.4387 
G01 X-67.0792 Y48.6486 
G01 X-66.1761 Y48.8209 
G01 X-65.2666 Y48.9552 
G01 X-64.3523 Y49.0513 
G01 X-63.4347 Y49.1091 
G01 X-62.5155 Y49.1283 
G01 X-61.5963 Y49.1091 
G01 X-60.6787 Y49.0513 
G01 X-59.7644 Y48.9552 
G01 X-58.8549 Y48.8209 
G01 X-57.9518 Y48.6486 
G01 X-57.0567 Y48.4387 
G01 X-56.1712 Y48.1915 
G01 X-55.2968 Y47.9074 
G01 X-54.4351 Y47.5869 
G01 X-53.5875 Y47.2306 
G01 X-52.7556 Y46.8392 
G01 X-51.9409 Y46.4132 
G01 X-51.1446 Y45.9535 
G01 X-50.3684 Y45.4609 
G01 X-49.6134 Y44.9362 
G01 X-48.8811 Y44.3803 
G01 X-48.1727 Y43.7943 
G01 X-47.4895 Y43.1791 
G01 X-46.8326 Y42.5358 
G01 X-46.2032 Y41.8656 
G01 X-45.6025 Y41.1697 
G01 X-45.0314 Y40.4491 
G01 X-44.4910 Y39.7053 
G01 X-43.9822 Y38.9396 
G01 X-43.5060 Y38.1532 
G01 X-43.0631 Y37.3475 
G01 X-42.6543 Y36.5240 
G01 X-42.2803 Y35.6841 
G01 X-41.9419 Y34.8293 
G01 X-41.6395 Y33.9610 
G01 X-41.3738 Y33.0809 
G01 X-41.1451 Y32.1904 
G01 X-40.9540 Y31.2911 
G01 X-40.8007 Y30.3846 
G01 X-40.6854 Y29.4724 
G01 X-40.6085 Y28.5563 
G01 X-40.5700 Y27.6377 
G01 X-40.5700 Y26.7188 
G01 X-40.6090 Y25.8013 
G01 X-40.6869 Y24.8863 
G01 X-40.8035 Y23.9754 
G01 X-40.9587 Y23.0703 
G01 X-41.1522 Y22.1726 
G01 X-41.3836 Y21.2839 
G01 X-41.6525 Y20.4058 
G01 X-41.9584 Y19.5399 
G01 X-42.3008 Y18.6878 
G01 X-42.6791 Y17.8510 
G01 X-43.0925 Y17.0310 
G01 X-43.5404 Y16.2293 
G01 X-44.0219 Y15.4473 
G01 X-44.5361 Y14.6864 
G01 X-45.0822 Y13.9481 
G01 X-45.6591 Y13.2336 
G01 X-46.2658 Y12.5442 
G01 X-46.9012 Y11.8813 
G01 X-47.5642 Y11.2458 
G01 X-48.2536 Y10.6391 
G01 X-48.9681 Y10.0622 
G01 X-49.7064 Y9.5161  
G01 X-50.4673 Y9.0019  
G01 X-51.2493 Y8.5204  
G01 X-52.0510 Y8.0725  
G01 X-52.8710 Y7.6591  
G01 X-53.7078 Y7.2808  
G01 X-54.5599 Y6.9384  
G01 X-55.4258 Y6.6325  
G01 X-56.3039 Y6.3636  
G01 X-57.1926 Y6.1322  
G01 X-58.0903 Y5.9387  
G01 X-58.9954 Y5.7835  
G01 X-59.9063 Y5.6669  
G01 X-60.8213 Y5.5890  
G01 X-61.7388 Y5.5500  
G01 X-62.6572 Y5.5500  
G01 X-63.5747 Y5.5890  
G01 X-64.4897 Y5.6669  
G01 X-65.4006 Y5.7835  
G01 X-66.3057 Y5.9387  
G01 X-67.2034 Y6.1322  
G01 X-68.0921 Y6.3636  
G01 X-68.9702 Y6.6325  
G01 X-69.8361 Y6.9384  
G01 X-70.6882 Y7.2808  
G01 X-71.5250 Y7.6591  
G01 X-72.3450 Y8.0725  
G01 X-73.1467 Y8.5204  
G01 X-73.9287 Y9.0019  
G01 X-74.6896 Y9.5161  
G01 X-75.4279 Y10.0622 
G01 X-76.1424 Y10.6391 
G01 X-76.8317 Y11.2458 
G01 X-77.4947 Y11.8812 
G01 X-78.1302 Y12.5442 
G01 X-78.7369 Y13.2336 
G01 X-79.3138 Y13.9481 
G01 X-79.8599 Y14.6864 
G01 X-80.3741 Y15.4473 
G01 X-80.8556 Y16.2293 
G01 X-81.3035 Y17.0310 
G01 X-81.7169 Y17.8510 
G01 X-82.0952 Y18.6878 
G01 X-82.4376 Y19.5399 
G01 X-82.7435 Y20.4058 
G01 X-83.0124 Y21.2839 
G01 X-83.2438 Y22.1726 
G01 X-83.4373 Y23.0703 
G01 X-83.5925 Y23.9754 
G01 X-83.7091 Y24.8863 
G01 X-83.7870 Y25.8013 
G01 X-83.8260 Y26.7188 
G01 X-83.8260 Y27.6304 
G01 X-83.7876 Y28.5345 
G01 X-83.7109 Y29.4361 
G01 X-83.5959 Y30.3336 
G01 X-83.4430 Y31.2254 
G01 X-83.2524 Y32.1099 
G01 X-83.0244 Y32.9856 
G01 X-82.7594 Y33.8508 
G01 X-82.4580 Y34.7040 
G01 X-82.1206 Y35.5436 
G01 X-81.7479 Y36.3681 
G01 X-81.3405 Y37.1760 
G01 X-80.8992 Y37.9660 
G01 X-80.4248 Y38.7365 
G01 X-79.9181 Y39.4862 
G01 X-79.3800 Y40.2137 
G01 X-78.8116 Y40.9177 
G01 X-78.2138 Y41.5969 
G01 X-77.5877 Y42.2502 
G01 X-76.9344 Y42.8763 
G01 X-76.2552 Y43.4741 
G01 X-75.5512 Y44.0426 
G01 X-74.8237 Y44.5806 
G01 X-74.0740 Y45.0873 
G01 X-73.3035 Y45.5617 
G01 X-72.5135 Y46.0030 
G01 X-71.7056 Y46.4104 
G01 X-70.8811 Y46.7831 
G01 X-70.0415 Y47.1205 
G01 X-69.1883 Y47.4219 
G01 X-68.3231 Y47.6869 
G01 X-67.4475 Y47.9149 
G01 X-66.5629 Y48.1055 
G01 X-65.6711 Y48.2584 
G01 X-64.7736 Y48.3734 
G01 X-63.8720 Y48.4501 
G01 X-62.9679 Y48.4885 
G01 X-62.0631 Y48.4885 
G01 X-61.1590 Y48.4501 
G01 X-60.2574 Y48.3734 
G01 X-59.3599 Y48.2584 
G01 X-58.4681 Y48.1055 
G01 X-57.5836 Y47.9149 
G01 X-56.7079 Y47.6869 
G01 X-55.8427 Y47.4219 
G01 X-54.9895 Y47.1205 
G01 X-54.1499 Y46.7831 
G01 X-53.3254 Y46.4104 
G01 X-52.5175 Y46.0030 
G01 X-51.7275 Y45.5617 
G01 X-50.9570 Y45.0873 
G01 X-50.2073 Y44.5806 
G01 X-49.4798 Y44.0426 
G01 X-48.7758 Y43.4741 
G01 X-48.0966 Y42.8763 
G01 X-47.4433 Y42.2502 
G01 X-46.8172 Y41.5969 
G01 X-46.2194 Y40.9177 
G01 X-45.6509 Y40.2137 
G01 X-45.1129 Y39.4862 
G01 X-44.6062 Y38.7365 
G01 X-44.1318 Y37.9660 
G01 X-43.6905 Y37.1760 
G01 X-43.2831 Y36.3681 
G01 X-42.9104 Y35.5436 
G01 X-42.5730 Y34.7040 
G01 X-42.2716 Y33.8508 
G01 X-42.0066 Y32.9856 
G01 X-41.7786 Y32.1100 
G01 X-41.5880 Y31.2254 
G01 X-41.4351 Y30.3336 
G01 X-41.3201 Y29.4361 
G01 X-41.2434 Y28.5345 
G01 X-41.2050 Y27.6304 
G01 X-41.2050 Y26.7262 
G01 X-41.2439 Y25.8234 
G01 X-41.3216 Y24.9232 
G01 X-41.4379 Y24.0271 
G01 X-41.5927 Y23.1368 
G01 X-41.7856 Y22.2541 
G01 X-42.0164 Y21.3804 
G01 X-42.2845 Y20.5175 
G01 X-42.5894 Y19.6669 
G01 X-42.9307 Y18.8303 
G01 X-43.3077 Y18.0090 
G01 X-43.7197 Y17.2048 
G01 X-44.1659 Y16.4190 
G01 X-44.6454 Y15.6532 
G01 X-45.1575 Y14.9087 
G01 X-45.7011 Y14.1869 
G01 X-46.2753 Y13.4892 
G01 X-46.8790 Y12.8168 
G01 X-47.5110 Y12.1710 
G01 X-48.1703 Y11.5530 
G01 X-48.8555 Y10.9640 
G01 X-49.5654 Y10.4049 
G01 X-50.2987 Y9.8770  
G01 X-51.0540 Y9.3810  
G01 X-51.8300 Y8.9180  
G01 X-52.6252 Y8.4889  
G01 X-53.4381 Y8.0943  
G01 X-54.2673 Y7.7351  
G01 X-55.1111 Y7.4119  
G01 X-55.9680 Y7.1253  
G01 X-56.8365 Y6.8758  
G01 X-57.7149 Y6.6639  
G01 X-58.6016 Y6.4900  
G01 X-59.4950 Y6.3544  
G01 X-60.3934 Y6.2574  
G01 X-61.2951 Y6.1991  
G01 X-62.1985 Y6.1796  
G01 X-63.1019 Y6.1991  
G01 X-64.0036 Y6.2574  
G01 X-64.9020 Y6.3544  
G01 X-65.7954 Y6.4900  
G01 X-66.6821 Y6.6639  
G01 X-67.5605 Y6.8758  
G01 X-68.4290 Y7.1253  
G01 X-69.2859 Y7.4119  
G01 X-70.1297 Y7.7351  
G01 X-70.9589 Y8.0943  
G01 X-71.7718 Y8.4889  
G01 X-72.5670 Y8.9180  
G01 X-73.3430 Y9.3810  
G01 X-74.0983 Y9.8770  
G01 X-74.8316 Y10.4049 
G01 X-75.5415 Y10.9640 
G01 X-76.2267 Y11.5530 
G01 X-76.8860 Y12.1710 
G01 X-77.5180 Y12.8168 
G01 X-78.1217 Y13.4892 
G01 X-78.6959 Y14.1869 
G01 X-79.2395 Y14.9087 
G01 X-79.7516 Y15.6532 
G01 X-80.2311 Y16.4190 
G01 X-80.6773 Y17.2048 
G01 X-81.0893 Y18.0090 
G01 X-81.4663 Y18.8302 
G01 X-81.8075 Y19.6669 
G01 X-82.1125 Y20.5175 
G01 X-82.3806 Y21.3804 
G01 X-82.6114 Y22.2541 
G01 X-82.8043 Y23.1368 
G01 X-82.9591 Y24.0271 
G01 X-83.0754 Y24.9232 
G01 X-83.1531 Y25.8234 
G01 X-83.1920 Y26.7262 
G01 X-83.1920 Y27.6292 
G01 X-83.1526 Y28.5306 
G01 X-83.0740 Y29.4295 
G01 X-82.9562 Y30.3240 
G01 X-82.7995 Y31.2126 
G01 X-82.6042 Y32.0936 
G01 X-82.3707 Y32.9651 
G01 X-82.0994 Y33.8257 
G01 X-81.7908 Y34.6735 
G01 X-81.4455 Y35.5072 
G01 X-81.0642 Y36.3249 
G01 X-80.6475 Y37.1253 
G01 X-80.1964 Y37.9067 
G01 X-79.7116 Y38.6677 
G01 X-79.1940 Y39.4068 
G01 X-78.6447 Y40.1227 
G01 X-78.0647 Y40.8139 
G01 X-77.4552 Y41.4791 
G01 X-76.8171 Y42.1171 
G01 X-76.1519 Y42.7267 
G01 X-75.4607 Y43.3067 
G01 X-74.7448 Y43.8560 
G01 X-74.0057 Y44.3736 
G01 X-73.2447 Y44.8584 
G01 X-72.4633 Y45.3095 
G01 X-71.6629 Y45.7262 
G01 X-70.8452 Y46.1075 
G01 X-70.0115 Y46.4528 
G01 X-69.1637 Y46.7614 
G01 X-68.3031 Y47.0327 
G01 X-67.4316 Y47.2662 
G01 X-66.5506 Y47.4615 
G01 X-65.6621 Y47.6182 
G01 X-64.7675 Y47.7360 
G01 X-63.8686 Y47.8146 
G01 X-62.9672 Y47.8540 
G01 X-62.0648 Y47.8540 
G01 X-61.1634 Y47.8146 
G01 X-60.2645 Y47.7360 
G01 X-59.3700 Y47.6182 
G01 X-58.4814 Y47.4615 
G01 X-57.6004 Y47.2662 
G01 X-56.7289 Y47.0327 
G01 X-55.8683 Y46.7614 
G01 X-55.0205 Y46.4528 
G01 X-54.1868 Y46.1075 
G01 X-53.3691 Y45.7262 
G01 X-52.5687 Y45.3095 
G01 X-51.7873 Y44.8584 
G01 X-51.0263 Y44.3736 
G01 X-50.2872 Y43.8560 
G01 X-49.5713 Y43.3067 
G01 X-48.8801 Y42.7267 
G01 X-48.2149 Y42.1172 
G01 X-47.5769 Y41.4791 
G01 X-46.9673 Y40.8139 
G01 X-46.3873 Y40.1227 
G01 X-45.8380 Y39.4068 
G01 X-45.3204 Y38.6677 
G01 X-44.8356 Y37.9067 
G01 X-44.3845 Y37.1253 
G01 X-43.9678 Y36.3249 
G01 X-43.5865 Y35.5072 
G01 X-43.2412 Y34.6735 
G01 X-42.9326 Y33.8257 
G01 X-42.6613 Y32.9651 
G01 X-42.4278 Y32.0936 
G01 X-42.2325 Y31.2126 
G01 X-42.0758 Y30.3240 
G01 X-41.9580 Y29.4295 
G01 X-41.8794 Y28.5306 
G01 X-41.8400 Y27.6292 
G01 X-41.8400 Y26.7338 
G01 X-41.8788 Y25.8462 
G01 X-41.9562 Y24.9612 
G01 X-42.0721 Y24.0803 
G01 X-42.2264 Y23.2054 
G01 X-42.4187 Y22.3380 
G01 X-42.6487 Y21.4799 
G01 X-42.9158 Y20.6326 
G01 X-43.2197 Y19.7977 
G01 X-43.5597 Y18.9769 
G01 X-43.9351 Y18.1717 
G01 X-44.3453 Y17.3837 
G01 X-44.7896 Y16.6143 
G01 X-45.2669 Y15.8650 
G01 X-45.7765 Y15.1372 
G01 X-46.3173 Y14.4324 
G01 X-46.8884 Y13.7518 
G01 X-47.4886 Y13.0968 
G01 X-48.1168 Y12.4686 
G01 X-48.7718 Y11.8684 
G01 X-49.4524 Y11.2973 
G01 X-50.1573 Y10.7565 
G01 X-50.8850 Y10.2469 
G01 X-51.6343 Y9.7696  
G01 X-52.4037 Y9.3253  
G01 X-53.1917 Y8.9151  
G01 X-53.9969 Y8.5397  
G01 X-54.8177 Y8.1997  
G01 X-55.6526 Y7.8958  
G01 X-56.4999 Y7.6287  
G01 X-57.3580 Y7.3987  
G01 X-58.2254 Y7.2064  
G01 X-59.1003 Y7.0521  
G01 X-59.9812 Y6.9362  
G01 X-60.8662 Y6.8588  
G01 X-61.7538 Y6.8200  
G01 X-62.6422 Y6.8200  
G01 X-63.5298 Y6.8588  
G01 X-64.4148 Y6.9362  
G01 X-65.2957 Y7.0521  
G01 X-66.1706 Y7.2064  
G01 X-67.0380 Y7.3987  
G01 X-67.8961 Y7.6287  
G01 X-68.7434 Y7.8958  
G01 X-69.5783 Y8.1997  
G01 X-70.3991 Y8.5397  
G01 X-71.2043 Y8.9151  
G01 X-71.9923 Y9.3253  
G01 X-72.7617 Y9.7696  
G01 X-73.5110 Y10.2469 
G01 X-74.2387 Y10.7565 
G01 X-74.9436 Y11.2973 
G01 X-75.6242 Y11.8684 
G01 X-76.2792 Y12.4686 
G01 X-76.9074 Y13.0968 
G01 X-77.5076 Y13.7518 
G01 X-78.0787 Y14.4324 
G01 X-78.6195 Y15.1372 
G01 X-79.1291 Y15.8650 
G01 X-79.6064 Y16.6143 
G01 X-80.0507 Y17.3837 
G01 X-80.4609 Y18.1717 
G01 X-80.8363 Y18.9769 
G01 X-81.1763 Y19.7977 
G01 X-81.4802 Y20.6326 
G01 X-81.7473 Y21.4799 
G01 X-81.9773 Y22.3380 
G01 X-82.1696 Y23.2054 
G01 X-82.3239 Y24.0803 
G01 X-82.4398 Y24.9612 
G01 X-82.5172 Y25.8462 
G01 X-82.5560 Y26.7338 
G01 X-82.5560 Y27.6214 
G01 X-82.5168 Y28.5075 
G01 X-82.4384 Y29.3909 
G01 X-82.3210 Y30.2700 
G01 X-82.1648 Y31.1430 
G01 X-81.9702 Y32.0083 
G01 X-81.7375 Y32.8641 
G01 X-81.4672 Y33.7088 
G01 X-81.1598 Y34.5407 
G01 X-80.8158 Y35.3582 
G01 X-80.4361 Y36.1597 
G01 X-80.0213 Y36.9436 
G01 X-79.5722 Y37.7084 
G01 X-79.0897 Y38.4525 
G01 X-78.5747 Y39.1746 
G01 X-78.0284 Y39.8732 
G01 X-77.4516 Y40.5470 
G01 X-76.8457 Y41.1946 
G01 X-76.2116 Y41.8147 
G01 X-75.5508 Y42.4062 
G01 X-74.8644 Y42.9679 
G01 X-74.1539 Y43.4987 
G01 X-73.4206 Y43.9975 
G01 X-72.6660 Y44.4634 
G01 X-71.8914 Y44.8955 
G01 X-71.0985 Y45.2929 
G01 X-70.2889 Y45.6548 
G01 X-69.4640 Y45.9806 
G01 X-68.6255 Y46.2695 
G01 X-67.7750 Y46.5211 
G01 X-66.9142 Y46.7348 
G01 X-66.0449 Y46.9103 
G01 X-65.1686 Y47.0471 
G01 X-64.2871 Y47.1450 
G01 X-63.4022 Y47.2038 
G01 X-62.5155 Y47.2234 
G01 X-61.6288 Y47.2038 
G01 X-60.7439 Y47.1450 
G01 X-59.8624 Y47.0471 
G01 X-58.9861 Y46.9103 
G01 X-58.1168 Y46.7348 
G01 X-57.2560 Y46.5211 
G01 X-56.4055 Y46.2695 
G01 X-55.5670 Y45.9806 
G01 X-54.7421 Y45.6548 
G01 X-53.9325 Y45.2929 
G01 X-53.1396 Y44.8955 
G01 X-52.3651 Y44.4634 
G01 X-51.6104 Y43.9975 
G01 X-50.8771 Y43.4987 
G01 X-50.1666 Y42.9679 
G01 X-49.4802 Y42.4062 
G01 X-48.8194 Y41.8147 
G01 X-48.1853 Y41.1946 
G01 X-47.5794 Y40.5470 
G01 X-47.0026 Y39.8732 
G01 X-46.4563 Y39.1746 
G01 X-45.9413 Y38.4525 
G01 X-45.4588 Y37.7084 
G01 X-45.0097 Y36.9436 
G01 X-44.5949 Y36.1597 
G01 X-44.2152 Y35.3582 
G01 X-43.8712 Y34.5407 
G01 X-43.5638 Y33.7088 
G01 X-43.2935 Y32.8641 
G01 X-43.0608 Y32.0083 
G01 X-42.8662 Y31.1430 
G01 X-42.7100 Y30.2700 
G01 X-42.5926 Y29.3909 
G01 X-42.5142 Y28.5075 
G01 X-42.4750 Y27.6214 
G01 X-42.4750 Y26.7416 
G01 X-42.5136 Y25.8696 
G01 X-42.5907 Y25.0002 
G01 X-42.7063 Y24.1350 
G01 X-42.8600 Y23.2758 
G01 X-43.0515 Y22.4242 
G01 X-43.2805 Y21.5820 
G01 X-43.5466 Y20.7507 
G01 X-43.8491 Y19.9319 
G01 X-44.1876 Y19.1274 
G01 X-44.5613 Y18.3386 
G01 X-44.9696 Y17.5671 
G01 X-45.4116 Y16.8145 
G01 X-45.8864 Y16.0821 
G01 X-46.3932 Y15.3714 
G01 X-46.9309 Y14.6839 
G01 X-47.4985 Y14.0208 
G01 X-48.0949 Y13.3835 
G01 X-48.7189 Y12.7732 
G01 X-49.3692 Y12.1910 
G01 X-50.0447 Y11.6382 
G01 X-50.7440 Y11.1159 
G01 X-51.4657 Y10.6249 
G01 X-52.2084 Y10.1664 
G01 X-52.9706 Y9.7412  
G01 X-53.7509 Y9.3501  
G01 X-54.5478 Y8.9939  
G01 X-55.3596 Y8.6733  
G01 X-56.1848 Y8.3889  
G01 X-57.0218 Y8.1413  
G01 X-57.8690 Y7.9310  
G01 X-58.7245 Y7.7584  
G01 X-59.5869 Y7.6237  
G01 X-60.4545 Y7.5274  
G01 X-61.3254 Y7.4695  
G01 X-62.1980 Y7.4502  
G01 X-63.0706 Y7.4695  
G01 X-63.9415 Y7.5274  
G01 X-64.8090 Y7.6237  
G01 X-65.6714 Y7.7584  
G01 X-66.5270 Y7.9310  
G01 X-67.3742 Y8.1413  
G01 X-68.2112 Y8.3889  
G01 X-69.0364 Y8.6733  
G01 X-69.8482 Y8.9939  
G01 X-70.6451 Y9.3501  
G01 X-71.4254 Y9.7412  
G01 X-72.1876 Y10.1664 
G01 X-72.9303 Y10.6249 
G01 X-73.6520 Y11.1159 
G01 X-74.3513 Y11.6382 
G01 X-75.0268 Y12.1910 
G01 X-75.6771 Y12.7732 
G01 X-76.3011 Y13.3835 
G01 X-76.8975 Y14.0208 
G01 X-77.4651 Y14.6839 
G01 X-78.0028 Y15.3714 
G01 X-78.5096 Y16.0821 
G01 X-78.9844 Y16.8145 
G01 X-79.4264 Y17.5671 
G01 X-79.8347 Y18.3386 
G01 X-80.2084 Y19.1274 
G01 X-80.5469 Y19.9319 
G01 X-80.8494 Y20.7507 
G01 X-81.1155 Y21.5820 
G01 X-81.3445 Y22.4242 
G01 X-81.5360 Y23.2758 
G01 X-81.6897 Y24.1350 
G01 X-81.8052 Y25.0002 
G01 X-81.8824 Y25.8696 
G01 X-81.9210 Y26.7416 
G01 X-81.9210 Y27.6135 
G01 X-81.8819 Y28.4837 
G01 X-81.8038 Y29.3513 
G01 X-81.6869 Y30.2145 
G01 X-81.5314 Y31.0715 
G01 X-81.3375 Y31.9207 
G01 X-81.1058 Y32.7604 
G01 X-80.8366 Y33.5888 
G01 X-80.5306 Y34.4044 
G01 X-80.1882 Y35.2053 
G01 X-79.8103 Y35.9901 
G01 X-79.3975 Y36.7572 
G01 X-78.9507 Y37.5049 
G01 X-78.4709 Y38.2319 
G01 X-77.9589 Y38.9366 
G01 X-77.4158 Y39.6176 
G01 X-76.8427 Y40.2736 
G01 X-76.2407 Y40.9032 
G01 X-75.6111 Y41.5052 
G01 X-74.9551 Y42.0783 
G01 X-74.2741 Y42.6214 
G01 X-73.5694 Y43.1334 
G01 X-72.8424 Y43.6132 
G01 X-72.0947 Y44.0600 
G01 X-71.3276 Y44.4728 
G01 X-70.5428 Y44.8507 
G01 X-69.7419 Y45.1931 
G01 X-68.9263 Y45.4991 
G01 X-68.0979 Y45.7683 
G01 X-67.2582 Y46.0000 
G01 X-66.4090 Y46.1939 
G01 X-65.5520 Y46.3494 
G01 X-64.6888 Y46.4663 
G01 X-63.8212 Y46.5444 
G01 X-62.9510 Y46.5835 
G01 X-62.0800 Y46.5835 
G01 X-61.2098 Y46.5444 
G01 X-60.3422 Y46.4663 
G01 X-59.4790 Y46.3494 
G01 X-58.6220 Y46.1939 
G01 X-57.7728 Y46.0000 
G01 X-56.9331 Y45.7683 
G01 X-56.1047 Y45.4991 
G01 X-55.2891 Y45.1931 
G01 X-54.4882 Y44.8507 
G01 X-53.7034 Y44.4728 
G01 X-52.9363 Y44.0600 
G01 X-52.1886 Y43.6132 
G01 X-51.4616 Y43.1334 
G01 X-50.7569 Y42.6214 
G01 X-50.0759 Y42.0783 
G01 X-49.4199 Y41.5052 
G01 X-48.7903 Y40.9032 
G01 X-48.1883 Y40.2736 
G01 X-47.6152 Y39.6176 
G01 X-47.0721 Y38.9366 
G01 X-46.5601 Y38.2319 
G01 X-46.0803 Y37.5049 
G01 X-45.6335 Y36.7572 
G01 X-45.2207 Y35.9901 
G01 X-44.8428 Y35.2053 
G01 X-44.5004 Y34.4044 
G01 X-44.1944 Y33.5888 
G01 X-43.9252 Y32.7604 
G01 X-43.6934 Y31.9207 
G01 X-43.4996 Y31.0715 
G01 X-43.3441 Y30.2145 
G01 X-43.2272 Y29.3513 
G01 X-43.1491 Y28.4837 
G01 X-43.1100 Y27.6135 
G01 X-43.1100 Y26.7496 
G01 X-43.1484 Y25.8936 
G01 X-43.2252 Y25.0403 
G01 X-43.3403 Y24.1912 
G01 X-43.4932 Y23.3482 
G01 X-43.6839 Y22.5129 
G01 X-43.9119 Y21.6869 
G01 X-44.1766 Y20.8720 
G01 X-44.4777 Y20.0699 
G01 X-44.8144 Y19.2820 
G01 X-45.1862 Y18.5100 
G01 X-45.5922 Y17.7555 
G01 X-46.0317 Y17.0200 
G01 X-46.5037 Y16.3049 
G01 X-47.0073 Y15.6118 
G01 X-47.5415 Y14.9419 
G01 X-48.1052 Y14.2966 
G01 X-48.6973 Y13.6774 
G01 X-49.3166 Y13.0852 
G01 X-49.9619 Y12.5215 
G01 X-50.6318 Y11.9873 
G01 X-51.3249 Y11.4837 
G01 X-52.0400 Y11.0117 
G01 X-52.7755 Y10.5722 
G01 X-53.5300 Y10.1662 
G01 X-54.3020 Y9.7944  
G01 X-55.0899 Y9.4577  
G01 X-55.8920 Y9.1566  
G01 X-56.7069 Y8.8918  
G01 X-57.5329 Y8.6639  
G01 X-58.3682 Y8.4732  
G01 X-59.2112 Y8.3203  
G01 X-60.0603 Y8.2052  
G01 X-60.9136 Y8.1284  
G01 X-61.7696 Y8.0900  
G01 X-62.6264 Y8.0900  
G01 X-63.4824 Y8.1284  
G01 X-64.3357 Y8.2052  
G01 X-65.1848 Y8.3203  
G01 X-66.0278 Y8.4732  
G01 X-66.8631 Y8.6639  
G01 X-67.6891 Y8.8918  
G01 X-68.5040 Y9.1566  
G01 X-69.3061 Y9.4577  
G01 X-70.0940 Y9.7944  
G01 X-70.8659 Y10.1662 
G01 X-71.6205 Y10.5722 
G01 X-72.3560 Y11.0117 
G01 X-73.0711 Y11.4837 
G01 X-73.7642 Y11.9873 
G01 X-74.4341 Y12.5215 
G01 X-75.0794 Y13.0852 
G01 X-75.6986 Y13.6773 
G01 X-76.2908 Y14.2966 
G01 X-76.8545 Y14.9419 
G01 X-77.3887 Y15.6118 
G01 X-77.8923 Y16.3049 
G01 X-78.3643 Y17.0200 
G01 X-78.8038 Y17.7555 
G01 X-79.2098 Y18.5100 
G01 X-79.5816 Y19.2820 
G01 X-79.9183 Y20.0699 
G01 X-80.2194 Y20.8720 
G01 X-80.4841 Y21.6869 
G01 X-80.7121 Y22.5129 
G01 X-80.9027 Y23.3482 
G01 X-81.0557 Y24.1912 
G01 X-81.1708 Y25.0403 
G01 X-81.2476 Y25.8936 
G01 X-81.2860 Y26.7496 
G01 X-81.2860 Y27.6054 
G01 X-81.2471 Y28.4593 
G01 X-81.1694 Y29.3105 
G01 X-81.0530 Y30.1573 
G01 X-80.8982 Y30.9980 
G01 X-80.7052 Y31.8307 
G01 X-80.4746 Y32.6538 
G01 X-80.2068 Y33.4655 
G01 X-79.9023 Y34.2642 
G01 X-79.5617 Y35.0482 
G01 X-79.1859 Y35.8159 
G01 X-78.7754 Y36.5657 
G01 X-78.3313 Y37.2960 
G01 X-77.8544 Y38.0054 
G01 X-77.3457 Y38.6923 
G01 X-76.8063 Y39.3554 
G01 X-76.2372 Y39.9932 
G01 X-75.6397 Y40.6044 
G01 X-75.0150 Y41.1879 
G01 X-74.3644 Y41.7423 
G01 X-73.6892 Y42.2665 
G01 X-72.9909 Y42.7594 
G01 X-72.2709 Y43.2200 
G01 X-71.5306 Y43.6474 
G01 X-70.7717 Y44.0407 
G01 X-69.9956 Y44.3990 
G01 X-69.2041 Y44.7216 
G01 X-68.3986 Y45.0078 
G01 X-67.5810 Y45.2571 
G01 X-66.7529 Y45.4689 
G01 X-65.9160 Y45.6429 
G01 X-65.0721 Y45.7785 
G01 X-64.2228 Y45.8756 
G01 X-63.3701 Y45.9339 
G01 X-62.5155 Y45.9534 
G01 X-61.6609 Y45.9339 
G01 X-60.8082 Y45.8756 
G01 X-59.9589 Y45.7785 
G01 X-59.1150 Y45.6429 
G01 X-58.2781 Y45.4689 
G01 X-57.4500 Y45.2571 
G01 X-56.6324 Y45.0078 
G01 X-55.8269 Y44.7216 
G01 X-55.0354 Y44.3990 
G01 X-54.2593 Y44.0407 
G01 X-53.5004 Y43.6474 
G01 X-52.7601 Y43.2200 
G01 X-52.0401 Y42.7594 
G01 X-51.3418 Y42.2665 
G01 X-50.6666 Y41.7423 
G01 X-50.0160 Y41.1879 
G01 X-49.3913 Y40.6044 
G01 X-48.7938 Y39.9932 
G01 X-48.2247 Y39.3554 
G01 X-47.6853 Y38.6923 
G01 X-47.1766 Y38.0054 
G01 X-46.6997 Y37.2960 
G01 X-46.2556 Y36.5657 
G01 X-45.8451 Y35.8159 
G01 X-45.4693 Y35.0482 
G01 X-45.1287 Y34.2642 
G01 X-44.8242 Y33.4655 
G01 X-44.5564 Y32.6538 
G01 X-44.3258 Y31.8307 
G01 X-44.1328 Y30.9980 
G01 X-43.9780 Y30.1573 
G01 X-43.8616 Y29.3105 
G01 X-43.7839 Y28.4593 
G01 X-43.7450 Y27.6054 
G01 X-43.7450 Y26.7517 
G01 X-43.7844 Y25.8999 
G01 X-43.8631 Y25.0509 
G01 X-43.9809 Y24.2064 
G01 X-44.1375 Y23.3682 
G01 X-44.3328 Y22.5382 
G01 X-44.5661 Y21.7180 
G01 X-44.8371 Y20.9096 
G01 X-45.1451 Y20.1145 
G01 X-45.4895 Y19.3344 
G01 X-45.8696 Y18.5711 
G01 X-46.2845 Y17.8262 
G01 X-46.7334 Y17.1013 
G01 X-47.2153 Y16.3978 
G01 X-47.7291 Y15.7174 
G01 X-48.2738 Y15.0614 
G01 X-48.8483 Y14.4312 
G01 X-49.4512 Y13.8283 
G01 X-50.0814 Y13.2538 
G01 X-50.7374 Y12.7091 
G01 X-51.4178 Y12.1953 
G01 X-52.1213 Y11.7134 
G01 X-52.8462 Y11.2645 
G01 X-53.5911 Y10.8496 
G01 X-54.3544 Y10.4695 
G01 X-55.1345 Y10.1251 
G01 X-55.9296 Y9.8171  
G01 X-56.7380 Y9.5461  
G01 X-57.5582 Y9.3128  
G01 X-58.3882 Y9.1175  
G01 X-59.2263 Y8.9609  
G01 X-60.0709 Y8.8431  
G01 X-60.9199 Y8.7644  
G01 X-61.7717 Y8.7250  
G01 X-62.6243 Y8.7250  
G01 X-63.4761 Y8.7644  
G01 X-64.3251 Y8.8431  
G01 X-65.1696 Y8.9609  
G01 X-66.0078 Y9.1175  
G01 X-66.8378 Y9.3128  
G01 X-67.6580 Y9.5461  
G01 X-68.4664 Y9.8171  
G01 X-69.2615 Y10.1251 
G01 X-70.0416 Y10.4695 
G01 X-70.8049 Y10.8496 
G01 X-71.5498 Y11.2645 
G01 X-72.2747 Y11.7134 
G01 X-72.9782 Y12.1953 
G01 X-73.6586 Y12.7091 
G01 X-74.3146 Y13.2538 
G01 X-74.9448 Y13.8283 
G01 X-75.5477 Y14.4312 
G01 X-76.1222 Y15.0614 
G01 X-76.6669 Y15.7174 
G01 X-77.1807 Y16.3978 
G01 X-77.6626 Y17.1013 
G01 X-78.1115 Y17.8262 
G01 X-78.5264 Y18.5711 
G01 X-78.9065 Y19.3344 
G01 X-79.2509 Y20.1145 
G01 X-79.5589 Y20.9096 
G01 X-79.8299 Y21.7180 
G01 X-80.0632 Y22.5382 
G01 X-80.2585 Y23.3682 
G01 X-80.4151 Y24.2063 
G01 X-80.5329 Y25.0509 
G01 X-80.6116 Y25.8999 
G01 X-80.6510 Y26.7517 
G01 X-80.6510 Y27.5970 
G01 X-80.6123 Y28.4341 
G01 X-80.5350 Y29.2685 
G01 X-80.4192 Y30.0985 
G01 X-80.2652 Y30.9223 
G01 X-80.0734 Y31.7380 
G01 X-79.8440 Y32.5440 
G01 X-79.5777 Y33.3386 
G01 X-79.2750 Y34.1200 
G01 X-78.9365 Y34.8866 
G01 X-78.5630 Y35.6368 
G01 X-78.1552 Y36.3689 
G01 X-77.7140 Y37.0814 
G01 X-77.2404 Y37.7727 
G01 X-76.7354 Y38.4414 
G01 X-76.2001 Y39.0862 
G01 X-75.6355 Y39.7054 
G01 X-75.0430 Y40.2980 
G01 X-74.4237 Y40.8626 
G01 X-73.7790 Y41.3979 
G01 X-73.1102 Y41.9029 
G01 X-72.4189 Y42.3765 
G01 X-71.7064 Y42.8177 
G01 X-70.9743 Y43.2255 
G01 X-70.2241 Y43.5990 
G01 X-69.4575 Y43.9375 
G01 X-68.6761 Y44.2402 
G01 X-67.8815 Y44.5065 
G01 X-67.0755 Y44.7359 
G01 X-66.2598 Y44.9277 
G01 X-65.4360 Y45.0817 
G01 X-64.6060 Y45.1975 
G01 X-63.7716 Y45.2748 
G01 X-62.9345 Y45.3135 
G01 X-62.0965 Y45.3135 
G01 X-61.2594 Y45.2748 
G01 X-60.4250 Y45.1975 
G01 X-59.5950 Y45.0817 
G01 X-58.7712 Y44.9277 
G01 X-57.9555 Y44.7359 
G01 X-57.1495 Y44.5065 
G01 X-56.3549 Y44.2402 
G01 X-55.5735 Y43.9375 
G01 X-54.8069 Y43.5990 
G01 X-54.0567 Y43.2255 
G01 X-53.3246 Y42.8177 
G01 X-52.6121 Y42.3765 
G01 X-51.9208 Y41.9029 
G01 X-51.2521 Y41.3979 
G01 X-50.6073 Y40.8626 
G01 X-49.9880 Y40.2980 
G01 X-49.3955 Y39.7055 
G01 X-48.8309 Y39.0862 
G01 X-48.2956 Y38.4415 
G01 X-47.7906 Y37.7727 
G01 X-47.3170 Y37.0814 
G01 X-46.8758 Y36.3689 
G01 X-46.4680 Y35.6368 
G01 X-46.0945 Y34.8866 
G01 X-45.7560 Y34.1200 
G01 X-45.4533 Y33.3386 
G01 X-45.1870 Y32.5440 
G01 X-44.9576 Y31.7380 
G01 X-44.7658 Y30.9223 
G01 X-44.6118 Y30.0985 
G01 X-44.4960 Y29.2686 
G01 X-44.4187 Y28.4341 
G01 X-44.3800 Y27.5970 
G01 X-44.3800 Y26.7602 
G01 X-44.4192 Y25.9255 
G01 X-44.4974 Y25.0935 
G01 X-44.6146 Y24.2661 
G01 X-44.7704 Y23.4452 
G01 X-44.9645 Y22.6324 
G01 X-45.1965 Y21.8296 
G01 X-45.4659 Y21.0386 
G01 X-45.7720 Y20.2611 
G01 X-46.1143 Y19.4988 
G01 X-46.4919 Y18.7533 
G01 X-46.9041 Y18.0264 
G01 X-47.3498 Y17.3196 
G01 X-47.8283 Y16.6345 
G01 X-48.3382 Y15.9725 
G01 X-48.8787 Y15.3352 
G01 X-49.4484 Y14.7239 
G01 X-50.0462 Y14.1400 
G01 X-50.6707 Y13.5847 
G01 X-51.3205 Y13.0594 
G01 X-51.9942 Y12.5650 
G01 X-52.6904 Y12.1028 
G01 X-53.4074 Y11.6737 
G01 X-54.1438 Y11.2788 
G01 X-54.8979 Y10.9187 
G01 X-55.6680 Y10.5944 
G01 X-56.4525 Y10.3066 
G01 X-57.2496 Y10.0558 
G01 X-58.0576 Y9.8427  
G01 X-58.8747 Y9.6677  
G01 X-59.6991 Y9.5311  
G01 X-60.5290 Y9.4334  
G01 X-61.3626 Y9.3747  
G01 X-62.1980 Y9.3551  
G01 X-63.0334 Y9.3747  
G01 X-63.8670 Y9.4334  
G01 X-64.6969 Y9.5311  
G01 X-65.5213 Y9.6677  
G01 X-66.3384 Y9.8427  
G01 X-67.1463 Y10.0558 
G01 X-67.9435 Y10.3066 
G01 X-68.7280 Y10.5944 
G01 X-69.4981 Y10.9187 
G01 X-70.2522 Y11.2788 
G01 X-70.9886 Y11.6737 
G01 X-71.7056 Y12.1028 
G01 X-72.4018 Y12.5650 
G01 X-73.0755 Y13.0594 
G01 X-73.7253 Y13.5847 
G01 X-74.3498 Y14.1400 
G01 X-74.9476 Y14.7239 
G01 X-75.5173 Y15.3352 
G01 X-76.0578 Y15.9725 
G01 X-76.5677 Y16.6345 
G01 X-77.0461 Y17.3196 
G01 X-77.4919 Y18.0264 
G01 X-77.9041 Y18.7533 
G01 X-78.2817 Y19.4988 
G01 X-78.6240 Y20.2611 
G01 X-78.9301 Y21.0386 
G01 X-79.1995 Y21.8296 
G01 X-79.4315 Y22.6324 
G01 X-79.6256 Y23.4452 
G01 X-79.7814 Y24.2661 
G01 X-79.8986 Y25.0935 
G01 X-79.9768 Y25.9255 
G01 X-80.0160 Y26.7602 
G01 X-80.0160 Y27.5884 
G01 X-79.9775 Y28.4082 
G01 X-79.9007 Y29.2253 
G01 X-79.7856 Y30.0380 
G01 X-79.6326 Y30.8443 
G01 X-79.4419 Y31.6426 
G01 X-79.2140 Y32.4311 
G01 X-78.9495 Y33.2080 
G01 X-78.6488 Y33.9717 
G01 X-78.3126 Y34.7204 
G01 X-77.9417 Y35.4526 
G01 X-77.5369 Y36.1665 
G01 X-77.0991 Y36.8607 
G01 X-76.6292 Y37.5337 
G01 X-76.1283 Y38.1838 
G01 X-75.5975 Y38.8098 
G01 X-75.0379 Y39.4102 
G01 X-74.4508 Y39.9837 
G01 X-73.8374 Y40.5290 
G01 X-73.1992 Y41.0450 
G01 X-72.5374 Y41.5306 
G01 X-71.8537 Y41.9845 
G01 X-71.1494 Y42.4060 
G01 X-70.4262 Y42.7939 
G01 X-69.6855 Y43.1476 
G01 X-68.9291 Y43.4661 
G01 X-68.1586 Y43.7488 
G01 X-67.3757 Y43.9951 
G01 X-66.5821 Y44.2044 
G01 X-65.7795 Y44.3763 
G01 X-64.9698 Y44.5104 
G01 X-64.1547 Y44.6064 
G01 X-63.3360 Y44.6641 
G01 X-62.5155 Y44.6833 
G01 X-61.6950 Y44.6641 
G01 X-60.8763 Y44.6064 
G01 X-60.0612 Y44.5104 
G01 X-59.2515 Y44.3763 
G01 X-58.4489 Y44.2044 
G01 X-57.6553 Y43.9951 
G01 X-56.8724 Y43.7488 
G01 X-56.1019 Y43.4661 
G01 X-55.3455 Y43.1476 
G01 X-54.6048 Y42.7939 
G01 X-53.8816 Y42.4060 
G01 X-53.1773 Y41.9845 
G01 X-52.4936 Y41.5306 
G01 X-51.8318 Y41.0450 
G01 X-51.1936 Y40.5290 
G01 X-50.5802 Y39.9837 
G01 X-49.9931 Y39.4102 
G01 X-49.4335 Y38.8098 
G01 X-48.9027 Y38.1838 
G01 X-48.4018 Y37.5337 
G01 X-47.9319 Y36.8607 
G01 X-47.4941 Y36.1665 
G01 X-47.0893 Y35.4526 
G01 X-46.7184 Y34.7204 
G01 X-46.3822 Y33.9717 
G01 X-46.0815 Y33.2080 
G01 X-45.8170 Y32.4311 
G01 X-45.5891 Y31.6426 
G01 X-45.3984 Y30.8443 
G01 X-45.2454 Y30.0380 
G01 X-45.1303 Y29.2253 
G01 X-45.0535 Y28.4082 
G01 X-45.0150 Y27.5884 
G01 X-45.0150 Y26.7690 
G01 X-45.0539 Y25.9518 
G01 X-45.1317 Y25.1375 
G01 X-45.2481 Y24.3277 
G01 X-45.4029 Y23.5245 
G01 X-45.5958 Y22.7295 
G01 X-45.8263 Y21.9445 
G01 X-46.0938 Y21.1715 
G01 X-46.3979 Y20.4120 
G01 X-46.7377 Y19.6679 
G01 X-47.1126 Y18.9407 
G01 X-47.5216 Y18.2323 
G01 X-47.9639 Y17.5441 
G01 X-48.4384 Y16.8777 
G01 X-48.9441 Y16.2347 
G01 X-49.4798 Y15.6164 
G01 X-50.0443 Y15.0243 
G01 X-50.6364 Y14.4598 
G01 X-51.2547 Y13.9241 
G01 X-51.8977 Y13.4184 
G01 X-52.5641 Y12.9439 
G01 X-53.2523 Y12.5016 
G01 X-53.9607 Y12.0926 
G01 X-54.6879 Y11.7177 
G01 X-55.4320 Y11.3779 
G01 X-56.1915 Y11.0738 
G01 X-56.9645 Y10.8063 
G01 X-57.7495 Y10.5758 
G01 X-58.5445 Y10.3829 
G01 X-59.3477 Y10.2281 
G01 X-60.1575 Y10.1117 
G01 X-60.9718 Y10.0339 
G01 X-61.7890 Y9.9950  
G01 X-62.6070 Y9.9950  
G01 X-63.4242 Y10.0339 
G01 X-64.2385 Y10.1117 
G01 X-65.0483 Y10.2281 
G01 X-65.8515 Y10.3829 
G01 X-66.6465 Y10.5758 
G01 X-67.4315 Y10.8063 
G01 X-68.2045 Y11.0738 
G01 X-68.9640 Y11.3779 
G01 X-69.7081 Y11.7177 
G01 X-70.4353 Y12.0926 
G01 X-71.1437 Y12.5016 
G01 X-71.8319 Y12.9439 
G01 X-72.4983 Y13.4184 
G01 X-73.1413 Y13.9241 
G01 X-73.7596 Y14.4598 
G01 X-74.3517 Y15.0243 
G01 X-74.9162 Y15.6164 
G01 X-75.4519 Y16.2347 
G01 X-75.9576 Y16.8777 
G01 X-76.4321 Y17.5441 
G01 X-76.8744 Y18.2323 
G01 X-77.2834 Y18.9407 
G01 X-77.6583 Y19.6679 
G01 X-77.9981 Y20.4120 
G01 X-78.3022 Y21.1715 
G01 X-78.5697 Y21.9445 
G01 X-78.8002 Y22.7294 
G01 X-78.9931 Y23.5245 
G01 X-79.1479 Y24.3277 
G01 X-79.2643 Y25.1375 
G01 X-79.3421 Y25.9518 
G01 X-79.3810 Y26.7690 
G01 X-79.3810 Y27.5795 
G01 X-79.3428 Y28.3815 
G01 X-79.2665 Y29.1808 
G01 X-79.1522 Y29.9756 
G01 X-79.0002 Y30.7640 
G01 X-78.8109 Y31.5443 
G01 X-78.5847 Y32.3148 
G01 X-78.3221 Y33.0736 
G01 X-78.0237 Y33.8190 
G01 X-77.6901 Y34.5494 
G01 X-77.3222 Y35.2631 
G01 X-76.9207 Y35.9584 
G01 X-76.4866 Y36.6339 
G01 X-76.0209 Y37.2880 
G01 X-75.5245 Y37.9191 
G01 X-74.9987 Y38.5260 
G01 X-74.4446 Y39.1071 
G01 X-73.8635 Y39.6612 
G01 X-73.2566 Y40.1870 
G01 X-72.6255 Y40.6834 
G01 X-71.9714 Y41.1491 
G01 X-71.2959 Y41.5832 
G01 X-70.6006 Y41.9847 
G01 X-69.8869 Y42.3526 
G01 X-69.1565 Y42.6862 
G01 X-68.4111 Y42.9846 
G01 X-67.6523 Y43.2472 
G01 X-66.8818 Y43.4734 
G01 X-66.1015 Y43.6627 
G01 X-65.3131 Y43.8147 
G01 X-64.5183 Y43.9290 
G01 X-63.7190 Y44.0053 
G01 X-62.9170 Y44.0435 
G01 X-62.1140 Y44.0435 
G01 X-61.3120 Y44.0053 
G01 X-60.5127 Y43.9290 
G01 X-59.7179 Y43.8147 
G01 X-58.9295 Y43.6627 
G01 X-58.1492 Y43.4734 
G01 X-57.3787 Y43.2472 
G01 X-56.6199 Y42.9846 
G01 X-55.8745 Y42.6862 
G01 X-55.1441 Y42.3526 
G01 X-54.4304 Y41.9847 
G01 X-53.7351 Y41.5832 
G01 X-53.0596 Y41.1491 
G01 X-52.4055 Y40.6834 
G01 X-51.7744 Y40.1870 
G01 X-51.1675 Y39.6612 
G01 X-50.5864 Y39.1071 
G01 X-50.0323 Y38.5260 
G01 X-49.5065 Y37.9191 
G01 X-49.0101 Y37.2880 
G01 X-48.5444 Y36.6339 
G01 X-48.1103 Y35.9584 
G01 X-47.7088 Y35.2631 
G01 X-47.3409 Y34.5494 
G01 X-47.0073 Y33.8190 
G01 X-46.7089 Y33.0736 
G01 X-46.4463 Y32.3148 
G01 X-46.2201 Y31.5443 
G01 X-46.0308 Y30.7640 
G01 X-45.8788 Y29.9756 
G01 X-45.7645 Y29.1808 
G01 X-45.6882 Y28.3815 
G01 X-45.6500 Y27.5795 
G01 X-45.6500 Y26.7780 
G01 X-45.6887 Y25.9790 
G01 X-45.7659 Y25.1828 
G01 X-45.8814 Y24.3912 
G01 X-46.0351 Y23.6062 
G01 X-46.2266 Y22.8295 
G01 X-46.4553 Y22.0629 
G01 X-46.7208 Y21.3083 
G01 X-47.0225 Y20.5674 
G01 X-47.3596 Y19.8419 
G01 X-47.7314 Y19.1336 
G01 X-48.1369 Y18.4441 
G01 X-48.5753 Y17.7749 
G01 X-49.0455 Y17.1277 
G01 X-49.5464 Y16.5040 
G01 X-50.0769 Y15.9053 
G01 X-50.6357 Y15.3328 
G01 X-51.2214 Y14.7880 
G01 X-51.8329 Y14.2722 
G01 X-52.4685 Y13.7865 
G01 X-53.1268 Y13.3321 
G01 X-53.8064 Y12.9100 
G01 X-54.5055 Y12.5212 
G01 X-55.2226 Y12.1667 
G01 X-55.9560 Y11.8472 
G01 X-56.7040 Y11.5635 
G01 X-57.4648 Y11.3163 
G01 X-58.2366 Y11.1062 
G01 X-59.0178 Y10.9335 
G01 X-59.8063 Y10.7989 
G01 X-60.6004 Y10.7024 
G01 X-61.3983 Y10.6445 
G01 X-62.1980 Y10.6252 
G01 X-62.9977 Y10.6445 
G01 X-63.7956 Y10.7024 
G01 X-64.5897 Y10.7989 
G01 X-65.3782 Y10.9335 
G01 X-66.1593 Y11.1062 
G01 X-66.9312 Y11.3163 
G01 X-67.6920 Y11.5635 
G01 X-68.4400 Y11.8472 
G01 X-69.1734 Y12.1667 
G01 X-69.8905 Y12.5212 
G01 X-70.5896 Y12.9100 
G01 X-71.2692 Y13.3321 
G01 X-71.9275 Y13.7865 
G01 X-72.5631 Y14.2722 
G01 X-73.1746 Y14.7880 
G01 X-73.7603 Y15.3328 
G01 X-74.3191 Y15.9053 
G01 X-74.8496 Y16.5040 
G01 X-75.3505 Y17.1277 
G01 X-75.8207 Y17.7749 
G01 X-76.2591 Y18.4441 
G01 X-76.6646 Y19.1336 
G01 X-77.0364 Y19.8419 
G01 X-77.3735 Y20.5674 
G01 X-77.6752 Y21.3083 
G01 X-77.9407 Y22.0629 
G01 X-78.1694 Y22.8294 
G01 X-78.3609 Y23.6062 
G01 X-78.5146 Y24.3912 
G01 X-78.6301 Y25.1828 
G01 X-78.7073 Y25.9790 
G01 X-78.7460 Y26.7780 
G01 X-78.7460 Y27.5764 
G01 X-78.7069 Y28.3723 
G01 X-78.6288 Y29.1654 
G01 X-78.5119 Y29.9536 
G01 X-78.3564 Y30.7352 
G01 X-78.1628 Y31.5082 
G01 X-77.9315 Y32.2707 
G01 X-77.6630 Y33.0210 
G01 X-77.3581 Y33.7572 
G01 X-77.0173 Y34.4776 
G01 X-76.6417 Y35.1804 
G01 X-76.2320 Y35.8639 
G01 X-75.7893 Y36.5265 
G01 X-75.3146 Y37.1665 
G01 X-74.8091 Y37.7825 
G01 X-74.2739 Y38.3730 
G01 X-73.7105 Y38.9364 
G01 X-73.1200 Y39.4716 
G01 X-72.5040 Y39.9771 
G01 X-71.8640 Y40.4518 
G01 X-71.2014 Y40.8945 
G01 X-70.5179 Y41.3042 
G01 X-69.8151 Y41.6798 
G01 X-69.0948 Y42.0206 
G01 X-68.3585 Y42.3255 
G01 X-67.6082 Y42.5940 
G01 X-66.8457 Y42.8253 
G01 X-66.0727 Y43.0189 
G01 X-65.2911 Y43.1744 
G01 X-64.5029 Y43.2913 
G01 X-63.7099 Y43.3694 
G01 X-62.9139 Y43.4085 
G01 X-62.1171 Y43.4085 
G01 X-61.3212 Y43.3694 
G01 X-60.5281 Y43.2913 
G01 X-59.7399 Y43.1744 
G01 X-58.9583 Y43.0189 
G01 X-58.1853 Y42.8253 
G01 X-57.4228 Y42.5940 
G01 X-56.6725 Y42.3255 
G01 X-55.9363 Y42.0206 
G01 X-55.2159 Y41.6798 
G01 X-54.5131 Y41.3042 
G01 X-53.8296 Y40.8945 
G01 X-53.1670 Y40.4518 
G01 X-52.5270 Y39.9771 
G01 X-51.9110 Y39.4716 
G01 X-51.3205 Y38.9364 
G01 X-50.7571 Y38.3730 
G01 X-50.2219 Y37.7825 
G01 X-49.7164 Y37.1665 
G01 X-49.2417 Y36.5265 
G01 X-48.7990 Y35.8639 
G01 X-48.3893 Y35.1804 
G01 X-48.0137 Y34.4776 
G01 X-47.6729 Y33.7572 
G01 X-47.3680 Y33.0210 
G01 X-47.0995 Y32.2707 
G01 X-46.8682 Y31.5082 
G01 X-46.6746 Y30.7352 
G01 X-46.5191 Y29.9536 
G01 X-46.4022 Y29.1654 
G01 X-46.3241 Y28.3724 
G01 X-46.2850 Y27.5764 
G01 X-46.2850 Y26.7873 
G01 X-46.3233 Y26.0070 
G01 X-46.3999 Y25.2294 
G01 X-46.5146 Y24.4566 
G01 X-46.6670 Y23.6903 
G01 X-46.8568 Y22.9324 
G01 X-47.0836 Y22.1847 
G01 X-47.3468 Y21.4491 
G01 X-47.6458 Y20.7273 
G01 X-47.9799 Y20.0210 
G01 X-48.3482 Y19.3319 
G01 X-48.7499 Y18.6618 
G01 X-49.1839 Y18.0121 
G01 X-49.6494 Y17.3846 
G01 X-50.1450 Y16.7806 
G01 X-50.6697 Y16.2017 
G01 X-51.2222 Y15.6492 
G01 X-51.8011 Y15.1245 
G01 X-52.4051 Y14.6289 
